; #disp params :
; Printmode:0
; Layer:80
; Xmin:66.781 mm
; Xmax:193.153 mm
; XDimension:126.372 mm
; Ymin:37.387 mm
; Ymax:159.633 mm
; YDimension:122.246 mm
; Zmax:17 mm
; E0diam:0.4 mm
; E0len:17.6348 m
; E0temp:250 C
; Bedtemp:250 C
; Time:323.592 min
; SlicePreset:Current Easy Preset*
; #params end
; GCode generated by CraftWare

G28 X Y ; home horizontally
G28 Z ; home vertically


M104 S250 ;set head temp (no wait)
M190 S65 ;set bed temp (wait)
M109 S250 ;set head temp (wait)

; ------------------------------------
; Raft Layer #0
; ------------------------------------
M106 S0 ;turn off fan
G21 ; mm
G90 ; abs
G92 E0 ;reset extr
G0 F600 Z0.300
;segType:Raft
G0 F3000 E-1.00000
G0 F600 Z2.300
G0 X95.668 Y157.242 F5400
G0 F600 Z0.300
G0 F3000 E0.00000
G1 X95.668 Y127.492 E1.48423 F600
G1 X95.602 Y127.293 E1.49469
G1 X69.570 Y127.293 E2.79340
G1 X69.105 Y127.227 E2.81684
G1 X66.847 Y124.969 E2.97614
G1 X66.847 Y75.563 E5.44103
G1 X66.914 Y75.097 E5.46447
G1 X69.172 Y72.840 E5.62377
G1 X91.484 Y72.840 E6.73695
G1 X91.949 Y72.773 E6.76036
G1 X91.949 Y71.711 E6.81337
G1 X92.879 Y70.781 E6.87896
G1 X92.879 Y40.234 E8.40295
G1 X95.535 Y37.578 E8.59036
G1 X96.000 Y37.511 E8.61381
G1 X161.875 Y37.511 E11.90032
G1 X162.340 Y37.578 E11.92376
G1 X164.996 Y40.234 E12.11118
G1 X164.996 Y72.641 E13.72793
G1 X165.063 Y72.840 E13.73839
G1 X190.563 Y72.840 E15.01059
G1 X190.895 Y73.039 E15.02993
G1 X193.153 Y75.297 E15.18923
G1 X193.153 Y124.703 E17.65412
G1 X192.953 Y125.035 E17.67345
G1 X190.695 Y127.293 E17.83276
G1 X164.398 Y127.293 E19.14471
G1 X164.332 Y127.758 E19.16813
G1 X164.332 Y157.242 E20.63911
G1 X162.207 Y159.367 E20.78904
G1 X161.875 Y159.567 E20.80838
G1 X98.125 Y159.567 E23.98888
G1 X97.793 Y159.367 E24.00821
G1 X95.668 Y157.242 E24.15814
G0 X96.201 Y157.242 F5400
G1 X96.201 Y37.977 E30.10833 F600
G1 X96.601 Y37.977 E30.12829
G1 X96.601 Y157.641 E36.09835
G1 X97.001 Y158.039 E36.12652
G1 X97.001 Y37.977 E42.11647
G1 X97.401 Y37.977 E42.13642
G1 X97.401 Y158.438 E48.14624
G1 X97.801 Y158.836 E48.17441
G1 X97.801 Y37.977 E54.20411
G1 X98.201 Y37.977 E54.22406
G1 X98.201 Y159.234 E60.27364
G1 X98.601 Y159.234 E60.29359
G1 X98.601 Y37.977 E66.34317
G1 X99.001 Y37.977 E66.36313
G1 X99.001 Y159.234 E72.41271
G1 X99.401 Y159.234 E72.43267
G1 X99.401 Y37.977 E78.48224
G1 X99.801 Y37.977 E78.50220
G1 X99.801 Y159.234 E84.55177
G1 X100.201 Y159.234 E84.57173
G1 X100.201 Y37.977 E90.62131
G1 X100.601 Y37.977 E90.64127
G1 X100.601 Y159.234 E96.69084
G1 X101.001 Y159.234 E96.71080
G1 X101.001 Y37.977 E102.76038
G1 X101.401 Y37.977 E102.78033
G1 X101.401 Y159.234 E108.82991
G1 X101.801 Y159.234 E108.84987
G1 X101.801 Y37.977 E114.89944
G1 X102.201 Y37.977 E114.91940
G1 X102.201 Y159.234 E120.96898
G1 X102.601 Y159.234 E120.98894
G1 X102.601 Y37.977 E127.03851
G1 X103.001 Y37.977 E127.05847
G1 X103.001 Y159.234 E133.10805
G1 X103.401 Y159.234 E133.12801
G1 X103.401 Y37.977 E139.17758
G1 X103.801 Y37.977 E139.19754
G1 X103.801 Y159.234 E145.24712
G1 X104.201 Y159.234 E145.26707
G1 X104.201 Y37.977 E151.31665
G1 X104.601 Y37.977 E151.33661
G1 X104.601 Y159.234 E157.38618
G1 X105.001 Y159.234 E157.40614
G1 X105.001 Y37.977 E163.45572
G1 X105.401 Y37.977 E163.47568
G1 X105.401 Y159.234 E169.52526
G1 X105.801 Y159.234 E169.54522
G1 X105.801 Y37.977 E175.59478
G1 X106.201 Y37.977 E175.61474
G1 X106.201 Y159.234 E181.66432
G1 X106.601 Y159.234 E181.68428
G1 X106.601 Y37.977 E187.73386
G1 X107.001 Y37.977 E187.75382
G1 X107.001 Y159.234 E193.80340
G1 X107.401 Y159.234 E193.82334
G1 X107.401 Y37.977 E199.87292
G1 X107.801 Y37.977 E199.89288
G1 X107.801 Y159.234 E205.94246
G1 X108.201 Y159.234 E205.96242
G1 X108.201 Y37.977 E212.01200
G1 X108.601 Y37.977 E212.03196
G1 X108.601 Y159.234 E218.08152
G1 X109.001 Y159.234 E218.10148
G1 X109.001 Y37.977 E224.15106
G1 X109.401 Y37.977 E224.17102
G1 X109.401 Y159.234 E230.22060
G1 X109.801 Y159.234 E230.24056
G1 X109.801 Y37.977 E236.29014
G1 X110.201 Y37.977 E236.31008
G1 X110.201 Y159.234 E242.35966
G1 X110.601 Y159.234 E242.37962
G1 X110.601 Y37.977 E248.42920
G1 X111.001 Y37.977 E248.44916
G1 X111.001 Y159.234 E254.49874
G1 X111.401 Y159.234 E254.51870
G1 X111.401 Y37.977 E260.56826
G1 X111.801 Y37.977 E260.58822
G1 X111.801 Y159.234 E266.63782
G1 X112.201 Y159.234 E266.65778
G1 X112.201 Y37.977 E272.70736
G1 X112.601 Y37.977 E272.72732
G1 X112.601 Y159.234 E278.77692
G1 X113.001 Y159.234 E278.79688
G1 X113.001 Y37.977 E284.84646
G1 X113.401 Y37.977 E284.86642
G1 X113.401 Y159.234 E290.91602
G1 X113.801 Y159.234 E290.93598
G1 X113.801 Y37.977 E296.98556
G1 X114.201 Y37.977 E297.00552
G1 X114.201 Y159.234 E303.05512
G1 X114.601 Y159.234 E303.07508
G1 X114.601 Y37.977 E309.12466
G1 X115.001 Y37.977 E309.14462
G1 X115.001 Y159.234 E315.19422
G1 X115.401 Y159.234 E315.21418
G1 X115.401 Y37.977 E321.26376
G1 X115.801 Y37.977 E321.28372
G1 X115.801 Y159.234 E327.33332
G1 X116.201 Y159.234 E327.35328
G1 X116.201 Y37.977 E333.40286
G1 X116.601 Y37.977 E333.42282
G1 X116.601 Y159.234 E339.47240
G1 X117.001 Y159.234 E339.49236
G1 X117.001 Y37.977 E345.54196
G1 X117.401 Y37.977 E345.56192
G1 X117.401 Y159.234 E351.61152
G1 X117.801 Y159.234 E351.63148
G1 X117.801 Y37.977 E357.68108
G1 X118.201 Y37.977 E357.70100
G1 X118.201 Y159.234 E363.75060
G1 X118.601 Y159.234 E363.77056
G1 X118.601 Y37.977 E369.82016
G1 X119.001 Y37.977 E369.84012
G1 X119.001 Y159.234 E375.88972
G1 X119.401 Y159.234 E375.90968
G1 X119.401 Y37.977 E381.95924
G1 X119.801 Y37.977 E381.97920
G1 X119.801 Y159.234 E388.02880
G1 X120.201 Y159.234 E388.04876
G1 X120.201 Y37.977 E394.09836
G1 X120.601 Y37.977 E394.11832
G1 X120.601 Y159.234 E400.16792
G1 X121.001 Y159.234 E400.18788
G1 X121.001 Y37.977 E406.23744
G1 X121.401 Y37.977 E406.25740
G1 X121.401 Y159.234 E412.30700
G1 X121.801 Y159.234 E412.32696
G1 X121.801 Y37.977 E418.37656
G1 X122.201 Y37.977 E418.39652
G1 X122.201 Y159.234 E424.44612
G1 X122.601 Y159.234 E424.46608
G1 X122.601 Y37.977 E430.51564
G1 X123.001 Y37.977 E430.53560
G1 X123.001 Y159.234 E436.58520
G1 X123.401 Y159.234 E436.60516
G1 X123.401 Y37.977 E442.65476
G1 X123.801 Y37.977 E442.67472
G1 X123.801 Y159.234 E448.72432
G1 X124.201 Y159.234 E448.74428
G1 X124.201 Y37.977 E454.79384
G1 X124.601 Y37.977 E454.81380
G1 X124.601 Y159.234 E460.86340
G1 X125.001 Y159.234 E460.88336
G1 X125.001 Y37.977 E466.93296
G1 X125.401 Y37.977 E466.95292
G1 X125.401 Y159.234 E473.00252
G1 X125.801 Y159.234 E473.02248
G1 X125.801 Y37.977 E479.07204
G1 X126.201 Y37.977 E479.09200
G1 X126.201 Y159.234 E485.14160
G1 X126.601 Y159.234 E485.16156
G1 X126.601 Y37.977 E491.21116
G1 X127.001 Y37.977 E491.23112
G1 X127.001 Y159.234 E497.28072
G1 X127.401 Y159.234 E497.30064
G1 X127.401 Y37.977 E503.35024
G1 X127.801 Y37.977 E503.37020
G1 X127.801 Y159.234 E509.41980
G1 X128.201 Y159.234 E509.43976
G1 X128.201 Y37.977 E515.48932
G1 X128.601 Y37.977 E515.50928
G1 X128.601 Y159.234 E521.55884
G1 X129.001 Y159.234 E521.57880
G1 X129.001 Y37.977 E527.62836
G1 X129.401 Y37.977 E527.64832
G1 X129.401 Y159.234 E533.69788
G1 X129.801 Y159.234 E533.71784
G1 X129.801 Y37.977 E539.76740
G1 X130.201 Y37.977 E539.78736
G1 X130.201 Y159.234 E545.83692
G1 X130.601 Y159.234 E545.85688
G1 X130.601 Y37.977 E551.90644
G1 X131.001 Y37.977 E551.92640
G1 X131.001 Y159.234 E557.97596
G1 X131.401 Y159.234 E557.99592
G1 X131.401 Y37.977 E564.04548
G1 X131.801 Y37.977 E564.06544
G1 X131.801 Y159.234 E570.11500
G1 X132.201 Y159.234 E570.13496
G1 X132.201 Y37.977 E576.18452
G1 X132.601 Y37.977 E576.20448
G1 X132.601 Y159.234 E582.25404
G1 X133.001 Y159.234 E582.27400
G1 X133.001 Y37.977 E588.32356
G1 X133.401 Y37.977 E588.34352
G1 X133.401 Y159.234 E594.39308
G1 X133.801 Y159.234 E594.41304
G1 X133.801 Y37.977 E600.46260
G1 X134.201 Y37.977 E600.48256
G1 X134.201 Y159.234 E606.53212
G1 X134.601 Y159.234 E606.55208
G1 X134.601 Y37.977 E612.60164
G1 X135.001 Y37.977 E612.62160
G1 X135.001 Y159.234 E618.67116
G1 X135.401 Y159.234 E618.69112
G1 X135.401 Y37.977 E624.74068
G1 X135.801 Y37.977 E624.76064
G1 X135.801 Y159.234 E630.81020
G1 X136.201 Y159.234 E630.83012
G1 X136.201 Y37.977 E636.87968
G1 X136.601 Y37.977 E636.89964
G1 X136.601 Y159.234 E642.94920
G1 X137.001 Y159.234 E642.96916
G1 X137.001 Y37.977 E649.01872
G1 X137.401 Y37.977 E649.03868
G1 X137.401 Y159.234 E655.08824
G1 X137.801 Y159.234 E655.10820
G1 X137.801 Y37.977 E661.15776
G1 X138.201 Y37.977 E661.17772
G1 X138.201 Y159.234 E667.22728
G1 X138.601 Y159.234 E667.24724
G1 X138.601 Y37.977 E673.29680
G1 X139.001 Y37.977 E673.31680
G1 X139.001 Y159.234 E679.36632
G1 X139.401 Y159.234 E679.38632
G1 X139.401 Y37.977 E685.43584
G1 X139.801 Y37.977 E685.45584
G1 X139.801 Y159.234 E691.50536
G1 X140.201 Y159.234 E691.52536
G1 X140.201 Y37.977 E697.57488
G1 X140.601 Y37.977 E697.59488
G1 X140.601 Y159.234 E703.64440
G1 X141.001 Y159.234 E703.66440
G1 X141.001 Y37.977 E709.71392
G1 X141.401 Y37.977 E709.73392
G1 X141.401 Y159.234 E715.78344
G1 X141.801 Y159.234 E715.80344
G1 X141.801 Y37.977 E721.85296
G1 X142.201 Y37.977 E721.87296
G1 X142.201 Y159.234 E727.92248
G1 X142.601 Y159.234 E727.94248
G1 X142.601 Y37.977 E733.99200
G1 X143.001 Y37.977 E734.01200
G1 X143.001 Y159.234 E740.06152
G1 X143.401 Y159.234 E740.08152
G1 X143.401 Y37.977 E746.13104
G1 X143.801 Y37.977 E746.15104
G1 X143.801 Y159.234 E752.20056
G1 X144.201 Y159.234 E752.22056
G1 X144.201 Y37.977 E758.27008
G1 X144.601 Y37.977 E758.29000
G1 X144.601 Y159.234 E764.33960
G1 X145.001 Y159.234 E764.35952
G1 X145.001 Y37.977 E770.40912
G1 X145.401 Y37.977 E770.42904
G1 X145.401 Y159.234 E776.47864
G1 X145.801 Y159.234 E776.49856
G1 X145.801 Y37.977 E782.54816
G1 X146.201 Y37.977 E782.56808
G1 X146.201 Y159.234 E788.61768
G1 X146.601 Y159.234 E788.63760
G1 X146.601 Y37.977 E794.68720
G1 X147.001 Y37.977 E794.70712
G1 X147.001 Y159.234 E800.75672
G1 X147.401 Y159.234 E800.77664
G1 X147.401 Y37.977 E806.82624
G1 X147.801 Y37.977 E806.84616
G1 X147.801 Y159.234 E812.89576
G1 X148.201 Y159.234 E812.91568
G1 X148.201 Y37.977 E818.96528
G1 X148.601 Y37.977 E818.98520
G1 X148.601 Y159.234 E825.03480
G1 X149.001 Y159.234 E825.05472
G1 X149.001 Y37.977 E831.10432
G1 X149.401 Y37.977 E831.12424
G1 X149.401 Y159.234 E837.17384
G1 X149.801 Y159.234 E837.19376
G1 X149.801 Y37.977 E843.24336
G1 X150.201 Y37.977 E843.26328
G1 X150.201 Y159.234 E849.31288
G1 X150.601 Y159.234 E849.33280
G1 X150.601 Y37.977 E855.38240
G1 X151.001 Y37.977 E855.40232
G1 X151.001 Y159.234 E861.45192
G1 X151.401 Y159.234 E861.47184
G1 X151.401 Y37.977 E867.52144
G1 X151.801 Y37.977 E867.54136
G1 X151.801 Y159.234 E873.59096
G1 X152.201 Y159.234 E873.61088
G1 X152.201 Y37.977 E879.66048
G1 X152.601 Y37.977 E879.68040
G1 X152.601 Y159.234 E885.73000
G1 X153.001 Y159.234 E885.74992
G1 X153.001 Y37.977 E891.79952
G1 X153.401 Y37.977 E891.81944
G1 X153.401 Y159.234 E897.86904
G1 X153.801 Y159.234 E897.88896
G1 X153.801 Y37.977 E903.93856
G1 X154.201 Y37.977 E903.95848
G1 X154.201 Y159.234 E910.00808
G1 X154.601 Y159.234 E910.02800
G1 X154.601 Y37.977 E916.07760
G1 X155.001 Y37.977 E916.09752
G1 X155.001 Y159.234 E922.14712
G1 X155.401 Y159.234 E922.16704
G1 X155.401 Y37.977 E928.21664
G1 X155.801 Y37.977 E928.23656
G1 X155.801 Y159.234 E934.28616
G1 X156.201 Y159.234 E934.30608
G1 X156.201 Y37.977 E940.35568
G1 X156.601 Y37.977 E940.37560
G1 X156.601 Y159.234 E946.42520
G1 X157.001 Y159.234 E946.44512
G1 X157.001 Y37.977 E952.49472
G1 X157.401 Y37.977 E952.51464
G1 X157.401 Y159.234 E958.56424
G1 X157.801 Y159.234 E958.58416
G1 X157.801 Y37.977 E964.63376
G1 X158.201 Y37.977 E964.65368
G1 X158.201 Y159.234 E970.70328
G1 X158.601 Y159.234 E970.72320
G1 X158.601 Y37.977 E976.77280
G1 X159.001 Y37.977 E976.79272
G1 X159.001 Y159.234 E982.84232
G1 X159.401 Y159.234 E982.86224
G1 X159.401 Y37.977 E988.91184
G1 X159.801 Y37.977 E988.93176
G1 X159.801 Y159.234 E994.98136
G1 X160.201 Y159.234 E995.00128
G1 X160.201 Y37.977 E1001.05088
G1 X160.601 Y37.977 E1001.07080
G1 X160.601 Y159.234 E1007.12040
G1 X161.001 Y159.234 E1007.14032
G1 X161.001 Y37.977 E1013.18992
G1 X161.401 Y37.977 E1013.20984
G1 X161.401 Y159.234 E1019.25936
G1 X161.801 Y159.234 E1019.27936
G1 X161.801 Y37.977 E1025.32896
G1 X162.201 Y38.109 E1025.35000
G1 X162.201 Y158.836 E1031.37304
G1 X162.601 Y158.438 E1031.40128
G1 X162.601 Y38.508 E1037.38456
G1 X163.001 Y38.906 E1037.41272
G1 X163.001 Y158.039 E1043.35632
G1 X163.401 Y157.641 E1043.38456
G1 X163.401 Y39.305 E1049.28832
G1 X163.801 Y39.836 E1049.32152
G1 X163.801 Y157.109 E1055.17240
G0 X95.801 Y126.961 F5400
G1 X95.801 Y37.977 E1059.61184 F600
G1 X95.401 Y38.508 E1059.64504
G1 X95.401 Y126.961 E1064.05800
G1 X95.001 Y126.961 E1064.07792
G1 X95.001 Y38.906 E1068.47096
G1 X94.601 Y39.305 E1068.49912
G1 X94.601 Y126.961 E1072.87232
G1 X94.201 Y126.961 E1072.89224
G1 X94.201 Y39.703 E1077.24552
G1 X93.801 Y40.102 E1077.27368
G1 X93.801 Y126.961 E1081.60704
G1 X93.401 Y126.961 E1081.62696
G1 X93.401 Y40.500 E1085.94056
G0 X67.401 Y75.297 F5400
G1 X67.401 Y124.969 E1088.41872 F600
G1 X67.801 Y125.367 E1088.44688
G1 X67.801 Y74.898 E1090.96488
G1 X68.201 Y74.500 E1090.99304
G1 X68.201 Y125.766 E1093.55064
G1 X68.601 Y126.164 E1093.57888
G1 X68.601 Y74.102 E1096.17624
G1 X69.001 Y73.703 E1096.20448
G1 X69.001 Y126.563 E1098.84168
G1 X69.401 Y126.961 E1098.86984
G1 X69.401 Y73.305 E1101.54672
G1 X69.801 Y73.305 E1101.56664
G1 X69.801 Y126.961 E1104.24352
G1 X70.201 Y126.961 E1104.26344
G1 X70.201 Y73.305 E1106.94032
G1 X70.601 Y73.305 E1106.96024
G1 X70.601 Y126.961 E1109.63712
G1 X71.001 Y126.961 E1109.65696
G1 X71.001 Y73.305 E1112.33384
G1 X71.401 Y73.305 E1112.35376
G1 X71.401 Y126.961 E1115.03064
G1 X71.801 Y126.961 E1115.05056
G1 X71.801 Y73.305 E1117.72744
G1 X72.201 Y73.305 E1117.74728
G1 X72.201 Y126.961 E1120.42416
G1 X72.601 Y126.961 E1120.44408
G1 X72.601 Y73.305 E1123.12096
G1 X73.001 Y73.305 E1123.14088
G1 X73.001 Y126.961 E1125.81776
G1 X73.401 Y126.961 E1125.83768
G1 X73.401 Y73.305 E1128.51456
G1 X73.801 Y73.305 E1128.53440
G1 X73.801 Y126.961 E1131.21128
G1 X74.201 Y126.961 E1131.23120
G1 X74.201 Y73.305 E1133.90808
G1 X74.601 Y73.305 E1133.92800
G1 X74.601 Y126.961 E1136.60488
G1 X75.001 Y126.961 E1136.62472
G1 X75.001 Y73.305 E1139.30160
G1 X75.401 Y73.305 E1139.32152
G1 X75.401 Y126.961 E1141.99840
G1 X75.801 Y126.961 E1142.01832
G1 X75.801 Y73.305 E1144.69520
G1 X76.201 Y73.305 E1144.71512
G1 X76.201 Y126.961 E1147.39200
G1 X76.601 Y126.961 E1147.41184
G1 X76.601 Y73.305 E1150.08872
G1 X77.001 Y73.305 E1150.10864
G1 X77.001 Y126.961 E1152.78552
G1 X77.401 Y126.961 E1152.80544
G1 X77.401 Y73.305 E1155.48232
G1 X77.801 Y73.305 E1155.50216
G1 X77.801 Y126.961 E1158.17904
G1 X78.201 Y126.961 E1158.19896
G1 X78.201 Y73.305 E1160.87584
G1 X78.601 Y73.305 E1160.89576
G1 X78.601 Y126.961 E1163.57264
G1 X79.001 Y126.961 E1163.59256
G1 X79.001 Y73.305 E1166.26944
G1 X79.401 Y73.305 E1166.28928
G1 X79.401 Y126.961 E1168.96616
G1 X79.801 Y126.961 E1168.98608
G1 X79.801 Y73.305 E1171.66296
G1 X80.201 Y73.305 E1171.68288
G1 X80.201 Y126.961 E1174.35976
G1 X80.601 Y126.961 E1174.37960
G1 X80.601 Y73.305 E1177.05648
G1 X81.001 Y73.305 E1177.07640
G1 X81.001 Y126.961 E1179.75328
G1 X81.401 Y126.961 E1179.77320
G1 X81.401 Y73.305 E1182.45008
G1 X81.801 Y73.305 E1182.47000
G1 X81.801 Y126.961 E1185.14688
G1 X82.201 Y126.961 E1185.16672
G1 X82.201 Y73.305 E1187.84360
G1 X82.601 Y73.305 E1187.86352
G1 X82.601 Y126.961 E1190.54040
G1 X83.001 Y126.961 E1190.56032
G1 X83.001 Y73.305 E1193.23720
G1 X83.401 Y73.305 E1193.25712
G1 X83.401 Y126.961 E1195.93392
G1 X83.801 Y126.961 E1195.95384
G1 X83.801 Y73.305 E1198.63072
G1 X84.201 Y73.305 E1198.65064
G1 X84.201 Y126.961 E1201.32752
G1 X84.601 Y126.961 E1201.34744
G1 X84.601 Y73.305 E1204.02432
G1 X85.001 Y73.305 E1204.04416
G1 X85.001 Y126.961 E1206.72104
G1 X85.401 Y126.961 E1206.74096
G1 X85.401 Y73.305 E1209.41784
G1 X85.801 Y73.305 E1209.43776
G1 X85.801 Y126.961 E1212.11464
G1 X86.201 Y126.961 E1212.13456
G1 X86.201 Y73.305 E1214.81144
G1 X86.601 Y73.305 E1214.83128
G1 X86.601 Y126.961 E1217.50816
G1 X87.001 Y126.961 E1217.52808
G1 X87.001 Y73.305 E1220.20496
G1 X87.401 Y73.305 E1220.22488
G1 X87.401 Y126.961 E1222.90176
G1 X87.801 Y126.961 E1222.92160
G1 X87.801 Y73.305 E1225.59848
G1 X88.201 Y73.305 E1225.61840
G1 X88.201 Y126.961 E1228.29528
G1 X88.601 Y126.961 E1228.31520
G1 X88.601 Y73.305 E1230.99208
G1 X89.001 Y73.305 E1231.01200
G1 X89.001 Y126.961 E1233.68888
G1 X89.401 Y126.961 E1233.70872
G1 X89.401 Y73.305 E1236.38560
G1 X89.801 Y73.305 E1236.40552
G1 X89.801 Y126.961 E1239.08240
G1 X90.201 Y126.961 E1239.10232
G1 X90.201 Y73.305 E1241.77920
G1 X90.601 Y73.305 E1241.79904
G1 X90.601 Y126.961 E1244.47592
G1 X91.001 Y126.961 E1244.49584
G1 X91.001 Y73.305 E1247.17272
G1 X91.401 Y73.305 E1247.19264
G1 X91.401 Y126.961 E1249.86952
G1 X91.801 Y126.961 E1249.88944
G1 X91.801 Y73.305 E1252.56632
G1 X92.201 Y73.305 E1252.58616
G1 X92.201 Y126.961 E1255.26304
G1 X92.601 Y126.961 E1255.28296
G1 X92.601 Y71.844 E1258.03272
G1 X93.001 Y71.445 E1258.06088
G1 X93.001 Y126.961 E1260.83056
G0 X192.601 Y75.430 F5400
G1 X192.601 Y124.836 E1263.29544 F600
G1 X192.201 Y125.234 E1263.32360
G1 X192.201 Y75.031 E1265.82824
G1 X191.801 Y74.633 E1265.85648
G1 X191.801 Y125.633 E1268.40088
G1 X191.401 Y126.031 E1268.42904
G1 X191.401 Y74.234 E1271.01320
G1 X191.001 Y73.836 E1271.04136
G1 X191.001 Y126.430 E1273.66528
G1 X190.601 Y126.828 E1273.69352
G1 X190.601 Y73.438 E1276.35720
G1 X190.201 Y73.305 E1276.37816
G1 X190.201 Y126.961 E1279.05504
G1 X189.801 Y126.961 E1279.07496
G1 X189.801 Y73.305 E1281.75184
G1 X189.401 Y73.305 E1281.77176
G1 X189.401 Y126.961 E1284.44864
G1 X189.001 Y126.961 E1284.46848
G1 X189.001 Y73.305 E1287.14536
G1 X188.601 Y73.305 E1287.16528
G1 X188.601 Y126.961 E1289.84216
G1 X188.201 Y126.961 E1289.86208
G1 X188.201 Y73.305 E1292.53896
G1 X187.801 Y73.305 E1292.55880
G1 X187.801 Y126.961 E1295.23568
G1 X187.401 Y126.961 E1295.25560
G1 X187.401 Y73.305 E1297.93248
G1 X187.001 Y73.305 E1297.95240
G1 X187.001 Y126.961 E1300.62928
G1 X186.601 Y126.961 E1300.64920
G1 X186.601 Y73.305 E1303.32608
G1 X186.201 Y73.305 E1303.34592
G1 X186.201 Y126.961 E1306.02280
G1 X185.801 Y126.961 E1306.04272
G1 X185.801 Y73.305 E1308.71960
G1 X185.401 Y73.305 E1308.73952
G1 X185.401 Y126.961 E1311.41640
G1 X185.001 Y126.961 E1311.43624
G1 X185.001 Y73.305 E1314.11312
G1 X184.601 Y73.305 E1314.13304
G1 X184.601 Y126.961 E1316.80992
G1 X184.201 Y126.961 E1316.82984
G1 X184.201 Y73.305 E1319.50672
G1 X183.801 Y73.305 E1319.52664
G1 X183.801 Y126.961 E1322.20352
G1 X183.401 Y126.961 E1322.22336
G1 X183.401 Y73.305 E1324.90024
G1 X183.001 Y73.305 E1324.92016
G1 X183.001 Y126.961 E1327.59704
G1 X182.601 Y126.961 E1327.61696
G1 X182.601 Y73.305 E1330.29384
G1 X182.201 Y73.305 E1330.31376
G1 X182.201 Y126.961 E1332.99064
G1 X181.801 Y126.961 E1333.01048
G1 X181.801 Y73.305 E1335.68736
G1 X181.401 Y73.305 E1335.70728
G1 X181.401 Y126.961 E1338.38416
G1 X181.001 Y126.961 E1338.40408
G1 X181.001 Y73.305 E1341.08096
G1 X180.601 Y73.305 E1341.10080
G1 X180.601 Y126.961 E1343.77776
G1 X180.201 Y126.961 E1343.79760
G1 X180.201 Y73.305 E1346.47456
G1 X179.801 Y73.305 E1346.49440
G1 X179.801 Y126.961 E1349.17120
G1 X179.401 Y126.961 E1349.19120
G1 X179.401 Y73.305 E1351.86800
G1 X179.001 Y73.305 E1351.88800
G1 X179.001 Y126.961 E1354.56480
G1 X178.601 Y126.961 E1354.58464
G1 X178.601 Y73.305 E1357.26160
G1 X178.201 Y73.305 E1357.28144
G1 X178.201 Y126.961 E1359.95840
G1 X177.801 Y126.961 E1359.97824
G1 X177.801 Y73.305 E1362.65520
G1 X177.401 Y73.305 E1362.67504
G1 X177.401 Y126.961 E1365.35200
G1 X177.001 Y126.961 E1365.37184
G1 X177.001 Y73.305 E1368.04864
G1 X176.601 Y73.305 E1368.06864
G1 X176.601 Y126.961 E1370.74544
G1 X176.201 Y126.961 E1370.76544
G1 X176.201 Y73.305 E1373.44224
G1 X175.801 Y73.305 E1373.46208
G1 X175.801 Y126.961 E1376.13904
G1 X175.401 Y126.961 E1376.15888
G1 X175.401 Y73.305 E1378.83584
G1 X175.001 Y73.305 E1378.85568
G1 X175.001 Y126.961 E1381.53264
G1 X174.601 Y126.961 E1381.55248
G1 X174.601 Y73.305 E1384.22944
G1 X174.201 Y73.305 E1384.24928
G1 X174.201 Y126.961 E1386.92608
G1 X173.801 Y126.961 E1386.94608
G1 X173.801 Y73.305 E1389.62288
G1 X173.401 Y73.305 E1389.64288
G1 X173.401 Y126.961 E1392.31968
G1 X173.001 Y126.961 E1392.33952
G1 X173.001 Y73.305 E1395.01648
G1 X172.601 Y73.305 E1395.03632
G1 X172.601 Y126.961 E1397.71328
G1 X172.201 Y126.961 E1397.73312
G1 X172.201 Y73.305 E1400.41008
G1 X171.801 Y73.305 E1400.42992
G1 X171.801 Y126.961 E1403.10688
G1 X171.401 Y126.961 E1403.12672
G1 X171.401 Y73.305 E1405.80352
G1 X171.001 Y73.305 E1405.82352
G1 X171.001 Y126.961 E1408.50032
G1 X170.601 Y126.961 E1408.52032
G1 X170.601 Y73.305 E1411.19712
G1 X170.201 Y73.305 E1411.21712
G1 X170.201 Y126.961 E1413.89392
G1 X169.801 Y126.961 E1413.91376
G1 X169.801 Y73.305 E1416.59072
G1 X169.401 Y73.305 E1416.61056
G1 X169.401 Y126.961 E1419.28752
G1 X169.001 Y126.961 E1419.30736
G1 X169.001 Y73.305 E1421.98432
G1 X168.601 Y73.305 E1422.00416
G1 X168.601 Y126.961 E1424.68096
G1 X168.201 Y126.961 E1424.70096
G1 X168.201 Y73.305 E1427.37776
G1 X167.801 Y73.305 E1427.39776
G1 X167.801 Y126.961 E1430.07456
G1 X167.401 Y126.961 E1430.09456
G1 X167.401 Y73.305 E1432.77136
G1 X167.001 Y73.305 E1432.79120
G1 X167.001 Y126.961 E1435.46816
G1 X166.601 Y126.961 E1435.48800
G1 X166.601 Y73.305 E1438.16496
G1 X166.201 Y73.305 E1438.18480
G1 X166.201 Y126.961 E1440.86176
G1 X165.801 Y126.961 E1440.88160
G1 X165.801 Y73.305 E1443.55840
G1 X165.401 Y73.305 E1443.57840
G1 X165.401 Y126.961 E1446.25520
G1 X165.001 Y126.961 E1446.27520
G1 X165.001 Y73.305 E1448.95200
G1 X164.601 Y73.172 E1448.97296
G1 X164.601 Y126.961 E1451.65664
G1 X164.201 Y126.961 E1451.67648
G1 X164.201 Y40.234 E1456.00336



; ------------------------------------
; Raft Layer #1
; ------------------------------------
G92 E0 ;reset extr
G0 F600 Z0.600
;segType:Raft
G0 X164.930 Y40.493 F7200
G1 X78.203 Y127.218 E6.11898 F1800
G0 X80.063 Y127.244 F7200
G1 X164.930 Y42.378 E12.10677 F1800
G0 X164.930 Y44.264 F7200
G1 X81.922 Y127.270 E17.96338 F1800
G0 X83.914 Y127.164 F7200
G1 X164.930 Y46.149 E23.67943 F1800
G0 X164.930 Y48.035 F7200
G1 X85.773 Y127.190 E29.26428 F1800
G0 X87.633 Y127.216 F7200
G1 X164.930 Y49.921 E34.71795 F1800
G0 X164.930 Y51.806 F7200
G1 X89.492 Y127.243 E40.04044 F1800
G0 X91.352 Y127.269 F7200
G1 X164.930 Y53.692 E45.23173 F1800
G0 X164.930 Y55.578 F7200
G1 X93.344 Y127.162 E50.28247 F1800
G0 X95.203 Y127.189 F7200
G1 X164.930 Y57.463 E55.20202 F1800
G0 X164.930 Y59.349 F7200
G1 X95.602 Y128.676 E60.09345 F1800
G0 X95.602 Y130.561 F7200
G1 X164.930 Y61.234 E64.98489 F1800
G0 X164.930 Y63.120 F7200
G1 X95.602 Y132.447 E69.87632 F1800
G0 X95.602 Y134.333 F7200
G1 X164.930 Y65.006 E74.76776 F1800
G0 X164.956 Y66.865 F7200
G1 X95.628 Y136.192 E79.65919 F1800
G0 X95.654 Y138.051 F7200
G1 X164.982 Y68.724 E84.55062 F1800
G0 X164.876 Y70.716 F7200
G1 X95.548 Y140.043 E89.44205 F1800
G0 X95.574 Y141.903 F7200
G1 X164.902 Y72.576 E94.33349 F1800
G0 X166.655 Y72.709 F7200
G1 X95.600 Y143.762 E99.34674 F1800
G0 X95.626 Y145.622 F7200
G1 X168.540 Y72.709 E104.49118 F1800
G0 X170.426 Y72.709 F7200
G1 X95.653 Y147.481 E109.76681 F1800
G0 X95.546 Y149.473 F7200
G1 X172.312 Y72.709 E115.18300 F1800
G0 X174.197 Y72.709 F7200
G1 X95.572 Y151.332 E120.73038 F1800
G0 X95.598 Y153.192 F7200
G1 X176.083 Y72.709 E126.40894 F1800
G0 X177.968 Y72.709 F7200
G1 X95.625 Y155.051 E132.21869 F1800
G0 X95.651 Y156.910 F7200
G1 X179.854 Y72.709 E138.15962 F1800
G0 X181.740 Y72.709 F7200
G1 X96.474 Y157.973 E144.17552 F1800
G0 X97.430 Y158.903 F7200
G1 X183.625 Y72.709 E150.25702 F1800
G0 X185.511 Y72.709 F7200
G1 X98.784 Y159.434 E156.37601 F1800
G0 X100.670 Y159.434 F7200
G1 X187.397 Y72.709 E162.49500 F1800
G0 X189.282 Y72.709 F7200
G1 X102.556 Y159.434 E168.61398 F1800
G0 X104.441 Y159.434 F7200
G1 X190.902 Y72.974 E174.71422 F1800
G0 X191.858 Y73.904 F7200
G1 X106.327 Y159.434 E180.74888 F1800
G0 X108.212 Y159.434 F7200
G1 X192.814 Y74.834 E186.71792 F1800
G0 X193.106 Y76.427 F7200
G1 X110.098 Y159.434 E192.57454 F1800
G0 X111.984 Y159.434 F7200
G1 X193.132 Y78.287 E198.29996 F1800
G0 X193.026 Y80.279 F7200
G1 X113.869 Y159.434 E203.88482 F1800
G0 X115.755 Y159.434 F7200
G1 X193.052 Y82.138 E209.33848 F1800
G0 X193.078 Y83.997 F7200
G1 X117.641 Y159.434 E214.66096 F1800
G0 X119.526 Y159.434 F7200
G1 X193.104 Y85.857 E219.85226 F1800
G0 X193.131 Y87.716 F7200
G1 X121.412 Y159.434 E224.91236 F1800
G0 X123.297 Y159.434 F7200
G1 X193.024 Y89.708 E229.83192 F1800
G0 X193.050 Y91.568 F7200
G1 X125.183 Y159.434 E234.62028 F1800
G0 X127.069 Y159.434 F7200
G1 X193.076 Y93.427 E239.27746 F1800
G0 X193.103 Y95.286 F7200
G1 X128.954 Y159.434 E243.80344 F1800
G0 X130.840 Y159.434 F7200
G1 X193.129 Y97.146 E248.19822 F1800
G0 X193.022 Y99.138 F7200
G1 X164.999 Y127.161 E250.17542 F1800
G0 X164.202 Y127.958 F7200
G1 X132.726 Y159.434 E252.39624 F1800
G0 X134.611 Y159.434 F7200
G1 X164.228 Y129.817 E254.48588 F1800
G0 X164.255 Y131.676 F7200
G1 X136.497 Y159.434 E256.44430 F1800
G0 X138.382 Y159.434 F7200
G1 X164.281 Y133.536 E258.27158 F1800
G0 X164.307 Y135.395 F7200
G1 X140.268 Y159.434 E259.96766 F1800
G0 X142.154 Y159.434 F7200
G1 X164.200 Y137.387 E261.52316 F1800
G0 X164.227 Y139.247 F7200
G1 X144.039 Y159.434 E262.94748 F1800
G0 X145.925 Y159.434 F7200
G1 X164.253 Y141.106 E264.24064 F1800
G0 X164.279 Y142.965 F7200
G1 X147.810 Y159.434 E265.40258 F1800
G0 X149.696 Y159.434 F7200
G1 X164.305 Y144.825 E266.43334 F1800
G0 X164.332 Y146.684 F7200
G1 X151.582 Y159.434 E267.33292 F1800
G0 X153.467 Y159.434 F7200
G1 X164.225 Y148.676 E268.09192 F1800
G0 X164.251 Y150.535 F7200
G1 X155.353 Y159.434 E268.71976 F1800
G0 X157.239 Y159.434 F7200
G1 X164.278 Y152.395 E269.21640 F1800
G0 X164.304 Y154.254 F7200
G1 X159.124 Y159.434 E269.58184 F1800
G0 X161.010 Y159.434 F7200
G1 X164.330 Y156.114 E269.81610 F1800
G0 X166.885 Y127.161 F7200
G1 X193.049 Y100.997 E271.66210 F1800
G0 X193.075 Y102.857 F7200
G1 X168.770 Y127.161 E273.37692 F1800
G0 X170.656 Y127.161 F7200
G1 X193.101 Y104.716 E274.96054 F1800
G0 X193.127 Y106.575 F7200
G1 X172.541 Y127.161 E276.41296 F1800
G0 X174.427 Y127.161 F7200
G1 X193.021 Y108.567 E277.72486 F1800
G0 X193.047 Y110.427 F7200
G1 X176.313 Y127.161 E278.90554 F1800
G0 X178.198 Y127.161 F7200
G1 X193.073 Y112.286 E279.95504 F1800
G0 X193.099 Y114.145 F7200
G1 X180.084 Y127.161 E280.87336 F1800
G0 X181.969 Y127.161 F7200
G1 X193.126 Y116.005 E281.66050 F1800
G0 X193.152 Y117.864 F7200
G1 X183.855 Y127.161 E282.31644 F1800
G0 X185.741 Y127.161 F7200
G1 X193.045 Y119.856 E282.83182 F1800
G0 X193.072 Y121.716 F7200
G1 X187.626 Y127.161 E283.21600 F1800
G0 X189.512 Y127.161 F7200
G1 X193.098 Y123.575 E283.46900 F1800
G0 X164.133 Y39.404 F7200
G1 X76.344 Y127.192 E289.66294 F1800
G0 X74.484 Y127.165 F7200
G1 X163.203 Y38.448 E295.92248 F1800
G0 X162.273 Y37.492 F7200
G1 X72.492 Y127.272 E302.25698 F1800
G0 X70.633 Y127.246 F7200
G1 X160.414 Y37.466 E308.59150 F1800
G0 X158.555 Y37.439 F7200
G1 X68.906 Y127.086 E314.91662 F1800
G0 X67.977 Y126.131 F7200
G1 X156.695 Y37.413 E321.17618 F1800
G0 X154.836 Y37.387 F7200
G1 X67.047 Y125.175 E327.37012 F1800
G0 X66.781 Y123.555 F7200
G1 X152.844 Y37.493 E333.44226 F1800
G0 X150.984 Y37.467 F7200
G1 X66.781 Y121.669 E339.38320 F1800
G0 X66.781 Y119.783 F7200
G1 X149.125 Y37.441 E345.19296 F1800
G0 X147.266 Y37.415 F7200
G1 X66.781 Y117.898 E350.87152 F1800
G0 X66.781 Y116.012 F7200
G1 X145.406 Y37.388 E356.41888 F1800
G0 X143.414 Y37.495 F7200
G1 X66.781 Y114.127 E361.82572 F1800
G0 X66.781 Y112.241 F7200
G1 X141.555 Y37.469 E367.10136 F1800
G0 X139.695 Y37.442 F7200
G1 X66.781 Y110.355 E372.24580 F1800
G0 X66.781 Y108.470 F7200
G1 X137.836 Y37.416 E377.25904 F1800
G0 X135.977 Y37.390 F7200
G1 X66.781 Y106.584 E382.14112 F1800
G0 X66.781 Y104.698 F7200
G1 X133.984 Y37.496 E386.88264 F1800
G0 X132.125 Y37.470 F7200
G1 X66.781 Y102.813 E391.49296 F1800
G0 X66.781 Y100.927 F7200
G1 X130.266 Y37.444 E395.97208 F1800
G0 X128.406 Y37.418 F7200
G1 X66.781 Y99.042 E400.32000 F1800
G0 X66.781 Y97.156 F7200
G1 X91.219 Y72.719 E402.04420 F1800
G1 X91.883 Y72.055 E402.09104
G1 X126.547 Y37.391 E404.53676
G0 X124.555 Y37.498 F7200
G1 X92.813 Y69.240 E406.77632 F1800
G0 X92.813 Y67.354 F7200
G1 X122.695 Y37.472 E408.88468 F1800
G0 X120.836 Y37.445 F7200
G1 X92.813 Y65.468 E410.86188 F1800
G0 X92.813 Y63.583 F7200
G1 X118.977 Y37.419 E412.70788 F1800
G0 X117.117 Y37.393 F7200
G1 X92.813 Y61.697 E414.42268 F1800
G0 X92.813 Y59.811 F7200
G1 X115.125 Y37.499 E415.99696 F1800
G0 X113.266 Y37.473 F7200
G1 X92.813 Y57.926 E417.44000 F1800
G0 X92.813 Y56.040 F7200
G1 X111.406 Y37.447 E418.75188 F1800
G0 X109.547 Y37.421 F7200
G1 X92.813 Y54.155 E419.93260 F1800
G0 X92.813 Y52.269 F7200
G1 X107.688 Y37.394 E420.98208 F1800
G0 X105.695 Y37.501 F7200
G1 X92.813 Y50.383 E421.89104 F1800
G0 X92.813 Y48.498 F7200
G1 X103.836 Y37.475 E422.66880 F1800
G0 X101.977 Y37.448 F7200
G1 X92.813 Y46.612 E423.31536 F1800
G0 X92.813 Y44.727 F7200
G1 X100.117 Y37.422 E423.83076 F1800
G0 X98.258 Y37.396 F7200
G1 X92.813 Y42.841 E424.21492 F1800
G0 X92.813 Y40.955 F7200
G1 X96.266 Y37.502 E424.45856 F1800
G0 X89.227 Y72.825 F7200
G1 X66.781 Y95.270 E426.04216 F1800
G0 X66.781 Y93.385 F7200
G1 X87.367 Y72.799 E427.49460 F1800
G0 X85.508 Y72.773 F7200
G1 X66.781 Y91.499 E428.81584 F1800
G0 X66.781 Y89.614 F7200
G1 X83.648 Y72.747 E430.00592 F1800
G0 X81.789 Y72.720 F7200
G1 X66.781 Y87.728 E431.06480 F1800
G0 X66.781 Y85.842 F7200
G1 X79.797 Y72.827 E431.98308 F1800
G0 X77.938 Y72.801 F7200
G1 X66.781 Y83.957 E432.77024 F1800
G0 X66.781 Y82.071 F7200
G1 X76.078 Y72.774 E433.42616 F1800
G0 X74.219 Y72.748 F7200
G1 X66.781 Y80.185 E433.95092 F1800
G0 X66.781 Y78.300 F7200
G1 X72.359 Y72.722 E434.34448 F1800
G0 X70.367 Y72.828 F7200
G1 X66.781 Y76.414 E434.59748 F1800



; ------------------------------------
; Raft Layer #2
; ------------------------------------
G92 E0 ;reset extr
G0 F600 Z0.800
;segType:Raft
G0 F3000 E-1.00000
G0 F600 Z2.800
G0 X68.906 Y72.999 F7200
G0 F600 Z0.800
G0 F3000 E0.00000
G1 X190.828 Y72.999 E4.05514 F2400
G1 X191.227 Y73.399 E4.07392
G1 X68.508 Y73.399 E8.15556
G1 X68.109 Y73.799 E8.17434
G1 X191.625 Y73.799 E12.28248
G1 X192.023 Y74.199 E12.30126
G1 X67.711 Y74.199 E16.43591
G1 X67.313 Y74.599 E16.45469
G1 X192.422 Y74.599 E20.61585
G1 X192.820 Y74.999 E20.63462
G1 X66.914 Y74.999 E24.82228
G1 X66.781 Y75.399 E24.83630
G1 X193.086 Y75.399 E29.03721
G1 X193.086 Y75.799 E29.05052
G1 X66.781 Y75.799 E33.25143
G1 X66.781 Y76.199 E33.26473
G1 X193.086 Y76.199 E37.46565
G1 X193.086 Y76.599 E37.47895
G1 X66.781 Y76.599 E41.67986
G1 X66.781 Y76.999 E41.69317
G1 X193.086 Y76.999 E45.89408
G1 X193.086 Y77.399 E45.90739
G1 X66.781 Y77.399 E50.10830
G1 X66.781 Y77.799 E50.12161
G1 X193.086 Y77.799 E54.32252
G1 X193.086 Y78.199 E54.33583
G1 X66.781 Y78.199 E58.53674
G1 X66.781 Y78.599 E58.55004
G1 X193.086 Y78.599 E62.75096
G1 X193.086 Y78.999 E62.76426
G1 X66.781 Y78.999 E66.96517
G1 X66.781 Y79.399 E66.97848
G1 X193.086 Y79.399 E71.17939
G1 X193.086 Y79.799 E71.19270
G1 X66.781 Y79.799 E75.39361
G1 X66.781 Y80.199 E75.40692
G1 X193.086 Y80.199 E79.60783
G1 X193.086 Y80.599 E79.62113
G1 X66.781 Y80.599 E83.82205
G1 X66.781 Y80.999 E83.83535
G1 X193.086 Y80.999 E88.03626
G1 X193.086 Y81.399 E88.04957
G1 X66.781 Y81.399 E92.25048
G1 X66.781 Y81.799 E92.26379
G1 X193.086 Y81.799 E96.46470
G1 X193.086 Y82.199 E96.47800
G1 X66.781 Y82.199 E100.67892
G1 X66.781 Y82.599 E100.69222
G1 X193.086 Y82.599 E104.89314
G1 X193.086 Y82.999 E104.90644
G1 X66.781 Y82.999 E109.10735
G1 X66.781 Y83.399 E109.12066
G1 X193.086 Y83.399 E113.32157
G1 X193.086 Y83.799 E113.33488
G1 X66.781 Y83.799 E117.53579
G1 X66.781 Y84.199 E117.54910
G1 X193.086 Y84.199 E121.75001
G1 X193.086 Y84.599 E121.76331
G1 X66.781 Y84.599 E125.96423
G1 X66.781 Y84.999 E125.97753
G1 X193.086 Y84.999 E130.17844
G1 X193.086 Y85.399 E130.19174
G1 X66.781 Y85.399 E134.39265
G1 X66.781 Y85.799 E134.40596
G1 X193.086 Y85.799 E138.60687
G1 X193.086 Y86.199 E138.62018
G1 X66.781 Y86.199 E142.82109
G1 X66.781 Y86.599 E142.83440
G1 X193.086 Y86.599 E147.03531
G1 X193.086 Y86.999 E147.04861
G1 X66.781 Y86.999 E151.24953
G1 X66.781 Y87.399 E151.26283
G1 X193.086 Y87.399 E155.46375
G1 X193.086 Y87.799 E155.47705
G1 X66.781 Y87.799 E159.67796
G1 X66.781 Y88.199 E159.69127
G1 X193.086 Y88.199 E163.89218
G1 X193.086 Y88.599 E163.90549
G1 X66.781 Y88.599 E168.10640
G1 X66.781 Y88.999 E168.11970
G1 X193.086 Y88.999 E172.32062
G1 X193.086 Y89.399 E172.33392
G1 X66.781 Y89.399 E176.53484
G1 X66.781 Y89.799 E176.54814
G1 X193.086 Y89.799 E180.74906
G1 X193.086 Y90.199 E180.76236
G1 X66.781 Y90.199 E184.96328
G1 X66.781 Y90.599 E184.97658
G1 X193.086 Y90.599 E189.17750
G1 X193.086 Y90.999 E189.19080
G1 X66.781 Y90.999 E193.39170
G1 X66.781 Y91.399 E193.40502
G1 X193.086 Y91.399 E197.60592
G1 X193.086 Y91.799 E197.61924
G1 X66.781 Y91.799 E201.82014
G1 X66.781 Y92.199 E201.83346
G1 X193.086 Y92.199 E206.03436
G1 X193.086 Y92.599 E206.04766
G1 X66.781 Y92.599 E210.24858
G1 X66.781 Y92.999 E210.26188
G1 X193.086 Y92.999 E214.46280
G1 X193.086 Y93.399 E214.47610
G1 X66.781 Y93.399 E218.67702
G1 X66.781 Y93.799 E218.69032
G1 X193.086 Y93.799 E222.89124
G1 X193.086 Y94.199 E222.90454
G1 X66.781 Y94.199 E227.10546
G1 X66.781 Y94.599 E227.11876
G1 X193.086 Y94.599 E231.31968
G1 X193.086 Y94.999 E231.33298
G1 X66.781 Y94.999 E235.53388
G1 X66.781 Y95.399 E235.54720
G1 X193.086 Y95.399 E239.74810
G1 X193.086 Y95.799 E239.76142
G1 X66.781 Y95.799 E243.96232
G1 X66.781 Y96.199 E243.97564
G1 X193.086 Y96.199 E248.17654
G1 X193.086 Y96.599 E248.18984
G1 X66.781 Y96.599 E252.39076
G1 X66.781 Y96.999 E252.40406
G1 X193.086 Y96.999 E256.60498
G1 X193.086 Y97.399 E256.61828
G1 X66.781 Y97.399 E260.81918
G1 X66.781 Y97.799 E260.83248
G1 X193.086 Y97.799 E265.03338
G1 X193.086 Y98.199 E265.04670
G1 X66.781 Y98.199 E269.24758
G1 X66.781 Y98.599 E269.26090
G1 X193.086 Y98.599 E273.46180
G1 X193.086 Y98.999 E273.47510
G1 X66.781 Y98.999 E277.67600
G1 X66.781 Y99.399 E277.68930
G1 X193.086 Y99.399 E281.89020
G1 X193.086 Y99.799 E281.90350
G1 X66.781 Y99.799 E286.10440
G1 X66.781 Y100.199 E286.11770
G1 X193.086 Y100.199 E290.31860
G1 X193.086 Y100.599 E290.33190
G1 X66.781 Y100.599 E294.53280
G1 X66.781 Y100.999 E294.54612
G1 X193.086 Y100.999 E298.74700
G1 X193.086 Y101.399 E298.76032
G1 X66.781 Y101.399 E302.96122
G1 X66.781 Y101.799 E302.97452
G1 X193.086 Y101.799 E307.17542
G1 X193.086 Y102.199 E307.18872
G1 X66.781 Y102.199 E311.38962
G1 X66.781 Y102.599 E311.40292
G1 X193.086 Y102.599 E315.60382
G1 X193.086 Y102.999 E315.61712
G1 X66.781 Y102.999 E319.81802
G1 X66.781 Y103.399 E319.83132
G1 X193.086 Y103.399 E324.03222
G1 X193.086 Y103.799 E324.04554
G1 X66.781 Y103.799 E328.24642
G1 X66.781 Y104.199 E328.25974
G1 X193.086 Y104.199 E332.46064
G1 X193.086 Y104.599 E332.47394
G1 X66.781 Y104.599 E336.67484
G1 X66.781 Y104.999 E336.68816
G1 X193.086 Y104.999 E340.88904
G1 X193.086 Y105.399 E340.90236
G1 X66.781 Y105.399 E345.10324
G1 X66.781 Y105.799 E345.11656
G1 X193.086 Y105.799 E349.31744
G1 X193.086 Y106.199 E349.33076
G1 X66.781 Y106.199 E353.53164
G1 X66.781 Y106.599 E353.54496
G1 X193.086 Y106.599 E357.74584
G1 X193.086 Y106.999 E357.75916
G1 X66.781 Y106.999 E361.96004
G1 X66.781 Y107.399 E361.97336
G1 X193.086 Y107.399 E366.17424
G1 X193.086 Y107.799 E366.18756
G1 X66.781 Y107.799 E370.38844
G1 X66.781 Y108.199 E370.40176
G1 X193.086 Y108.199 E374.60268
G1 X193.086 Y108.599 E374.61596
G1 X66.781 Y108.599 E378.81688
G1 X66.781 Y108.999 E378.83016
G1 X193.086 Y108.999 E383.03108
G1 X193.086 Y109.399 E383.04436
G1 X66.781 Y109.399 E387.24528
G1 X66.781 Y109.799 E387.25856
G1 X193.086 Y109.799 E391.45948
G1 X193.086 Y110.199 E391.47276
G1 X66.781 Y110.199 E395.67368
G1 X66.781 Y110.599 E395.68700
G1 X193.086 Y110.599 E399.88788
G1 X193.086 Y110.999 E399.90120
G1 X66.781 Y110.999 E404.10208
G1 X66.781 Y111.399 E404.11540
G1 X193.086 Y111.399 E408.31628
G1 X193.086 Y111.799 E408.32960
G1 X66.781 Y111.799 E412.53048
G1 X66.781 Y112.199 E412.54380
G1 X193.086 Y112.199 E416.74468
G1 X193.086 Y112.599 E416.75800
G1 X66.781 Y112.599 E420.95888
G1 X66.781 Y112.999 E420.97220
G1 X193.086 Y112.999 E425.17308
G1 X193.086 Y113.399 E425.18640
G1 X66.781 Y113.399 E429.38728
G1 X66.781 Y113.799 E429.40060
G1 X193.086 Y113.799 E433.60152
G1 X193.086 Y114.199 E433.61480
G1 X66.781 Y114.199 E437.81572
G1 X66.781 Y114.599 E437.82900
G1 X193.086 Y114.599 E442.02992
G1 X193.086 Y114.999 E442.04320
G1 X66.781 Y114.999 E446.24412
G1 X66.781 Y115.399 E446.25740
G1 X193.086 Y115.399 E450.45832
G1 X193.086 Y115.799 E450.47160
G1 X66.781 Y115.799 E454.67252
G1 X66.781 Y116.199 E454.68584
G1 X193.086 Y116.199 E458.88672
G1 X193.086 Y116.599 E458.90004
G1 X66.781 Y116.599 E463.10092
G1 X66.781 Y116.999 E463.11424
G1 X193.086 Y116.999 E467.31512
G1 X193.086 Y117.399 E467.32844
G1 X66.781 Y117.399 E471.52932
G1 X66.781 Y117.799 E471.54264
G1 X193.086 Y117.799 E475.74352
G1 X193.086 Y118.199 E475.75684
G1 X66.781 Y118.199 E479.95772
G1 X66.781 Y118.599 E479.97104
G1 X193.086 Y118.599 E484.17192
G1 X193.086 Y118.999 E484.18524
G1 X66.781 Y118.999 E488.38612
G1 X66.781 Y119.399 E488.39944
G1 X193.086 Y119.399 E492.60036
G1 X193.086 Y119.799 E492.61364
G1 X66.781 Y119.799 E496.81456
G1 X66.781 Y120.199 E496.82784
G1 X193.086 Y120.199 E501.02876
G1 X193.086 Y120.599 E501.04204
G1 X66.781 Y120.599 E505.24296
G1 X66.781 Y120.999 E505.25624
G1 X193.086 Y120.999 E509.45716
G1 X193.086 Y121.399 E509.47044
G1 X66.781 Y121.399 E513.67140
G1 X66.781 Y121.799 E513.68468
G1 X193.086 Y121.799 E517.88564
G1 X193.086 Y122.199 E517.89892
G1 X66.781 Y122.199 E522.09984
G1 X66.781 Y122.599 E522.11316
G1 X193.086 Y122.599 E526.31408
G1 X193.086 Y122.999 E526.32740
G1 X66.781 Y122.999 E530.52832
G1 X66.781 Y123.399 E530.54164
G1 X193.086 Y123.399 E534.74256
G1 X193.086 Y123.799 E534.75584
G1 X66.781 Y123.799 E538.95680
G1 X66.781 Y124.199 E538.97008
G1 X193.086 Y124.199 E543.17104
G1 X193.086 Y124.599 E543.18432
G1 X66.781 Y124.599 E547.38524
G1 X66.781 Y124.999 E547.39856
G1 X192.953 Y124.999 E551.59504
G1 X192.555 Y125.399 E551.61384
G1 X67.180 Y125.399 E555.78380
G1 X67.578 Y125.799 E555.80260
G1 X192.156 Y125.799 E559.94612
G1 X191.758 Y126.199 E559.96492
G1 X67.977 Y126.199 E564.08192
G1 X68.375 Y126.599 E564.10072
G1 X191.359 Y126.599 E568.19116
G1 X190.961 Y126.999 E568.20996
G1 X68.773 Y126.999 E572.27392
G0 X97.727 Y159.399 F7200
G1 X162.141 Y159.399 E574.41632 F2400
G1 X162.539 Y158.999 E574.43512
G1 X97.328 Y158.999 E576.60408
G1 X96.930 Y158.599 E576.62288
G1 X162.938 Y158.599 E578.81828
G1 X163.336 Y158.199 E578.83708
G1 X96.531 Y158.199 E581.05904
G1 X96.133 Y157.799 E581.07780
G1 X163.734 Y157.799 E583.32624
G1 X164.133 Y157.399 E583.34504
G1 X95.734 Y157.399 E585.62000
G1 X95.602 Y156.999 E585.63404
G1 X164.266 Y156.999 E587.91780
G1 X164.266 Y156.599 E587.93108
G1 X95.602 Y156.599 E590.21484
G1 X95.602 Y156.199 E590.22816
G1 X164.266 Y156.199 E592.51192
G1 X164.266 Y155.799 E592.52520
G1 X95.602 Y155.799 E594.80896
G1 X95.602 Y155.399 E594.82228
G1 X164.266 Y155.399 E597.10600
G1 X164.266 Y154.999 E597.11932
G1 X95.602 Y154.999 E599.40308
G1 X95.602 Y154.599 E599.41640
G1 X164.266 Y154.599 E601.70012
G1 X164.266 Y154.199 E601.71344
G1 X95.602 Y154.199 E603.99720
G1 X95.602 Y153.799 E604.01048
G1 X164.266 Y153.799 E606.29424
G1 X164.266 Y153.399 E606.30756
G1 X95.602 Y153.399 E608.59132
G1 X95.602 Y152.999 E608.60460
G1 X164.266 Y152.999 E610.88836
G1 X164.266 Y152.599 E610.90168
G1 X95.602 Y152.599 E613.18544
G1 X95.602 Y152.199 E613.19872
G1 X164.266 Y152.199 E615.48248
G1 X164.266 Y151.799 E615.49580
G1 X95.602 Y151.799 E617.77956
G1 X95.602 Y151.399 E617.79284
G1 X164.266 Y151.399 E620.07660
G1 X164.266 Y150.999 E620.08992
G1 X95.602 Y150.999 E622.37364
G1 X95.602 Y150.599 E622.38696
G1 X164.266 Y150.599 E624.67072
G1 X164.266 Y150.199 E624.68404
G1 X95.602 Y150.199 E626.96776
G1 X95.602 Y149.799 E626.98108
G1 X164.266 Y149.799 E629.26484
G1 X164.266 Y149.399 E629.27812
G1 X95.602 Y149.399 E631.56188
G1 X95.602 Y148.999 E631.57520
G1 X164.266 Y148.999 E633.85896
G1 X164.266 Y148.599 E633.87224
G1 X95.602 Y148.599 E636.15600
G1 X95.602 Y148.199 E636.16932
G1 X164.266 Y148.199 E638.45308
G1 X164.266 Y147.799 E638.46636
G1 X95.602 Y147.799 E640.75012
G1 X95.602 Y147.399 E640.76344
G1 X164.266 Y147.399 E643.04720
G1 X164.266 Y146.999 E643.06048
G1 X95.602 Y146.999 E645.34424
G1 X95.602 Y146.599 E645.35756
G1 X164.266 Y146.599 E647.64128
G1 X164.266 Y146.199 E647.65460
G1 X95.602 Y146.199 E649.93836
G1 X95.602 Y145.799 E649.95168
G1 X164.266 Y145.799 E652.23540
G1 X164.266 Y145.399 E652.24872
G1 X95.602 Y145.399 E654.53248
G1 X95.602 Y144.999 E654.54576
G1 X164.266 Y144.999 E656.82952
G1 X164.266 Y144.599 E656.84284
G1 X95.602 Y144.599 E659.12660
G1 X95.602 Y144.199 E659.13988
G1 X164.266 Y144.199 E661.42364
G1 X164.266 Y143.799 E661.43696
G1 X95.602 Y143.799 E663.72072
G1 X95.602 Y143.399 E663.73400
G1 X164.266 Y143.399 E666.01776
G1 X164.266 Y142.999 E666.03108
G1 X95.602 Y142.999 E668.31480
G1 X95.602 Y142.599 E668.32812
G1 X164.266 Y142.599 E670.61188
G1 X164.266 Y142.199 E670.62520
G1 X95.602 Y142.199 E672.90896
G1 X95.602 Y141.799 E672.92224
G1 X164.266 Y141.799 E675.20600
G1 X164.266 Y141.399 E675.21928
G1 X95.602 Y141.399 E677.50304
G1 X95.602 Y140.999 E677.51632
G1 X164.266 Y140.999 E679.80008
G1 X164.266 Y140.599 E679.81344
G1 X95.602 Y140.599 E682.09720
G1 X95.602 Y140.199 E682.11048
G1 X164.266 Y140.199 E684.39424
G1 X164.266 Y139.799 E684.40752
G1 X95.602 Y139.799 E686.69128
G1 X95.602 Y139.399 E686.70456
G1 X164.266 Y139.399 E688.98832
G1 X164.266 Y138.999 E689.00168
G1 X95.602 Y138.999 E691.28544
G1 X95.602 Y138.599 E691.29872
G1 X164.266 Y138.599 E693.58248
G1 X164.266 Y138.199 E693.59576
G1 X95.602 Y138.199 E695.87952
G1 X95.602 Y137.799 E695.89280
G1 X164.266 Y137.799 E698.17656
G1 X164.266 Y137.399 E698.18992
G1 X95.602 Y137.399 E700.47360
G1 X95.602 Y136.999 E700.48696
G1 X164.266 Y136.999 E702.77072
G1 X164.266 Y136.599 E702.78400
G1 X95.602 Y136.599 E705.06776
G1 X95.602 Y136.199 E705.08104
G1 X164.266 Y136.199 E707.36480
G1 X164.266 Y135.799 E707.37808
G1 X95.602 Y135.799 E709.66184
G1 X95.602 Y135.399 E709.67520
G1 X164.266 Y135.399 E711.95896
G1 X164.266 Y134.999 E711.97224
G1 X95.602 Y134.999 E714.25600
G1 X95.602 Y134.599 E714.26928
G1 X164.266 Y134.599 E716.55304
G1 X164.266 Y134.199 E716.56632
G1 X95.602 Y134.199 E718.85008
G1 X95.602 Y133.799 E718.86344
G1 X164.266 Y133.799 E721.14712
G1 X164.266 Y133.399 E721.16048
G1 X95.602 Y133.399 E723.44424
G1 X95.602 Y132.999 E723.45752
G1 X164.266 Y132.999 E725.74128
G1 X164.266 Y132.599 E725.75456
G1 X95.602 Y132.599 E728.03832
G1 X95.602 Y132.199 E728.05160
G1 X164.266 Y132.199 E730.33536
G1 X164.266 Y131.799 E730.34872
G1 X95.602 Y131.799 E732.63248
G1 X95.602 Y131.399 E732.64576
G1 X164.266 Y131.399 E734.92952
G1 X164.266 Y130.999 E734.94280
G1 X95.602 Y130.999 E737.22656
G1 X95.602 Y130.599 E737.23984
G1 X164.266 Y130.599 E739.52360
G1 X164.266 Y130.199 E739.53696
G1 X95.602 Y130.199 E741.82064
G1 X95.602 Y129.799 E741.83400
G1 X164.266 Y129.799 E744.11776
G1 X164.266 Y129.399 E744.13104
G1 X95.602 Y129.399 E746.41480
G1 X95.602 Y128.999 E746.42808
G1 X164.266 Y128.999 E748.71184
G1 X164.266 Y128.599 E748.72512
G1 X95.602 Y128.599 E751.00888
G1 X95.602 Y128.199 E751.02224
G1 X164.266 Y128.199 E753.30600
G1 X164.266 Y127.799 E753.31928
G1 X95.602 Y127.799 E755.60304
G1 X95.602 Y127.399 E755.61632
G1 X164.266 Y127.399 E757.90008
G0 X91.883 Y72.599 F7200
G1 X164.930 Y72.599 E760.32968 F2400
G1 X164.930 Y72.199 E760.34296
G1 X91.883 Y72.199 E762.77256
G1 X91.883 Y71.799 E762.78584
G1 X164.930 Y71.799 E765.21536
G1 X164.930 Y71.399 E765.22872
G1 X92.148 Y71.399 E767.64944
G1 X92.547 Y70.999 E767.66824
G1 X164.930 Y70.999 E770.07568
G1 X164.930 Y70.599 E770.08896
G1 X92.813 Y70.599 E772.48760
G1 X92.813 Y70.199 E772.50088
G1 X164.930 Y70.199 E774.89952
G1 X164.930 Y69.799 E774.91288
G1 X92.813 Y69.799 E777.31144
G1 X92.813 Y69.399 E777.32480
G1 X164.930 Y69.399 E779.72336
G1 X164.930 Y68.999 E779.73672
G1 X92.813 Y68.999 E782.13528
G1 X92.813 Y68.599 E782.14864
G1 X164.930 Y68.599 E784.54728
G1 X164.930 Y68.199 E784.56056
G1 X92.813 Y68.199 E786.95920
G1 X92.813 Y67.799 E786.97248
G1 X164.930 Y67.799 E789.37112
G1 X164.930 Y67.399 E789.38440
G1 X92.813 Y67.399 E791.78304
G1 X92.813 Y66.999 E791.79632
G1 X164.930 Y66.999 E794.19496
G1 X164.930 Y66.599 E794.20824
G1 X92.813 Y66.599 E796.60688
G1 X92.813 Y66.199 E796.62016
G1 X164.930 Y66.199 E799.01880
G1 X164.930 Y65.799 E799.03208
G1 X92.813 Y65.799 E801.43072
G1 X92.813 Y65.399 E801.44400
G1 X164.930 Y65.399 E803.84264
G1 X164.930 Y64.999 E803.85592
G1 X92.813 Y64.999 E806.25456
G1 X92.813 Y64.599 E806.26792
G1 X164.930 Y64.599 E808.66648
G1 X164.930 Y64.199 E808.67984
G1 X92.813 Y64.199 E811.07840
G1 X92.813 Y63.799 E811.09176
G1 X164.930 Y63.799 E813.49032
G1 X164.930 Y63.399 E813.50368
G1 X92.813 Y63.399 E815.90232
G1 X92.813 Y62.999 E815.91560
G1 X164.930 Y62.999 E818.31424
G1 X164.930 Y62.599 E818.32752
G1 X92.813 Y62.599 E820.72616
G1 X92.813 Y62.199 E820.73944
G1 X164.930 Y62.199 E823.13808
G1 X164.930 Y61.799 E823.15136
G1 X92.813 Y61.799 E825.55000
G1 X92.813 Y61.399 E825.56328
G1 X164.930 Y61.399 E827.96192
G1 X164.930 Y60.999 E827.97520
G1 X92.813 Y60.999 E830.37384
G1 X92.813 Y60.599 E830.38712
G1 X164.930 Y60.599 E832.78576
G1 X164.930 Y60.199 E832.79904
G1 X92.813 Y60.199 E835.19768
G1 X92.813 Y59.799 E835.21096
G1 X164.930 Y59.799 E837.60960
G1 X164.930 Y59.399 E837.62296
G1 X92.813 Y59.399 E840.02152
G1 X92.813 Y58.999 E840.03488
G1 X164.930 Y58.999 E842.43344
G1 X164.930 Y58.599 E842.44680
G1 X92.813 Y58.599 E844.84536
G1 X92.813 Y58.199 E844.85872
G1 X164.930 Y58.199 E847.25736
G1 X164.930 Y57.799 E847.27064
G1 X92.813 Y57.799 E849.66928
G1 X92.813 Y57.399 E849.68256
G1 X164.930 Y57.399 E852.08120
G1 X164.930 Y56.999 E852.09448
G1 X92.813 Y56.999 E854.49312
G1 X92.813 Y56.599 E854.50640
G1 X164.930 Y56.599 E856.90504
G1 X164.930 Y56.199 E856.91832
G1 X92.813 Y56.199 E859.31696
G1 X92.813 Y55.799 E859.33024
G1 X164.930 Y55.799 E861.72888
G1 X164.930 Y55.399 E861.74216
G1 X92.813 Y55.399 E864.14080
G1 X92.813 Y54.999 E864.15408
G1 X164.930 Y54.999 E866.55272
G1 X164.930 Y54.599 E866.56608
G1 X92.813 Y54.599 E868.96464
G1 X92.813 Y54.199 E868.97800
G1 X164.930 Y54.199 E871.37656
G1 X164.930 Y53.799 E871.38992
G1 X92.813 Y53.799 E873.78848
G1 X92.813 Y53.399 E873.80184
G1 X164.930 Y53.399 E876.20040
G1 X164.930 Y52.999 E876.21376
G1 X92.813 Y52.999 E878.61240
G1 X92.813 Y52.599 E878.62568
G1 X164.930 Y52.599 E881.02432
G1 X164.930 Y52.199 E881.03760
G1 X92.813 Y52.199 E883.43624
G1 X92.813 Y51.799 E883.44952
G1 X164.930 Y51.799 E885.84816
G1 X164.930 Y51.399 E885.86144
G1 X92.813 Y51.399 E888.26008
G1 X92.813 Y50.999 E888.27336
G1 X164.930 Y50.999 E890.67200
G1 X164.930 Y50.599 E890.68528
G1 X92.813 Y50.599 E893.08392
G1 X92.813 Y50.199 E893.09720
G1 X164.930 Y50.199 E895.49584
G1 X164.930 Y49.799 E895.50912
G1 X92.813 Y49.799 E897.90776
G1 X92.813 Y49.399 E897.92112
G1 X164.930 Y49.399 E900.31968
G1 X164.930 Y48.999 E900.33304
G1 X92.813 Y48.999 E902.73160
G1 X92.813 Y48.599 E902.74496
G1 X164.930 Y48.599 E905.14352
G1 X164.930 Y48.199 E905.15688
G1 X92.813 Y48.199 E907.55552
G1 X92.813 Y47.799 E907.56880
G1 X164.930 Y47.799 E909.96744
G1 X164.930 Y47.399 E909.98072
G1 X92.813 Y47.399 E912.37936
G1 X92.813 Y46.999 E912.39264
G1 X164.930 Y46.999 E914.79128
G1 X164.930 Y46.599 E914.80456
G1 X92.813 Y46.599 E917.20320
G1 X92.813 Y46.199 E917.21648
G1 X164.930 Y46.199 E919.61512
G1 X164.930 Y45.799 E919.62840
G1 X92.813 Y45.799 E922.02704
G1 X92.813 Y45.399 E922.04032
G1 X164.930 Y45.399 E924.43896
G1 X164.930 Y44.999 E924.45224
G1 X92.813 Y44.999 E926.85088
G1 X92.813 Y44.599 E926.86416
G1 X164.930 Y44.599 E929.26280
G1 X164.930 Y44.199 E929.27616
G1 X92.813 Y44.199 E931.67472
G1 X92.813 Y43.799 E931.68808
G1 X164.930 Y43.799 E934.08664
G1 X164.930 Y43.399 E934.10000
G1 X92.813 Y43.399 E936.49856
G1 X92.813 Y42.999 E936.51192
G1 X164.930 Y42.999 E938.91056
G1 X164.930 Y42.599 E938.92384
G1 X92.813 Y42.599 E941.32248
G1 X92.813 Y42.199 E941.33576
G1 X164.930 Y42.199 E943.73440
G1 X164.930 Y41.799 E943.74768
G1 X92.813 Y41.799 E946.14632
G1 X92.813 Y41.399 E946.15960
G1 X164.930 Y41.399 E948.55824
G1 X164.930 Y40.999 E948.57152
G1 X92.813 Y40.999 E950.97016
G1 X92.813 Y40.599 E950.98344
G1 X164.930 Y40.599 E953.38208
G1 X164.930 Y40.199 E953.39536
G1 X92.813 Y40.199 E955.79400
G1 X93.211 Y39.799 E955.81280
G1 X164.531 Y39.799 E958.18496
G1 X164.133 Y39.399 E958.20376
G1 X93.609 Y39.399 E960.54936
G1 X94.008 Y38.999 E960.56816
G1 X163.734 Y38.999 E962.88728
G1 X163.336 Y38.599 E962.90608
G1 X94.406 Y38.599 E965.19864
G1 X94.805 Y38.199 E965.21744
G1 X162.938 Y38.199 E967.48360
G1 X162.539 Y37.799 E967.50240
G1 X95.203 Y37.799 E969.74200



; ------------------------------------
; Raft Layer #3
; ------------------------------------
M106 S255 ;set fan speed
G92 E0 ;reset extr
G0 F600 Z1.000
;segType:Raft
G0 F3000 E-1.00000
G0 F600 Z3.000
G0 X93.001 Y40.234 F7200
G0 F600 Z1.000
G0 F3000 E0.00000
G1 X93.001 Y127.359 E2.89779 F2400
G1 X93.401 Y127.359 E2.91109
G1 X93.401 Y39.836 E5.82214
G1 X93.801 Y39.438 E5.84091
G1 X93.801 Y127.359 E8.76521
G1 X94.201 Y127.359 E8.77851
G1 X94.201 Y39.039 E11.71606
G1 X94.601 Y38.641 E11.73484
G1 X94.601 Y127.359 E14.68563
G1 X95.001 Y127.359 E14.69894
G1 X95.001 Y38.242 E17.66299
G1 X95.401 Y37.844 E17.68177
G1 X95.401 Y127.359 E20.65907
G0 X92.601 Y127.359 F7200
G1 X92.601 Y71.180 E22.52761 F2400
G1 X92.201 Y71.578 E22.54639
G1 X92.201 Y127.359 E24.40168
G1 X91.801 Y127.359 E24.41498
G1 X91.801 Y72.906 E26.22610
G1 X91.401 Y72.906 E26.23941
G1 X91.401 Y127.359 E28.05053
G1 X91.001 Y127.359 E28.06383
G1 X91.001 Y72.906 E29.87495
G1 X90.601 Y72.906 E29.88825
G1 X90.601 Y127.359 E31.69937
G1 X90.201 Y127.359 E31.71268
G1 X90.201 Y72.906 E33.52379
G1 X89.801 Y72.906 E33.53710
G1 X89.801 Y127.359 E35.34822
G1 X89.401 Y127.359 E35.36152
G1 X89.401 Y72.906 E37.17264
G1 X89.001 Y72.906 E37.18595
G1 X89.001 Y127.359 E38.99707
G1 X88.601 Y127.359 E39.01037
G1 X88.601 Y72.906 E40.82149
G1 X88.201 Y72.906 E40.83480
G1 X88.201 Y127.359 E42.64592
G1 X87.801 Y127.359 E42.65922
G1 X87.801 Y72.906 E44.47034
G1 X87.401 Y72.906 E44.48365
G1 X87.401 Y127.359 E46.29477
G1 X87.001 Y127.359 E46.30807
G1 X87.001 Y72.906 E48.11919
G1 X86.601 Y72.906 E48.13250
G1 X86.601 Y127.359 E49.94362
G1 X86.201 Y127.359 E49.95692
G1 X86.201 Y72.906 E51.76804
G1 X85.801 Y72.906 E51.78135
G1 X85.801 Y127.359 E53.59247
G1 X85.401 Y127.359 E53.60577
G1 X85.401 Y72.906 E55.41689
G1 X85.001 Y72.906 E55.43020
G1 X85.001 Y127.359 E57.24132
G1 X84.601 Y127.359 E57.25462
G1 X84.601 Y72.906 E59.06574
G1 X84.201 Y72.906 E59.07905
G1 X84.201 Y127.359 E60.89017
G1 X83.801 Y127.359 E60.90347
G1 X83.801 Y72.906 E62.71459
G1 X83.401 Y72.906 E62.72790
G1 X83.401 Y127.359 E64.53901
G1 X83.001 Y127.359 E64.55232
G1 X83.001 Y72.906 E66.36344
G1 X82.601 Y72.906 E66.37674
G1 X82.601 Y127.359 E68.18786
G1 X82.201 Y127.359 E68.20117
G1 X82.201 Y72.906 E70.01229
G1 X81.801 Y72.906 E70.02559
G1 X81.801 Y127.359 E71.83671
G1 X81.401 Y127.359 E71.85002
G1 X81.401 Y72.906 E73.66114
G1 X81.001 Y72.906 E73.67444
G1 X81.001 Y127.359 E75.48556
G1 X80.601 Y127.359 E75.49887
G1 X80.601 Y72.906 E77.30998
G1 X80.201 Y72.906 E77.32329
G1 X80.201 Y127.359 E79.13441
G1 X79.801 Y127.359 E79.14772
G1 X79.801 Y72.906 E80.95883
G1 X79.401 Y72.906 E80.97214
G1 X79.401 Y127.359 E82.78326
G1 X79.001 Y127.359 E82.79656
G1 X79.001 Y72.906 E84.60768
G1 X78.601 Y72.906 E84.62099
G1 X78.601 Y127.359 E86.43211
G1 X78.201 Y127.359 E86.44541
G1 X78.201 Y72.906 E88.25653
G1 X77.801 Y72.906 E88.26984
G1 X77.801 Y127.359 E90.08096
G1 X77.401 Y127.359 E90.09426
G1 X77.401 Y72.906 E91.90538
G1 X77.001 Y72.906 E91.91869
G1 X77.001 Y127.359 E93.72980
G1 X76.601 Y127.359 E93.74311
G1 X76.601 Y72.906 E95.55423
G1 X76.201 Y72.906 E95.56754
G1 X76.201 Y127.359 E97.37865
G1 X75.801 Y127.359 E97.39196
G1 X75.801 Y72.906 E99.20308
G1 X75.401 Y72.906 E99.21638
G1 X75.401 Y127.359 E101.02750
G1 X75.001 Y127.359 E101.04081
G1 X75.001 Y72.906 E102.85193
G1 X74.601 Y72.906 E102.86523
G1 X74.601 Y127.359 E104.67635
G1 X74.201 Y127.359 E104.68966
G1 X74.201 Y72.906 E106.50078
G1 X73.801 Y72.906 E106.51408
G1 X73.801 Y127.359 E108.32520
G1 X73.401 Y127.359 E108.33851
G1 X73.401 Y72.906 E110.14963
G1 X73.001 Y72.906 E110.16293
G1 X73.001 Y127.359 E111.97405
G1 X72.601 Y127.359 E111.98736
G1 X72.601 Y72.906 E113.79848
G1 X72.201 Y72.906 E113.81178
G1 X72.201 Y127.359 E115.62290
G1 X71.801 Y127.359 E115.63621
G1 X71.801 Y72.906 E117.44733
G1 X71.401 Y72.906 E117.46063
G1 X71.401 Y127.359 E119.27175
G1 X71.001 Y127.359 E119.28506
G1 X71.001 Y72.906 E121.09618
G1 X70.601 Y72.906 E121.10948
G1 X70.601 Y127.359 E122.92060
G1 X70.201 Y127.359 E122.93391
G1 X70.201 Y72.906 E124.74503
G1 X69.801 Y72.906 E124.75833
G1 X69.801 Y127.359 E126.56945
G1 X69.401 Y127.359 E126.58276
G1 X69.401 Y72.906 E128.39388
G1 X69.001 Y73.039 E128.40790
G1 X69.001 Y127.227 E130.21017
G1 X68.601 Y126.828 E130.22896
G1 X68.601 Y73.438 E132.00473
G1 X68.201 Y73.836 E132.02351
G1 X68.201 Y126.430 E133.77280
G1 X67.801 Y126.031 E133.79158
G1 X67.801 Y74.234 E135.51436
G1 X67.401 Y74.633 E135.53314
G1 X67.401 Y125.633 E137.22942
G1 X67.001 Y125.234 E137.24820
G1 X67.001 Y75.031 E138.91797
G0 X95.801 Y157.508 F7200
G1 X95.801 Y37.578 E142.90685 F2400
G1 X96.201 Y37.578 E142.92015
G1 X96.201 Y157.906 E146.92229
G1 X96.601 Y158.305 E146.94107
G1 X96.601 Y37.578 E150.95645
G1 X97.001 Y37.578 E150.96976
G1 X97.001 Y158.703 E154.99840
G1 X97.401 Y159.102 E155.01718
G1 X97.401 Y37.578 E159.05907
G1 X97.801 Y37.578 E159.07237
G1 X97.801 Y159.500 E163.12752
G1 X98.201 Y159.633 E163.14154
G1 X98.201 Y37.578 E167.20110
G1 X98.601 Y37.578 E167.21440
G1 X98.601 Y159.633 E171.27396
G1 X99.001 Y159.633 E171.28726
G1 X99.001 Y37.578 E175.34682
G1 X99.401 Y37.578 E175.36012
G1 X99.401 Y159.633 E179.41968
G1 X99.801 Y159.633 E179.43298
G1 X99.801 Y37.578 E183.49254
G1 X100.201 Y37.578 E183.50584
G1 X100.201 Y159.633 E187.56540
G1 X100.601 Y159.633 E187.57870
G1 X100.601 Y37.578 E191.63826
G1 X101.001 Y37.578 E191.65156
G1 X101.001 Y159.633 E195.71112
G1 X101.401 Y159.633 E195.72442
G1 X101.401 Y37.578 E199.78398
G1 X101.801 Y37.578 E199.79728
G1 X101.801 Y159.633 E203.85684
G1 X102.201 Y159.633 E203.87014
G1 X102.201 Y37.578 E207.92970
G1 X102.601 Y37.578 E207.94300
G1 X102.601 Y159.633 E212.00256
G1 X103.001 Y159.633 E212.01586
G1 X103.001 Y37.578 E216.07542
G1 X103.401 Y37.578 E216.08872
G1 X103.401 Y159.633 E220.14828
G1 X103.801 Y159.633 E220.16160
G1 X103.801 Y37.578 E224.22114
G1 X104.201 Y37.578 E224.23446
G1 X104.201 Y159.633 E228.29400
G1 X104.601 Y159.633 E228.30732
G1 X104.601 Y37.578 E232.36686
G1 X105.001 Y37.578 E232.38018
G1 X105.001 Y159.633 E236.43972
G1 X105.401 Y159.633 E236.45304
G1 X105.401 Y37.578 E240.51258
G1 X105.801 Y37.578 E240.52590
G1 X105.801 Y159.633 E244.58544
G1 X106.201 Y159.633 E244.59876
G1 X106.201 Y37.578 E248.65830
G1 X106.601 Y37.578 E248.67162
G1 X106.601 Y159.633 E252.73118
G1 X107.001 Y159.633 E252.74448
G1 X107.001 Y37.578 E256.80404
G1 X107.401 Y37.578 E256.81736
G1 X107.401 Y159.633 E260.87692
G1 X107.801 Y159.633 E260.89022
G1 X107.801 Y37.578 E264.94980
G1 X108.201 Y37.578 E264.96310
G1 X108.201 Y159.633 E269.02268
G1 X108.601 Y159.633 E269.03598
G1 X108.601 Y37.578 E273.09556
G1 X109.001 Y37.578 E273.10886
G1 X109.001 Y159.633 E277.16842
G1 X109.401 Y159.633 E277.18174
G1 X109.401 Y37.578 E281.24130
G1 X109.801 Y37.578 E281.25460
G1 X109.801 Y159.633 E285.31418
G1 X110.201 Y159.633 E285.32748
G1 X110.201 Y37.578 E289.38706
G1 X110.601 Y37.578 E289.40036
G1 X110.601 Y159.633 E293.45994
G1 X111.001 Y159.633 E293.47324
G1 X111.001 Y37.578 E297.53280
G1 X111.401 Y37.578 E297.54612
G1 X111.401 Y159.633 E301.60568
G1 X111.801 Y159.633 E301.61898
G1 X111.801 Y37.578 E305.67856
G1 X112.201 Y37.578 E305.69186
G1 X112.201 Y159.633 E309.75144
G1 X112.601 Y159.633 E309.76474
G1 X112.601 Y37.578 E313.82432
G1 X113.001 Y37.578 E313.83762
G1 X113.001 Y159.633 E317.89718
G1 X113.401 Y159.633 E317.91050
G1 X113.401 Y37.578 E321.97006
G1 X113.801 Y37.578 E321.98336
G1 X113.801 Y159.633 E326.04294
G1 X114.201 Y159.633 E326.05624
G1 X114.201 Y37.578 E330.11582
G1 X114.601 Y37.578 E330.12912
G1 X114.601 Y159.633 E334.18870
G1 X115.001 Y159.633 E334.20200
G1 X115.001 Y37.578 E338.26156
G1 X115.401 Y37.578 E338.27488
G1 X115.401 Y159.633 E342.33444
G1 X115.801 Y159.633 E342.34776
G1 X115.801 Y37.578 E346.40732
G1 X116.201 Y37.578 E346.42064
G1 X116.201 Y159.633 E350.48020
G1 X116.601 Y159.633 E350.49348
G1 X116.601 Y37.578 E354.55308
G1 X117.001 Y37.578 E354.56636
G1 X117.001 Y159.633 E358.62596
G1 X117.401 Y159.633 E358.63924
G1 X117.401 Y37.578 E362.69884
G1 X117.801 Y37.578 E362.71212
G1 X117.801 Y159.633 E366.77168
G1 X118.201 Y159.633 E366.78500
G1 X118.201 Y37.578 E370.84456
G1 X118.601 Y37.578 E370.85788
G1 X118.601 Y159.633 E374.91744
G1 X119.001 Y159.633 E374.93076
G1 X119.001 Y37.578 E378.99032
G1 X119.401 Y37.578 E379.00364
G1 X119.401 Y159.633 E383.06320
G1 X119.801 Y159.633 E383.07652
G1 X119.801 Y37.578 E387.13608
G1 X120.201 Y37.578 E387.14940
G1 X120.201 Y159.633 E391.20896
G1 X120.601 Y159.633 E391.22224
G1 X120.601 Y37.578 E395.28184
G1 X121.001 Y37.578 E395.29512
G1 X121.001 Y159.633 E399.35472
G1 X121.401 Y159.633 E399.36800
G1 X121.401 Y37.578 E403.42760
G1 X121.801 Y37.578 E403.44088
G1 X121.801 Y159.633 E407.50044
G1 X122.201 Y159.633 E407.51376
G1 X122.201 Y37.578 E411.57332
G1 X122.601 Y37.578 E411.58664
G1 X122.601 Y159.633 E415.64620
G1 X123.001 Y159.633 E415.65952
G1 X123.001 Y37.578 E419.71908
G1 X123.401 Y37.578 E419.73240
G1 X123.401 Y159.633 E423.79196
G1 X123.801 Y159.633 E423.80528
G1 X123.801 Y37.578 E427.86484
G1 X124.201 Y37.578 E427.87816
G1 X124.201 Y159.633 E431.93772
G1 X124.601 Y159.633 E431.95100
G1 X124.601 Y37.578 E436.01060
G1 X125.001 Y37.578 E436.02388
G1 X125.001 Y159.633 E440.08348
G1 X125.401 Y159.633 E440.09676
G1 X125.401 Y37.578 E444.15636
G1 X125.801 Y37.578 E444.16964
G1 X125.801 Y159.633 E448.22920
G1 X126.201 Y159.633 E448.24252
G1 X126.201 Y37.578 E452.30208
G1 X126.601 Y37.578 E452.31540
G1 X126.601 Y159.633 E456.37496
G1 X127.001 Y159.633 E456.38828
G1 X127.001 Y37.578 E460.44784
G1 X127.401 Y37.578 E460.46116
G1 X127.401 Y159.633 E464.52072
G1 X127.801 Y159.633 E464.53404
G1 X127.801 Y37.578 E468.59360
G1 X128.201 Y37.578 E468.60692
G1 X128.201 Y159.633 E472.66648
G1 X128.601 Y159.633 E472.67976
G1 X128.601 Y37.578 E476.73936
G1 X129.001 Y37.578 E476.75264
G1 X129.001 Y159.633 E480.81224
G1 X129.401 Y159.633 E480.82552
G1 X129.401 Y37.578 E484.88512
G1 X129.801 Y37.578 E484.89840
G1 X129.801 Y159.633 E488.95796
G1 X130.201 Y159.633 E488.97128
G1 X130.201 Y37.578 E493.03084
G1 X130.601 Y37.578 E493.04416
G1 X130.601 Y159.633 E497.10372
G1 X131.001 Y159.633 E497.11704
G1 X131.001 Y37.578 E501.17660
G1 X131.401 Y37.578 E501.18992
G1 X131.401 Y159.633 E505.24948
G1 X131.801 Y159.633 E505.26280
G1 X131.801 Y37.578 E509.32236
G1 X132.201 Y37.578 E509.33568
G1 X132.201 Y159.633 E513.39520
G1 X132.601 Y159.633 E513.40852
G1 X132.601 Y37.578 E517.46808
G1 X133.001 Y37.578 E517.48140
G1 X133.001 Y159.633 E521.54096
G1 X133.401 Y159.633 E521.55428
G1 X133.401 Y37.578 E525.61384
G1 X133.801 Y37.578 E525.62712
G1 X133.801 Y159.633 E529.68672
G1 X134.201 Y159.633 E529.70000
G1 X134.201 Y37.578 E533.75960
G1 X134.601 Y37.578 E533.77288
G1 X134.601 Y159.633 E537.83244
G1 X135.001 Y159.633 E537.84576
G1 X135.001 Y37.578 E541.90532
G1 X135.401 Y37.578 E541.91864
G1 X135.401 Y159.633 E545.97820
G1 X135.801 Y159.633 E545.99152
G1 X135.801 Y37.578 E550.05108
G1 X136.201 Y37.578 E550.06440
G1 X136.201 Y159.633 E554.12396
G1 X136.601 Y159.633 E554.13728
G1 X136.601 Y37.578 E558.19684
G1 X137.001 Y37.578 E558.21016
G1 X137.001 Y159.633 E562.26972
G1 X137.401 Y159.633 E562.28304
G1 X137.401 Y37.578 E566.34260
G1 X137.801 Y37.578 E566.35588
G1 X137.801 Y159.633 E570.41548
G1 X138.201 Y159.633 E570.42876
G1 X138.201 Y37.578 E574.48836
G1 X138.601 Y37.578 E574.50164
G1 X138.601 Y159.633 E578.56120
G1 X139.001 Y159.633 E578.57452
G1 X139.001 Y37.578 E582.63408
G1 X139.401 Y37.578 E582.64740
G1 X139.401 Y159.633 E586.70696
G1 X139.801 Y159.633 E586.72028
G1 X139.801 Y37.578 E590.77984
G1 X140.201 Y37.578 E590.79316
G1 X140.201 Y159.633 E594.85272
G1 X140.601 Y159.633 E594.86604
G1 X140.601 Y37.578 E598.92560
G1 X141.001 Y37.578 E598.93892
G1 X141.001 Y159.633 E602.99848
G1 X141.401 Y159.633 E603.01176
G1 X141.401 Y37.578 E607.07136
G1 X141.801 Y37.578 E607.08464
G1 X141.801 Y159.633 E611.14424
G1 X142.201 Y159.633 E611.15752
G1 X142.201 Y37.578 E615.21712
G1 X142.601 Y37.578 E615.23040
G1 X142.601 Y159.633 E619.28996
G1 X143.001 Y159.633 E619.30328
G1 X143.001 Y37.578 E623.36284
G1 X143.401 Y37.578 E623.37616
G1 X143.401 Y159.633 E627.43572
G1 X143.801 Y159.633 E627.44904
G1 X143.801 Y37.578 E631.50860
G1 X144.201 Y37.578 E631.52192
G1 X144.201 Y159.633 E635.58148
G1 X144.601 Y159.633 E635.59480
G1 X144.601 Y37.578 E639.65436
G1 X145.001 Y37.578 E639.66768
G1 X145.001 Y159.633 E643.72724
G1 X145.401 Y159.633 E643.74052
G1 X145.401 Y37.578 E647.80012
G1 X145.801 Y37.578 E647.81340
G1 X145.801 Y159.633 E651.87300
G1 X146.201 Y159.633 E651.88628
G1 X146.201 Y37.578 E655.94588
G1 X146.601 Y37.578 E655.95916
G1 X146.601 Y159.633 E660.01872
G1 X147.001 Y159.633 E660.03204
G1 X147.001 Y37.578 E664.09160
G1 X147.401 Y37.578 E664.10492
G1 X147.401 Y159.633 E668.16448
G1 X147.801 Y159.633 E668.17780
G1 X147.801 Y37.578 E672.23736
G1 X148.201 Y37.578 E672.25064
G1 X148.201 Y159.633 E676.31024
G1 X148.601 Y159.633 E676.32352
G1 X148.601 Y37.578 E680.38312
G1 X149.001 Y37.578 E680.39640
G1 X149.001 Y159.633 E684.45600
G1 X149.401 Y159.633 E684.46928
G1 X149.401 Y37.578 E688.52888
G1 X149.801 Y37.578 E688.54216
G1 X149.801 Y159.633 E692.60176
G1 X150.201 Y159.633 E692.61504
G1 X150.201 Y37.578 E696.67464
G1 X150.601 Y37.578 E696.68792
G1 X150.601 Y159.633 E700.74752
G1 X151.001 Y159.633 E700.76080
G1 X151.001 Y37.578 E704.82040
G1 X151.401 Y37.578 E704.83368
G1 X151.401 Y159.633 E708.89328
G1 X151.801 Y159.633 E708.90656
G1 X151.801 Y37.578 E712.96616
G1 X152.201 Y37.578 E712.97944
G1 X152.201 Y159.633 E717.03904
G1 X152.601 Y159.633 E717.05232
G1 X152.601 Y37.578 E721.11184
G1 X153.001 Y37.578 E721.12520
G1 X153.001 Y159.633 E725.18472
G1 X153.401 Y159.633 E725.19808
G1 X153.401 Y37.578 E729.25760
G1 X153.801 Y37.578 E729.27096
G1 X153.801 Y159.633 E733.33048
G1 X154.201 Y159.633 E733.34384
G1 X154.201 Y37.578 E737.40336
G1 X154.601 Y37.578 E737.41672
G1 X154.601 Y159.633 E741.47624
G1 X155.001 Y159.633 E741.48960
G1 X155.001 Y37.578 E745.54912
G1 X155.401 Y37.578 E745.56240
G1 X155.401 Y159.633 E749.62200
G1 X155.801 Y159.633 E749.63528
G1 X155.801 Y37.578 E753.69488
G1 X156.201 Y37.578 E753.70816
G1 X156.201 Y159.633 E757.76776
G1 X156.601 Y159.633 E757.78104
G1 X156.601 Y37.578 E761.84064
G1 X157.001 Y37.578 E761.85392
G1 X157.001 Y159.633 E765.91352
G1 X157.401 Y159.633 E765.92680
G1 X157.401 Y37.578 E769.98640
G1 X157.801 Y37.578 E769.99968
G1 X157.801 Y159.633 E774.05928
G1 X158.201 Y159.633 E774.07256
G1 X158.201 Y37.578 E778.13216
G1 X158.601 Y37.578 E778.14544
G1 X158.601 Y159.633 E782.20504
G1 X159.001 Y159.633 E782.21832
G1 X159.001 Y37.578 E786.27792
G1 X159.401 Y37.578 E786.29120
G1 X159.401 Y159.633 E790.35080
G1 X159.801 Y159.633 E790.36408
G1 X159.801 Y37.578 E794.42368
G1 X160.201 Y37.578 E794.43696
G1 X160.201 Y159.633 E798.49656
G1 X160.601 Y159.633 E798.50984
G1 X160.601 Y37.578 E802.56936
G1 X161.001 Y37.578 E802.58272
G1 X161.001 Y159.633 E806.64224
G1 X161.401 Y159.633 E806.65560
G1 X161.401 Y37.578 E810.71512
G1 X161.801 Y37.578 E810.72848
G1 X161.801 Y159.633 E814.78800
G1 X162.201 Y159.500 E814.80208
G1 X162.201 Y37.578 E818.85720
G1 X162.601 Y37.844 E818.87320
G1 X162.601 Y159.102 E822.90624
G1 X163.001 Y158.703 E822.92504
G1 X163.001 Y38.242 E826.93160
G1 X163.401 Y38.641 E826.95040
G1 X163.401 Y158.305 E830.93040
G1 X163.801 Y157.773 E830.95248
G1 X163.801 Y39.172 E834.89720
G1 X164.201 Y39.570 E834.91600
G1 X164.201 Y157.375 E838.83424
G0 X193.001 Y75.164 F7200
G1 X193.001 Y125.102 E840.49520 F2400
G1 X192.601 Y125.500 E840.51400
G1 X192.601 Y74.766 E842.20144
G1 X192.201 Y74.367 E842.22024
G1 X192.201 Y125.898 E843.93416
G1 X191.801 Y126.297 E843.95296
G1 X191.801 Y73.969 E845.69336
G1 X191.401 Y73.570 E845.71216
G1 X191.401 Y126.695 E847.47912
G1 X191.001 Y127.094 E847.49792
G1 X191.001 Y73.172 E849.29136
G1 X190.601 Y72.906 E849.30736
G1 X190.601 Y127.359 E851.11848
G1 X190.201 Y127.359 E851.13176
G1 X190.201 Y72.906 E852.94288
G1 X189.801 Y72.906 E852.95616
G1 X189.801 Y127.359 E854.76728
G1 X189.401 Y127.359 E854.78056
G1 X189.401 Y72.906 E856.59168
G1 X189.001 Y72.906 E856.60496
G1 X189.001 Y127.359 E858.41608
G1 X188.601 Y127.359 E858.42936
G1 X188.601 Y72.906 E860.24048
G1 X188.201 Y72.906 E860.25376
G1 X188.201 Y127.359 E862.06488
G1 X187.801 Y127.359 E862.07816
G1 X187.801 Y72.906 E863.88928
G1 X187.401 Y72.906 E863.90256
G1 X187.401 Y127.359 E865.71368
G1 X187.001 Y127.359 E865.72696
G1 X187.001 Y72.906 E867.53808
G1 X186.601 Y72.906 E867.55136
G1 X186.601 Y127.359 E869.36248
G1 X186.201 Y127.359 E869.37576
G1 X186.201 Y72.906 E871.18688
G1 X185.801 Y72.906 E871.20016
G1 X185.801 Y127.359 E873.01128
G1 X185.401 Y127.359 E873.02456
G1 X185.401 Y72.906 E874.83568
G1 X185.001 Y72.906 E874.84896
G1 X185.001 Y127.359 E876.66008
G1 X184.601 Y127.359 E876.67344
G1 X184.601 Y72.906 E878.48448
G1 X184.201 Y72.906 E878.49784
G1 X184.201 Y127.359 E880.30888
G1 X183.801 Y127.359 E880.32224
G1 X183.801 Y72.906 E882.13328
G1 X183.401 Y72.906 E882.14664
G1 X183.401 Y127.359 E883.95768
G1 X183.001 Y127.359 E883.97104
G1 X183.001 Y72.906 E885.78208
G1 X182.601 Y72.906 E885.79544
G1 X182.601 Y127.359 E887.60648
G1 X182.201 Y127.359 E887.61984
G1 X182.201 Y72.906 E889.43088
G1 X181.801 Y72.906 E889.44424
G1 X181.801 Y127.359 E891.25528
G1 X181.401 Y127.359 E891.26864
G1 X181.401 Y72.906 E893.07968
G1 X181.001 Y72.906 E893.09304
G1 X181.001 Y127.359 E894.90408
G1 X180.601 Y127.359 E894.91744
G1 X180.601 Y72.906 E896.72848
G1 X180.201 Y72.906 E896.74184
G1 X180.201 Y127.359 E898.55288
G1 X179.801 Y127.359 E898.56624
G1 X179.801 Y72.906 E900.37728
G1 X179.401 Y72.906 E900.39064
G1 X179.401 Y127.359 E902.20176
G1 X179.001 Y127.359 E902.21504
G1 X179.001 Y72.906 E904.02616
G1 X178.601 Y72.906 E904.03944
G1 X178.601 Y127.359 E905.85056
G1 X178.201 Y127.359 E905.86384
G1 X178.201 Y72.906 E907.67496
G1 X177.801 Y72.906 E907.68824
G1 X177.801 Y127.359 E909.49936
G1 X177.401 Y127.359 E909.51264
G1 X177.401 Y72.906 E911.32376
G1 X177.001 Y72.906 E911.33704
G1 X177.001 Y127.359 E913.14816
G1 X176.601 Y127.359 E913.16144
G1 X176.601 Y72.906 E914.97256
G1 X176.201 Y72.906 E914.98584
G1 X176.201 Y127.359 E916.79696
G1 X175.801 Y127.359 E916.81024
G1 X175.801 Y72.906 E918.62136
G1 X175.401 Y72.906 E918.63464
G1 X175.401 Y127.359 E920.44576
G1 X175.001 Y127.359 E920.45904
G1 X175.001 Y72.906 E922.27016
G1 X174.601 Y72.906 E922.28344
G1 X174.601 Y127.359 E924.09456
G1 X174.201 Y127.359 E924.10784
G1 X174.201 Y72.906 E925.91896
G1 X173.801 Y72.906 E925.93224
G1 X173.801 Y127.359 E927.74336
G1 X173.401 Y127.359 E927.75664
G1 X173.401 Y72.906 E929.56776
G1 X173.001 Y72.906 E929.58104
G1 X173.001 Y127.359 E931.39216
G1 X172.601 Y127.359 E931.40544
G1 X172.601 Y72.906 E933.21656
G1 X172.201 Y72.906 E933.22984
G1 X172.201 Y127.359 E935.04096
G1 X171.801 Y127.359 E935.05424
G1 X171.801 Y72.906 E936.86536
G1 X171.401 Y72.906 E936.87864
G1 X171.401 Y127.359 E938.68976
G1 X171.001 Y127.359 E938.70304
G1 X171.001 Y72.906 E940.51416
G1 X170.601 Y72.906 E940.52744
G1 X170.601 Y127.359 E942.33856
G1 X170.201 Y127.359 E942.35184
G1 X170.201 Y72.906 E944.16296
G1 X169.801 Y72.906 E944.17624
G1 X169.801 Y127.359 E945.98736
G1 X169.401 Y127.359 E946.00064
G1 X169.401 Y72.906 E947.81176
G1 X169.001 Y72.906 E947.82504
G1 X169.001 Y127.359 E949.63616
G1 X168.601 Y127.359 E949.64944
G1 X168.601 Y72.906 E951.46056
G1 X168.201 Y72.906 E951.47384
G1 X168.201 Y127.359 E953.28496
G1 X167.801 Y127.359 E953.29824
G1 X167.801 Y72.906 E955.10936
G1 X167.401 Y72.906 E955.12272
G1 X167.401 Y127.359 E956.93376
G1 X167.001 Y127.359 E956.94712
G1 X167.001 Y72.906 E958.75816
G1 X166.601 Y72.906 E958.77152
G1 X166.601 Y127.359 E960.58256
G1 X166.201 Y127.359 E960.59592
G1 X166.201 Y72.906 E962.40696
G1 X165.801 Y72.906 E962.42032
G1 X165.801 Y127.359 E964.23136
G1 X165.401 Y127.359 E964.24472
G1 X165.401 Y72.906 E966.05576
G1 X165.001 Y72.906 E966.06912
G1 X165.001 Y127.359 E967.88016
G1 X164.601 Y127.359 E967.89352
G1 X164.601 Y39.969 E970.80008


; ------------------------------------
; Layer #0
; ------------------------------------
G21 ; mm
G90 ; abs
G92 E0 ;reset extr
G0 F600 Z1.550
;segType:Support
G0 F3000 E-1.00000
G0 X188.500 Y120.700 F5400
G0 F3000 E0.00000
G1 X71.500 Y120.700 E3.30772 F2400
G1 X71.500 Y122.500 E3.35861
G1 X188.500 Y122.500 E6.66633
G0 X188.500 Y118.900 F5400
G1 X71.500 Y118.900 E9.97405 F2400
G1 X71.500 Y117.100 E10.02494
G1 X188.500 Y117.100 E13.33266
G1 X188.500 Y115.300 E13.38355
G1 X71.500 Y115.300 E16.69127
G0 X71.500 Y108.100 F5400
G1 X94.900 Y108.100 E17.35281 F2400
G1 X96.700 Y106.320 E17.42438
G1 X96.700 Y106.300 E17.42494
G1 X97.600 Y106.300 E17.45039
G1 X71.500 Y106.300 E18.18826
G1 X71.500 Y104.500 E18.23915
G1 X94.900 Y104.500 E18.90070
G0 X94.900 Y100.900 F5400
G1 X71.500 Y100.900 E19.56224 F2400
G1 X71.500 Y99.100 E19.61313
G1 X97.600 Y99.100 E20.35100
G1 X96.700 Y99.120 E20.37645
G1 X96.700 Y99.100 E20.37702
G0 X94.900 Y93.700 F5400
G1 X71.500 Y93.700 E21.03856 F2400
G0 X71.500 Y84.700 F5400
G1 X97.600 Y84.700 E21.77644 F2400
G1 X96.700 Y84.720 E21.80189
G1 X96.700 Y84.700 E21.80246
G1 X94.900 Y82.900 E21.87442
G1 X71.500 Y82.900 E22.53597
G1 X71.500 Y81.100 E22.58685
G1 X97.600 Y81.100 E23.32473
G1 X96.700 Y81.120 E23.35018
G1 X96.700 Y81.100 E23.35074
G0 X96.700 Y77.520 F5400
G1 X96.700 Y77.500 E23.35131 F2400
G0 X96.700 Y73.920 F5400
G1 X96.700 Y73.900 E23.35187 F2400
G1 X97.600 Y73.900 E23.37732
G0 X97.600 Y77.500 F5400
G1 X71.500 Y77.500 E24.11519 F2400
G1 X71.500 Y79.300 E24.16608
G1 X94.900 Y79.300 E24.82763
G0 X94.900 Y86.500 F5400
G1 X71.500 Y86.500 E25.48917 F2400
G1 X71.500 Y88.300 E25.54006
G1 X97.600 Y88.300 E26.27793
G1 X96.700 Y88.300 E26.30338
G1 X96.700 Y88.320 E26.30394
G0 X96.700 Y91.900 F5400
G1 X96.700 Y91.920 E26.30451 F2400
G1 X94.900 Y90.100 E26.37687
G1 X71.500 Y90.100 E27.03842
G1 X71.500 Y91.900 E27.08931
G1 X97.600 Y91.900 E27.82718
G0 X96.700 Y95.500 F5400
G1 X96.700 Y95.520 E27.82775 F2400
G1 X97.600 Y95.500 E27.85320
G1 X71.500 Y95.500 E28.59107
G1 X71.500 Y97.300 E28.64196
G1 X94.900 Y97.300 E29.30351
G0 X96.700 Y102.700 F5400
G1 X96.700 Y102.720 E29.30407 F2400
G1 X97.600 Y102.700 E29.32952
G1 X71.500 Y102.700 E30.06740
G0 X71.500 Y109.900 F5400
G1 X97.600 Y109.900 E30.80527 F2400
G1 X96.700 Y109.920 E30.83072
G1 X96.700 Y109.900 E30.83129
G0 X100.300 Y124.300 F5400
G1 X159.700 Y124.300 E32.51059 F2400
G0 X161.500 Y109.900 F5400
G1 X188.500 Y109.900 E33.27391 F2400
G0 X188.500 Y104.500 F5400
G1 X161.500 Y104.500 E34.03723 F2400
G0 F3000 E33.03723
G0 X159.040 Y103.790 F5400
G0 F3000 E34.03723
;segType:HShell
G1 X98.961 Y43.711 E36.86316 F2400
G0 X98.467 Y43.473 F5400
;segType:Perimeter
G1 X98.260 Y42.700 E36.88977 F1200
G1 X159.800 Y42.700 E38.93657
G1 X159.800 Y112.800 E41.26809
G1 X98.200 Y112.800 E43.31689
G1 X98.200 Y42.760 E45.64641
G0 X98.260 Y42.700 F5400
G0 X99.860 Y42.700
G0 X99.300 Y43.100
;segType:Loop
G1 X159.400 Y43.100 E47.64532 F2400
G1 X159.400 Y112.400 E49.95022
G1 X98.600 Y112.400 E51.97242
G1 X98.600 Y43.100 E54.27732
G1 X99.100 Y43.100 E54.29395
G0 X98.961 Y44.277 F5400
;segType:HShell
G1 X159.040 Y104.355 E57.11988 F2400
G0 X159.040 Y104.921 F5400
G1 X98.961 Y44.842 E59.94581 F2400
G0 X98.961 Y45.408 F5400
G1 X159.040 Y105.487 E62.77173 F2400
G0 X159.040 Y106.053 F5400
G1 X98.961 Y45.974 E65.59767 F2400
G0 X98.961 Y46.539 F5400
G1 X159.040 Y106.618 E68.42359 F2400
G0 X159.040 Y107.184 F5400
G1 X98.961 Y47.105 E71.24952 F2400
G0 X98.961 Y47.671 F5400
G1 X159.040 Y107.750 E74.07545 F2400
G0 X159.040 Y108.315 F5400
G1 X98.961 Y48.236 E76.90138 F2400
G0 X98.961 Y48.802 F5400
G1 X159.040 Y108.881 E79.72731 F2400
G0 X159.040 Y109.447 F5400
G1 X98.961 Y49.368 E82.55323 F2400
G0 X98.961 Y49.933 F5400
G1 X159.040 Y110.012 E85.37916 F2400
G0 X159.040 Y110.578 F5400
G1 X98.961 Y50.499 E88.20509 F2400
G0 X98.961 Y51.065 F5400
G1 X159.040 Y111.144 E91.03101 F2400
G0 X159.040 Y111.709 F5400
G1 X98.961 Y51.630 E93.85694 F2400
G0 X98.961 Y52.196 F5400
G1 X158.804 Y112.040 E96.67179 F2400
G0 X158.238 Y112.040 F5400
G1 X98.961 Y52.762 E99.46004 F2400
G0 X98.961 Y53.327 F5400
G1 X157.673 Y112.040 E102.22167 F2400
G0 X157.107 Y112.040 F5400
G1 X98.961 Y53.893 E104.95670 F2400
G0 X98.961 Y54.459 F5400
G1 X156.541 Y112.040 E107.66512 F2400
G0 X155.976 Y112.040 F5400
G1 X98.961 Y55.025 E110.34693 F2400
G0 X98.961 Y55.590 F5400
G1 X155.410 Y112.040 E113.00214 F2400
G0 X154.844 Y112.040 F5400
G1 X98.961 Y56.156 E115.63073 F2400
G0 X98.961 Y56.722 F5400
G1 X154.279 Y112.040 E118.23272 F2400
G0 X153.713 Y112.040 F5400
G1 X98.961 Y57.287 E120.80810 F2400
G0 X98.961 Y57.853 F5400
G1 X153.147 Y112.040 E123.35687 F2400
G0 X152.581 Y112.040 F5400
G1 X98.961 Y58.419 E125.87904 F2400
G0 X98.961 Y58.984 F5400
G1 X152.016 Y112.040 E128.37459 F2400
G0 X151.450 Y112.040 F5400
G1 X98.961 Y59.550 E130.84354 F2400
G0 X98.961 Y60.116 F5400
G1 X150.884 Y112.040 E133.28587 F2400
G0 X150.319 Y112.040 F5400
G1 X98.961 Y60.681 E135.70160 F2400
G0 X98.961 Y61.247 F5400
G1 X149.753 Y112.040 E138.09073 F2400
G0 X149.187 Y112.040 F5400
G1 X98.961 Y61.813 E140.45325 F2400
G0 X98.961 Y62.378 F5400
G1 X148.622 Y112.040 E142.78915 F2400
G0 X148.056 Y112.040 F5400
G1 X98.961 Y62.944 E145.09845 F2400
G0 X98.961 Y63.510 F5400
G1 X147.490 Y112.040 E147.38113 F2400
G0 X146.925 Y112.040 F5400
G1 X98.961 Y64.075 E149.63722 F2400
G0 X98.961 Y64.641 F5400
G1 X146.359 Y112.040 E151.86670 F2400
G0 X145.793 Y112.040 F5400
G1 X98.961 Y65.207 E154.06956 F2400
G0 X98.961 Y65.773 F5400
G1 X145.228 Y112.040 E156.24582 F2400
G0 X144.662 Y112.040 F5400
G1 X98.961 Y66.338 E158.39548 F2400
G0 X98.961 Y66.904 F5400
G1 X144.096 Y112.040 E160.51852 F2400
G0 X143.531 Y112.040 F5400
G1 X98.961 Y67.470 E162.61496 F2400
G0 X98.961 Y68.035 F5400
G1 X142.965 Y112.040 E164.68478 F2400
G0 X142.399 Y112.040 F5400
G1 X98.961 Y68.601 E166.72800 F2400
G0 X98.961 Y69.167 F5400
G1 X141.833 Y112.040 E168.74462 F2400
G0 X141.268 Y112.040 F5400
G1 X98.961 Y69.732 E170.73462 F2400
G0 X98.961 Y70.298 F5400
G1 X140.702 Y112.040 E172.69802 F2400
G0 X140.136 Y112.040 F5400
G1 X98.961 Y70.864 E174.63480 F2400
G0 X98.961 Y71.429 F5400
G1 X139.571 Y112.040 E176.54496 F2400
G0 X139.005 Y112.040 F5400
G1 X98.961 Y71.995 E178.42854 F2400
G0 X98.961 Y72.561 F5400
G1 X138.439 Y112.040 E180.28550 F2400
G0 X137.874 Y112.040 F5400
G1 X98.961 Y73.126 E182.11586 F2400
G0 X98.961 Y73.692 F5400
G1 X137.308 Y112.040 E183.91960 F2400
G0 X136.742 Y112.040 F5400
G1 X98.961 Y74.258 E185.69674 F2400
G0 X98.961 Y74.823 F5400
G1 X136.177 Y112.040 E187.44728 F2400
G0 X135.611 Y112.040 F5400
G1 X98.961 Y75.389 E189.17120 F2400
G0 X98.961 Y75.955 F5400
G1 X135.045 Y112.040 E190.86852 F2400
G0 X134.480 Y112.040 F5400
G1 X98.961 Y76.520 E192.53922 F2400
G0 X98.961 Y77.086 F5400
G1 X133.914 Y112.040 E194.18332 F2400
G0 X133.348 Y112.040 F5400
G1 X98.961 Y77.652 E195.80082 F2400
G0 X98.961 Y78.218 F5400
G1 X132.783 Y112.040 E197.39170 F2400
G0 X132.217 Y112.040 F5400
G1 X98.961 Y78.783 E198.95596 F2400
G0 X98.961 Y79.349 F5400
G1 X131.651 Y112.040 E200.49362 F2400
G0 X131.085 Y112.040 F5400
G1 X98.961 Y79.915 E202.00468 F2400
G0 X98.961 Y80.480 F5400
G1 X130.520 Y112.040 E203.48914 F2400
G0 X129.954 Y112.040 F5400
G1 X98.961 Y81.046 E204.94698 F2400
G0 X98.961 Y81.612 F5400
G1 X129.388 Y112.040 E206.37820 F2400
G0 X128.823 Y112.040 F5400
G1 X98.961 Y82.177 E207.78284 F2400
G0 X98.961 Y82.743 F5400
G1 X128.257 Y112.040 E209.16086 F2400
G0 X127.691 Y112.040 F5400
G1 X98.961 Y83.309 E210.51226 F2400
G0 X98.961 Y83.874 F5400
G1 X127.126 Y112.040 E211.83706 F2400
G0 X126.560 Y112.040 F5400
G1 X98.961 Y84.440 E213.13526 F2400
G0 X98.961 Y85.006 F5400
G1 X125.994 Y112.040 E214.40684 F2400
G0 X125.429 Y112.040 F5400
G1 X98.961 Y85.571 E215.65182 F2400
G0 X98.961 Y86.137 F5400
G1 X124.863 Y112.040 E216.87020 F2400
G0 X124.297 Y112.040 F5400
G1 X98.961 Y86.703 E218.06196 F2400
G0 X98.961 Y87.269 F5400
G1 X123.732 Y112.040 E219.22710 F2400
G0 X123.166 Y112.040 F5400
G1 X98.961 Y87.834 E220.36564 F2400
G0 X98.961 Y88.400 F5400
G1 X122.600 Y112.040 E221.47758 F2400
G0 X122.034 Y112.040 F5400
G1 X98.961 Y88.966 E222.56292 F2400
G0 X98.961 Y89.531 F5400
G1 X121.469 Y112.040 E223.62162 F2400
G0 X120.903 Y112.040 F5400
G1 X98.961 Y90.097 E224.65374 F2400
G0 X98.961 Y90.663 F5400
G1 X120.337 Y112.040 E225.65926 F2400
G0 X119.772 Y112.040 F5400
G1 X98.961 Y91.228 E226.63816 F2400
G0 X98.961 Y91.794 F5400
G1 X119.206 Y112.040 E227.59044 F2400
G0 X118.640 Y112.040 F5400
G1 X98.961 Y92.360 E228.51612 F2400
G0 X98.961 Y92.925 F5400
G1 X118.075 Y112.040 E229.41520 F2400
G0 X117.509 Y112.040 F5400
G1 X98.961 Y93.491 E230.28766 F2400
G0 X98.961 Y94.057 F5400
G1 X116.943 Y112.040 E231.13352 F2400
G0 X116.378 Y112.040 F5400
G1 X98.961 Y94.622 E231.95276 F2400
G0 X98.961 Y95.188 F5400
G1 X115.812 Y112.040 E232.74540 F2400
G0 X115.246 Y112.040 F5400
G1 X98.961 Y95.754 E233.51142 F2400
G0 X98.961 Y96.319 F5400
G1 X114.681 Y112.040 E234.25086 F2400
G0 X114.115 Y112.040 F5400
G1 X98.961 Y96.885 E234.96366 F2400
G0 X98.961 Y97.451 F5400
G1 X113.549 Y112.040 E235.64988 F2400
G0 X112.984 Y112.040 F5400
G1 X98.961 Y98.017 E236.30946 F2400
G0 X98.961 Y98.582 F5400
G1 X112.418 Y112.040 E236.94246 F2400
G0 X111.852 Y112.040 F5400
G1 X98.961 Y99.148 E237.54884 F2400
G0 X98.961 Y99.714 F5400
G1 X111.286 Y112.040 E238.12862 F2400
G0 X110.721 Y112.040 F5400
G1 X98.961 Y100.279 E238.68178 F2400
G0 X98.961 Y100.845 F5400
G1 X110.155 Y112.040 E239.20834 F2400
G0 X109.589 Y112.040 F5400
G1 X98.961 Y101.411 E239.70830 F2400
G0 X98.961 Y101.976 F5400
G1 X109.024 Y112.040 E240.18164 F2400
G0 X108.458 Y112.040 F5400
G1 X98.961 Y102.542 E240.62838 F2400
G0 X98.961 Y103.108 F5400
G1 X107.892 Y112.040 E241.04850 F2400
G0 X107.327 Y112.040 F5400
G1 X98.961 Y103.673 E241.44202 F2400
G0 X98.961 Y104.239 F5400
G1 X106.761 Y112.040 E241.80892 F2400
G0 X106.195 Y112.040 F5400
G1 X98.961 Y104.805 E242.14924 F2400
G0 X98.961 Y105.370 F5400
G1 X105.630 Y112.040 E242.46292 F2400
G0 X105.064 Y112.040 F5400
G1 X98.961 Y105.936 E242.75000 F2400
G0 X98.961 Y106.502 F5400
G1 X104.498 Y112.040 E243.01048 F2400
G0 X103.933 Y112.040 F5400
G1 X98.961 Y107.067 E243.24436 F2400
G0 X98.961 Y107.633 F5400
G1 X103.367 Y112.040 E243.45162 F2400
G0 X102.801 Y112.040 F5400
G1 X98.961 Y108.199 E243.63226 F2400
G0 X98.961 Y108.765 F5400
G1 X102.235 Y112.040 E243.78630 F2400
G0 X101.670 Y112.040 F5400
G1 X98.961 Y109.330 E243.91374 F2400
G0 X98.961 Y109.896 F5400
G1 X101.104 Y112.040 E244.01458 F2400
G0 X100.538 Y112.040 F5400
G1 X98.961 Y110.462 E244.08880 F2400
G0 X98.961 Y111.027 F5400
G1 X99.973 Y112.040 E244.13640 F2400
G0 X99.407 Y112.040 F5400
G1 X98.961 Y111.593 E244.15740 F2400
G0 F3000 E243.15740
G0 X98.600 Y111.643 F5400
G0 X159.400 Y103.174
G0 X159.040 Y103.224
G0 F3000 E244.15740
G1 X99.276 Y43.460 E246.96850 F2400
G0 X99.842 Y43.460 F5400
G1 X159.040 Y102.658 E249.75300 F2400
G0 X159.040 Y102.093 F5400
G1 X100.407 Y43.460 E252.51086 F2400
G0 X100.973 Y43.460 F5400
G1 X159.040 Y101.527 E255.24214 F2400
G0 X159.040 Y100.961 F5400
G1 X101.539 Y43.460 E257.94680 F2400
G0 X102.104 Y43.460 F5400
G1 X159.040 Y100.396 E260.62488 F2400
G0 X159.040 Y99.830 F5400
G1 X102.670 Y43.460 E263.27634 F2400
G0 X103.236 Y43.460 F5400
G1 X159.040 Y99.264 E265.90118 F2400
G0 X159.040 Y98.699 F5400
G1 X103.801 Y43.460 E268.49942 F2400
G0 X104.367 Y43.460 F5400
G1 X159.040 Y98.133 E271.07104 F2400
G0 X159.040 Y97.567 F5400
G1 X104.933 Y43.460 E273.61606 F2400
G0 X105.498 Y43.460 F5400
G1 X159.040 Y97.002 E276.13446 F2400
G0 X159.040 Y96.436 F5400
G1 X106.064 Y43.460 E278.62626 F2400
G0 X106.630 Y43.460 F5400
G1 X159.040 Y95.870 E281.09144 F2400
G0 X159.040 Y95.304 F5400
G1 X107.196 Y43.460 E283.53000 F2400
G0 X107.761 Y43.460 F5400
G1 X159.040 Y94.739 E285.94198 F2400
G0 X159.040 Y94.173 F5400
G1 X108.327 Y43.460 E288.32736 F2400
G0 X108.893 Y43.460 F5400
G1 X159.040 Y93.607 E290.68612 F2400
G0 X159.040 Y93.042 F5400
G1 X109.458 Y43.460 E293.01828 F2400
G0 X110.024 Y43.460 F5400
G1 X159.040 Y92.476 E295.32382 F2400
G0 X159.040 Y91.910 F5400
G1 X110.590 Y43.460 E297.60276 F2400
G0 X111.155 Y43.460 F5400
G1 X159.040 Y91.345 E299.85508 F2400
G0 X159.040 Y90.779 F5400
G1 X111.721 Y43.460 E302.08078 F2400
G0 X112.287 Y43.460 F5400
G1 X159.040 Y90.213 E304.27988 F2400
G0 X159.040 Y89.648 F5400
G1 X112.852 Y43.460 E306.45240 F2400
G0 X113.418 Y43.460 F5400
G1 X159.040 Y89.082 E308.59830 F2400
G0 X159.040 Y88.516 F5400
G1 X113.984 Y43.460 E310.71760 F2400
G0 X114.549 Y43.460 F5400
G1 X159.040 Y87.951 E312.81028 F2400
G0 X159.040 Y87.385 F5400
G1 X115.115 Y43.460 E314.87634 F2400
G0 X115.681 Y43.460 F5400
G1 X159.040 Y86.819 E316.91580 F2400
G0 X159.040 Y86.254 F5400
G1 X116.246 Y43.460 E318.92864 F2400
G0 X116.812 Y43.460 F5400
G1 X159.040 Y85.688 E320.91488 F2400
G0 X159.040 Y85.122 F5400
G1 X117.378 Y43.460 E322.87452 F2400
G0 X117.944 Y43.460 F5400
G1 X159.040 Y84.556 E324.80756 F2400
G0 X159.040 Y83.991 F5400
G1 X118.509 Y43.460 E326.71398 F2400
G0 X119.075 Y43.460 F5400
G1 X159.040 Y83.425 E328.59382 F2400
G0 X159.040 Y82.859 F5400
G1 X119.641 Y43.460 E330.44702 F2400
G0 X120.206 Y43.460 F5400
G1 X159.040 Y82.294 E332.27362 F2400
G0 X159.040 Y81.728 F5400
G1 X120.772 Y43.460 E334.07360 F2400
G0 X121.338 Y43.460 F5400
G1 X159.040 Y81.162 E335.84700 F2400
G0 X159.040 Y80.597 F5400
G1 X121.903 Y43.460 E337.59376 F2400
G0 X122.469 Y43.460 F5400
G1 X159.040 Y80.031 E339.31392 F2400
G0 X159.040 Y79.465 F5400
G1 X123.035 Y43.460 E341.00748 F2400
G0 X123.600 Y43.460 F5400
G1 X159.040 Y78.900 E342.67444 F2400
G0 X159.040 Y78.334 F5400
G1 X124.166 Y43.460 E344.31480 F2400
G0 X124.732 Y43.460 F5400
G1 X159.040 Y77.768 E345.92852 F2400
G0 X159.040 Y77.203 F5400
G1 X125.297 Y43.460 E347.51564 F2400
G0 X125.863 Y43.460 F5400
G1 X159.040 Y76.637 E349.07616 F2400
G0 X159.040 Y76.071 F5400
G1 X126.429 Y43.460 E350.61008 F2400
G0 X126.994 Y43.460 F5400
G1 X159.040 Y75.505 E352.11736 F2400
G0 X159.040 Y74.940 F5400
G1 X127.560 Y43.460 E353.59804 F2400
G0 X128.126 Y43.460 F5400
G1 X159.040 Y74.374 E355.05212 F2400
G0 X159.040 Y73.808 F5400
G1 X128.692 Y43.460 E356.47960 F2400
G0 X129.257 Y43.460 F5400
G1 X159.040 Y73.243 E357.88048 F2400
G0 X159.040 Y72.677 F5400
G1 X129.823 Y43.460 E359.25476 F2400
G0 X130.389 Y43.460 F5400
G1 X159.040 Y72.111 E360.60240 F2400
G0 X159.040 Y71.546 F5400
G1 X130.954 Y43.460 E361.92348 F2400
G0 X131.520 Y43.460 F5400
G1 X159.040 Y70.980 E363.21788 F2400
G0 X159.040 Y70.414 F5400
G1 X132.086 Y43.460 E364.48572 F2400
G0 X132.651 Y43.460 F5400
G1 X159.040 Y69.849 E365.72692 F2400
G0 X159.040 Y69.283 F5400
G1 X133.217 Y43.460 E366.94152 F2400
G0 X133.783 Y43.460 F5400
G1 X159.040 Y68.717 E368.12956 F2400
G0 X159.040 Y68.152 F5400
G1 X134.348 Y43.460 E369.29096 F2400
G0 X134.914 Y43.460 F5400
G1 X159.040 Y67.586 E370.42576 F2400
G0 X159.040 Y67.020 F5400
G1 X135.480 Y43.460 E371.53392 F2400
G0 X136.045 Y43.460 F5400
G1 X159.040 Y66.455 E372.61552 F2400
G0 X159.040 Y65.889 F5400
G1 X136.611 Y43.460 E373.67048 F2400
G0 X137.177 Y43.460 F5400
G1 X159.040 Y65.323 E374.69884 F2400
G0 X159.040 Y64.757 F5400
G1 X137.742 Y43.460 E375.70056 F2400
G0 X138.308 Y43.460 F5400
G1 X159.040 Y64.192 E376.67568 F2400
G0 X159.040 Y63.626 F5400
G1 X138.874 Y43.460 E377.62424 F2400
G0 X139.440 Y43.460 F5400
G1 X159.040 Y63.060 E378.54616 F2400
G0 X159.040 Y62.495 F5400
G1 X140.005 Y43.460 E379.44148 F2400
G0 X140.571 Y43.460 F5400
G1 X159.040 Y61.929 E380.31020 F2400
G0 X159.040 Y61.363 F5400
G1 X141.137 Y43.460 E381.15232 F2400
G0 X141.702 Y43.460 F5400
G1 X159.040 Y60.798 E381.96780 F2400
G0 X159.040 Y60.232 F5400
G1 X142.268 Y43.460 E382.75668 F2400
G0 X142.834 Y43.460 F5400
G1 X159.040 Y59.666 E383.51896 F2400
G0 X159.040 Y59.101 F5400
G1 X143.399 Y43.460 E384.25460 F2400
G0 X143.965 Y43.460 F5400
G1 X159.040 Y58.535 E384.96364 F2400
G0 X159.040 Y57.969 F5400
G1 X144.531 Y43.460 E385.64612 F2400
G0 X145.096 Y43.460 F5400
G1 X159.040 Y57.404 E386.30196 F2400
G0 X159.040 Y56.838 F5400
G1 X145.662 Y43.460 E386.93120 F2400
G0 X146.228 Y43.460 F5400
G1 X159.040 Y56.272 E387.53384 F2400
G0 X159.040 Y55.707 F5400
G1 X146.793 Y43.460 E388.10988 F2400
G0 X147.359 Y43.460 F5400
G1 X159.040 Y55.141 E388.65928 F2400
G0 X159.040 Y54.575 F5400
G1 X147.925 Y43.460 E389.18208 F2400
G0 X148.491 Y43.460 F5400
G1 X159.040 Y54.009 E389.67824 F2400
G0 X159.040 Y53.444 F5400
G1 X149.056 Y43.460 E390.14784 F2400
G0 X149.622 Y43.460 F5400
G1 X159.040 Y52.878 E390.59084 F2400
G0 X159.040 Y52.312 F5400
G1 X150.188 Y43.460 E391.00720 F2400
G0 X150.753 Y43.460 F5400
G1 X159.040 Y51.747 E391.39696 F2400
G0 X159.040 Y51.181 F5400
G1 X151.319 Y43.460 E391.76012 F2400
G0 X151.885 Y43.460 F5400
G1 X159.040 Y50.615 E392.09668 F2400
G0 X159.040 Y50.050 F5400
G1 X152.450 Y43.460 E392.40660 F2400
G0 X153.016 Y43.460 F5400
G1 X159.040 Y49.484 E392.68996 F2400
G0 X159.040 Y48.918 F5400
G1 X153.582 Y43.460 E392.94664 F2400
G0 X154.147 Y43.460 F5400
G1 X159.040 Y48.353 E393.17676 F2400
G0 X159.040 Y47.787 F5400
G1 X154.713 Y43.460 E393.38024 F2400
G0 X155.279 Y43.460 F5400
G1 X159.040 Y47.221 E393.55716 F2400
G0 X159.040 Y46.656 F5400
G1 X155.844 Y43.460 E393.70744 F2400
G0 X156.410 Y43.460 F5400
G1 X159.040 Y46.090 E393.83116 F2400
G0 X159.040 Y45.524 F5400
G1 X156.976 Y43.460 E393.92824 F2400
G0 X157.541 Y43.460 F5400
G1 X159.040 Y44.958 E393.99868 F2400
G0 X159.040 Y44.393 F5400
G1 X158.107 Y43.460 E394.04256 F2400
G0 X158.673 Y43.460 F5400
G1 X159.040 Y43.827 E394.05980 F2400
G0 F3000 E393.05980
G0 X158.986 Y43.100 F5400
G0 X159.400 Y48.756
G0 X161.500 Y77.500
G0 F3000 E394.05980
;segType:Support
G1 X188.500 Y77.500 E394.82308 F2400
G1 X188.500 Y79.300 E394.87400
G1 X161.500 Y79.300 E395.63728
G1 X161.500 Y81.100 E395.68816
G1 X188.500 Y81.100 E396.45148
G1 X188.500 Y82.900 E396.50240
G1 X161.500 Y82.900 E397.26568
G1 X161.500 Y84.700 E397.31656
G1 X188.500 Y84.700 E398.07988
G1 X188.500 Y86.500 E398.13076
G1 X161.500 Y86.500 E398.89408
G1 X161.500 Y88.300 E398.94496
G1 X188.500 Y88.300 E399.70828
G1 X188.500 Y90.100 E399.75916
G1 X161.500 Y90.100 E400.52248
G1 X161.500 Y91.900 E400.57336
G1 X188.500 Y91.900 E401.33668
G1 X188.500 Y93.700 E401.38756
G1 X161.500 Y93.700 E402.15084
G1 X161.500 Y95.500 E402.20176
G1 X188.500 Y95.500 E402.96504
G1 X188.500 Y97.300 E403.01596
G1 X161.500 Y97.300 E403.77928
G1 X161.500 Y99.100 E403.83012
G1 X188.500 Y99.100 E404.59344
G0 X188.500 Y102.700 F5400
G1 X161.500 Y102.700 E405.35676 F2400
G1 X161.500 Y100.900 E405.40764
G1 X188.500 Y100.900 E406.17092
G0 X188.500 Y106.300 F5400
G1 X161.500 Y106.300 E406.93424 F2400
G1 X161.500 Y108.100 E406.98512
G1 X188.500 Y108.100 E407.74840
G0 X188.500 Y111.700 F5400
G1 X161.500 Y111.700 E408.51172 F2400
G0 X159.700 Y126.100 F5400
G1 X100.300 Y126.100 E410.19100 F2400
G1 X100.300 Y127.900 E410.24192
G1 X159.700 Y127.900 E411.92120
G1 X159.700 Y129.700 E411.97208
G1 X100.300 Y129.700 E413.65136
G0 X100.300 Y133.300 F5400
G1 X159.700 Y133.300 E415.33064 F2400
G1 X159.700 Y131.500 E415.38156
G1 X100.300 Y131.500 E417.06084
G0 X100.300 Y135.100 F5400
G1 X159.700 Y135.100 E418.74016 F2400
G1 X159.700 Y136.900 E418.79100
G1 X100.300 Y136.900 E420.47032
G1 X100.300 Y138.700 E420.52120
G1 X159.700 Y138.700 E422.20052
G0 X159.700 Y149.500 F5400
G1 X100.300 Y149.500 E423.87980 F2400
G0 X100.300 Y153.100 F5400
G1 X159.700 Y153.100 E425.55908 F2400
G1 X159.700 Y154.900 E425.60996
G1 X100.300 Y154.900 E427.28924
G0 X100.300 Y151.300 F5400
G1 X159.700 Y151.300 E428.96852 F2400
G0 X159.700 Y147.700 F5400
G1 X100.300 Y147.700 E430.64784 F2400
G1 X100.300 Y145.900 E430.69872
G1 X159.700 Y145.900 E432.37804
G1 X159.700 Y144.100 E432.42888
G1 X100.300 Y144.100 E434.10820
G1 X100.300 Y142.300 E434.15908
G1 X159.700 Y142.300 E435.83836
G1 X159.700 Y140.500 E435.88924
G1 X100.300 Y140.500 E437.56856
G0 X94.900 Y111.700 F5400
G1 X71.500 Y111.700 E438.23008 F2400
G1 X71.500 Y113.500 E438.28096
G1 X188.500 Y113.500 E441.58868
; ------------------------------------
; Layer #1
; ------------------------------------
G92 E0 ;reset extr
G0 F3000 E-1.00000
G0 F600 Z1.400
G0 X96.700 Y73.960 F7200
G0 F3000 E0.00000
;segType:Support
G1 X96.700 Y73.900 E0.00170 F3600
G1 X97.600 Y73.900 E0.02714
G0 F3000 E-0.97286
G0 X98.600 Y66.449 F7200
G0 X101.735 Y43.100
G0 X101.687 Y43.460
G0 F3000 E0.02714
;segType:HShell
G1 X98.961 Y46.187 E0.15537 F3600
G0 X98.961 Y45.621 F7200
G1 X101.121 Y43.460 E0.25699 F3600
G0 X100.555 Y43.460 F7200
G1 X98.961 Y45.055 E0.33201 F3600
G0 X98.961 Y44.490 F7200
G1 X99.990 Y43.460 E0.38042 F3600
G0 X99.424 Y43.460 F7200
G1 X98.961 Y43.924 E0.40222 F3600
G0 X98.467 Y43.473 F7200
;segType:Perimeter
G1 X98.260 Y42.700 E0.42883 F1800
G1 X159.800 Y42.700 E2.47563
G1 X159.800 Y112.800 E4.80714
G1 X98.200 Y112.800 E6.85594
G1 X98.200 Y42.760 E9.18546
G0 X98.260 Y42.700 F7200
G0 X99.860 Y42.700
G0 X99.300 Y43.100
;segType:Loop
G1 X159.400 Y43.100 E11.18437 F3600
G1 X159.400 Y112.400 E13.48928
G1 X98.600 Y112.400 E15.51147
G1 X98.600 Y43.100 E17.81637
G1 X99.100 Y43.100 E17.83300
G0 F3000 E16.83300
G0 X98.961 Y46.752 F7200
G0 F3000 E17.83300
;segType:HShell
G1 X102.252 Y43.460 E17.98785 F3600
G0 X102.818 Y43.460 F7200
G1 X98.960 Y47.318 E18.16929 F3600
G0 X98.960 Y47.884 F7200
G1 X103.384 Y43.460 E18.37735 F3600
G0 X103.949 Y43.460 F7200
G1 X98.960 Y48.449 E18.61202 F3600
G0 X98.960 Y49.015 F7200
G1 X104.515 Y43.460 E18.87329 F3600
G0 X105.081 Y43.460 F7200
G1 X98.960 Y49.581 E19.16117 F3600
G0 X98.960 Y50.147 F7200
G1 X105.647 Y43.460 E19.47566 F3600
G0 X106.212 Y43.460 F7200
G1 X98.960 Y50.712 E19.81675 F3600
G0 X98.960 Y51.278 F7200
G1 X106.778 Y43.460 E20.18446 F3600
G0 X107.344 Y43.460 F7200
G1 X98.960 Y51.844 E20.57877 F3600
G0 X98.960 Y52.409 F7200
G1 X107.909 Y43.460 E20.99970 F3600
G0 X108.475 Y43.460 F7200
G1 X98.960 Y52.975 E21.44723 F3600
G0 X98.960 Y53.541 F7200
G1 X109.041 Y43.460 E21.92137 F3600
G0 X109.606 Y43.460 F7200
G1 X98.960 Y54.106 E22.42212 F3600
G0 X98.960 Y54.672 F7200
G1 X110.172 Y43.460 E22.94947 F3600
G0 X110.738 Y43.460 F7200
G1 X98.960 Y55.238 E23.50343 F3600
G0 X98.960 Y55.803 F7200
G1 X111.303 Y43.460 E24.08401 F3600
G0 X111.869 Y43.460 F7200
G1 X98.960 Y56.369 E24.69119 F3600
G0 X98.960 Y56.935 F7200
G1 X112.435 Y43.460 E25.32498 F3600
G0 X113.000 Y43.460 F7200
G1 X98.960 Y57.500 E25.98537 F3600
G0 X98.960 Y58.066 F7200
G1 X113.566 Y43.460 E26.67238 F3600
G0 X114.132 Y43.460 F7200
G1 X98.960 Y58.632 E27.38599 F3600
G0 X98.960 Y59.197 F7200
G1 X114.697 Y43.460 E28.12621 F3600
G0 X115.263 Y43.460 F7200
G1 X98.960 Y59.763 E28.89304 F3600
G0 X98.960 Y60.329 F7200
G1 X115.829 Y43.460 E29.68648 F3600
G0 X116.395 Y43.460 F7200
G1 X98.960 Y60.895 E30.50652 F3600
G0 X98.960 Y61.460 F7200
G1 X116.960 Y43.460 E31.35318 F3600
G0 X117.526 Y43.460 F7200
G1 X98.960 Y62.026 E32.22644 F3600
G0 X98.960 Y62.592 F7200
G1 X118.092 Y43.460 E33.12631 F3600
G0 X118.657 Y43.460 F7200
G1 X98.960 Y63.157 E34.05279 F3600
G0 X98.960 Y63.723 F7200
G1 X119.223 Y43.460 E35.00588 F3600
G0 X119.789 Y43.460 F7200
G1 X98.960 Y64.289 E35.98557 F3600
G0 X98.960 Y64.854 F7200
G1 X120.354 Y43.460 E36.99188 F3600
G0 X120.920 Y43.460 F7200
G1 X98.960 Y65.420 E38.02479 F3600
G0 X98.960 Y65.986 F7200
G1 X121.486 Y43.460 E39.08431 F3600
G0 X122.051 Y43.460 F7200
G1 X98.960 Y66.551 E40.17044 F3600
G0 X98.960 Y67.117 F7200
G1 X122.617 Y43.460 E41.28317 F3600
G0 X123.183 Y43.460 F7200
G1 X98.960 Y67.683 E42.42252 F3600
G0 X98.960 Y68.248 F7200
G1 X123.748 Y43.460 E43.58847 F3600
G0 X124.314 Y43.460 F7200
G1 X98.960 Y68.814 E44.78104 F3600
G0 X98.960 Y69.380 F7200
G1 X124.880 Y43.460 E46.00020 F3600
G0 X125.446 Y43.460 F7200
G1 X98.960 Y69.946 E47.24598 F3600
G0 X98.960 Y70.511 F7200
G1 X126.011 Y43.460 E48.51837 F3600
G0 X126.577 Y43.460 F7200
G1 X98.960 Y71.077 E49.81736 F3600
G0 X98.960 Y71.643 F7200
G1 X127.143 Y43.460 E51.14297 F3600
G0 X127.708 Y43.460 F7200
G1 X98.960 Y72.208 E52.49518 F3600
G0 X98.960 Y72.774 F7200
G1 X128.274 Y43.460 E53.87400 F3600
G0 X128.840 Y43.460 F7200
G1 X98.960 Y73.340 E55.27942 F3600
G0 X98.960 Y73.905 F7200
G1 X129.405 Y43.460 E56.71146 F3600
G0 X129.971 Y43.460 F7200
G1 X98.960 Y74.471 E58.17010 F3600
G0 X98.960 Y75.037 F7200
G1 X130.537 Y43.460 E59.65536 F3600
G0 X131.102 Y43.460 F7200
G1 X98.960 Y75.602 E61.16722 F3600
G0 X98.960 Y76.168 F7200
G1 X131.668 Y43.460 E62.70568 F3600
G0 X132.234 Y43.460 F7200
G1 X98.960 Y76.734 E64.27076 F3600
G0 X98.960 Y77.299 F7200
G1 X132.799 Y43.460 E65.86244 F3600
G0 X133.365 Y43.460 F7200
G1 X98.960 Y77.865 E67.48074 F3600
G0 X98.960 Y78.431 F7200
G1 X133.931 Y43.460 E69.12564 F3600
G0 X134.497 Y43.460 F7200
G1 X98.960 Y78.997 E70.79715 F3600
G0 X98.960 Y79.562 F7200
G1 X135.062 Y43.460 E72.49527 F3600
G0 X135.628 Y43.460 F7200
G1 X98.960 Y80.128 E74.22000 F3600
G0 X98.960 Y80.694 F7200
G1 X136.194 Y43.460 E75.97133 F3600
G0 X136.759 Y43.460 F7200
G1 X98.960 Y81.259 E77.74928 F3600
G0 X98.960 Y81.825 F7200
G1 X137.325 Y43.460 E79.55383 F3600
G0 X137.891 Y43.460 F7200
G1 X98.960 Y82.391 E81.38499 F3600
G0 X98.960 Y82.956 F7200
G1 X138.456 Y43.460 E83.24275 F3600
G0 X139.022 Y43.460 F7200
G1 X98.960 Y83.522 E85.12713 F3600
G0 X98.960 Y84.088 F7200
G1 X139.588 Y43.460 E87.03811 F3600
G0 X140.153 Y43.460 F7200
G1 X98.960 Y84.653 E88.97570 F3600
G0 X98.960 Y85.219 F7200
G1 X140.719 Y43.460 E90.93990 F3600
G0 X141.285 Y43.460 F7200
G1 X98.960 Y85.785 E92.93071 F3600
G0 X98.960 Y86.350 F7200
G1 X141.850 Y43.460 E94.94813 F3600
G0 X142.416 Y43.460 F7200
G1 X98.960 Y86.916 E96.99215 F3600
G0 X98.960 Y87.482 F7200
G1 X142.982 Y43.460 E99.06278 F3600
G0 X143.548 Y43.460 F7200
G1 X98.960 Y88.048 E101.16003 F3600
G0 X98.960 Y88.613 F7200
G1 X144.113 Y43.460 E103.28387 F3600
G0 X144.679 Y43.460 F7200
G1 X98.960 Y89.179 E105.43433 F3600
G0 X98.960 Y89.745 F7200
G1 X145.245 Y43.460 E107.61140 F3600
G0 X145.810 Y43.460 F7200
G1 X98.960 Y90.310 E109.81507 F3600
G0 X98.960 Y90.876 F7200
G1 X146.376 Y43.460 E112.04536 F3600
G0 X146.942 Y43.460 F7200
G1 X98.960 Y91.442 E114.30225 F3600
G0 X98.960 Y92.007 F7200
G1 X147.507 Y43.460 E116.58575 F3600
G0 X148.073 Y43.460 F7200
G1 X98.960 Y92.573 E118.89585 F3600
G0 X98.960 Y93.139 F7200
G1 X148.639 Y43.460 E121.23257 F3600
G0 X149.204 Y43.460 F7200
G1 X98.960 Y93.704 E123.59589 F3600
G0 X98.960 Y94.270 F7200
G1 X149.770 Y43.460 E125.98582 F3600
G0 X150.336 Y43.460 F7200
G1 X98.960 Y94.836 E128.40236 F3600
G0 X98.960 Y95.401 F7200
G1 X150.901 Y43.460 E130.84550 F3600
G0 X151.467 Y43.460 F7200
G1 X98.960 Y95.967 E133.31526 F3600
G0 X98.960 Y96.533 F7200
G1 X152.033 Y43.460 E135.81163 F3600
G0 X152.598 Y43.460 F7200
G1 X98.960 Y97.098 E138.33459 F3600
G0 X98.960 Y97.664 F7200
G1 X153.164 Y43.460 E140.88417 F3600
G0 X153.730 Y43.460 F7200
G1 X98.960 Y98.230 E143.46036 F3600
G0 X98.960 Y98.796 F7200
G1 X154.296 Y43.460 E146.06316 F3600
G0 X154.861 Y43.460 F7200
G1 X98.960 Y99.361 E148.69257 F3600
G0 X98.960 Y99.927 F7200
G1 X155.427 Y43.460 E151.34857 F3600
G0 X155.993 Y43.460 F7200
G1 X98.960 Y100.493 E154.03119 F3600
G0 X98.960 Y101.058 F7200
G1 X156.558 Y43.460 E156.74042 F3600
G0 X157.124 Y43.460 F7200
G1 X98.960 Y101.624 E159.47626 F3600
G0 X98.960 Y102.190 F7200
G1 X157.690 Y43.460 E162.23869 F3600
G0 X158.255 Y43.460 F7200
G1 X98.960 Y102.755 E165.02774 F3600
G0 X98.960 Y103.321 F7200
G1 X158.821 Y43.460 E167.84340 F3600
G0 X159.040 Y43.808 F7200
G1 X98.960 Y103.887 E170.66934 F3600
G0 X98.960 Y104.452 F7200
G1 X159.040 Y44.373 E173.49528 F3600
G0 X159.040 Y44.939 F7200
G1 X98.960 Y105.018 E176.32122 F3600
G0 X98.960 Y105.584 F7200
G1 X159.040 Y45.505 E179.14718 F3600
G0 X159.040 Y46.070 F7200
G1 X98.960 Y106.149 E181.97312 F3600
G0 X98.960 Y106.715 F7200
G1 X159.040 Y46.636 E184.79906 F3600
G0 X159.040 Y47.202 F7200
G1 X98.960 Y107.281 E187.62500 F3600
G0 X98.960 Y107.847 F7200
G1 X159.040 Y47.767 E190.45094 F3600
G0 X159.040 Y48.333 F7200
G1 X98.960 Y108.412 E193.27688 F3600
G0 X98.960 Y108.978 F7200
G1 X159.040 Y48.899 E196.10282 F3600
G0 X159.040 Y49.464 F7200
G1 X98.960 Y109.544 E198.92878 F3600
G0 X98.960 Y110.109 F7200
G1 X159.040 Y50.030 E201.75472 F3600
G0 X159.040 Y50.596 F7200
G1 X98.960 Y110.675 E204.58066 F3600
G0 X98.960 Y111.241 F7200
G1 X159.040 Y51.161 E207.40660 F3600
G0 X159.040 Y51.727 F7200
G1 X98.960 Y111.806 E210.23254 F3600
