; #disp params :
; Printmode:0
; Layer:80
; Xmin:66.786 mm
; Xmax:193.017 mm
; XDimension:126.231 mm
; Ymin:37.381 mm
; Ymax:162.556 mm
; YDimension:125.175 mm
; Zmax:17 mm
; E0diam:0.4 mm
; E0len:14.6874 m
; E0temp:250 C
; Bedtemp:250 C
; Time:292.999 min
; SlicePreset:Current Easy Preset*
; #params end
; GCode generated by CraftWare

G28 X Y ; home horizontally
G28 Z ; home vertically


M104 S250 ;set head temp (no wait)
M190 S65 ;set bed temp (wait)
M109 S250 ;set head temp (wait)

; ------------------------------------
; Raft Layer #0
; ------------------------------------
M106 S0 ;turn off fan
G21 ; mm
G90 ; abs
G92 E0 ;reset extr
G0 F600 Z0.300
;segType:Raft
G0 F3000 E-1.00000
G0 F600 Z2.300
G0 X68.827 Y128.710 F5400
G0 F600 Z0.300
G0 F3000 E0.00000
G1 X66.851 Y126.734 E0.13938 F600
G1 X66.851 Y73.266 E2.80695
G1 X69.485 Y70.632 E2.99278
G1 X69.946 Y70.566 E3.01603
G1 X92.862 Y70.566 E4.15927
G0 X92.927 Y70.500 F5400
G1 X92.927 Y40.210 E5.67046 F600
G1 X95.561 Y37.576 E5.85629
G1 X96.022 Y37.510 E5.87954
G1 X161.871 Y37.510 E9.16472
G1 X162.332 Y37.576 E9.18796
G1 X164.966 Y40.210 E9.37380
G1 X164.966 Y58.384 E10.28051
G0 X164.966 Y58.647 F5400
G1 X164.966 Y70.500 E10.87184 F600
G1 X165.426 Y70.566 E10.89506
G1 X190.185 Y70.566 E12.13029
G1 X190.515 Y70.763 E12.14946
G1 X193.017 Y73.266 E12.32601
G1 X193.017 Y126.734 E14.99357
G1 X190.185 Y129.566 E15.19337
G1 X165.426 Y129.566 E16.42860
G1 X164.966 Y129.632 E16.45181
G1 X164.966 Y142.538 E17.09571
G0 X164.966 Y142.801 F5400
G1 X164.966 Y159.658 E17.93671 F600
G1 X164.768 Y159.988 E17.95589
G1 X162.266 Y162.490 E18.13243
G1 X134.083 Y162.490 E19.53849
G1 X131.449 Y159.856 E19.72433
G1 X131.383 Y159.658 E19.73473
G1 X130.922 Y159.593 E19.75795
G1 X127.498 Y159.593 E19.92878
G1 X127.300 Y159.922 E19.94792
G1 X124.930 Y162.292 E20.11517
G1 X124.600 Y162.490 E20.13434
G1 X97.734 Y162.490 E21.47470
G1 X97.405 Y162.292 E21.49387
G1 X94.903 Y159.790 E21.67042
G1 X94.903 Y148.201 E22.24861
G1 X94.969 Y147.740 E22.27186
G1 X95.496 Y147.213 E22.30902
G1 X95.693 Y146.884 E22.32816
G1 X95.693 Y144.250 E22.45957
G1 X95.496 Y143.921 E22.47871
G1 X94.969 Y143.394 E22.51588
G1 X94.903 Y142.933 E22.53912
G1 X94.903 Y129.763 E23.19616
G1 X94.837 Y129.566 E23.20653
G1 X70.078 Y129.566 E24.44176
G1 X69.617 Y129.500 E24.46500
G1 X68.893 Y128.776 E24.51609
G0 X119.399 Y124.891 F5400
G1 X119.859 Y124.956 E24.53930 F600
G1 X141.326 Y124.956 E25.61027
G1 X141.391 Y124.627 E25.62701
G1 X141.391 Y97.234 E26.99364
G1 X141.326 Y97.037 E27.00401
G1 X119.464 Y97.037 E28.09470
G1 X119.399 Y97.498 E28.11791
G1 X119.399 Y124.891 E29.48455
G0 X117.621 Y69.380 F5400
G1 X131.185 Y69.380 E30.16129 F600
G1 X131.646 Y69.315 E30.18451
G1 X131.646 Y55.618 E30.86783
G1 X131.580 Y55.158 E30.89104
G1 X117.621 Y55.158 E31.58750
G1 X117.555 Y55.618 E31.61071
G1 X117.555 Y68.788 E32.26775
G1 X117.621 Y69.380 E32.29749
G0 X117.403 Y69.842 F5400
G1 X117.403 Y162.161 E36.90331 F600
G1 X117.803 Y162.161 E36.92326
G1 X117.803 Y69.842 E41.52909
G1 X118.203 Y69.842 E41.54904
G1 X118.203 Y162.161 E46.15487
G1 X118.603 Y162.161 E46.17482
G1 X118.603 Y69.842 E50.78065
G1 X119.003 Y69.842 E50.80060
G1 X119.003 Y162.161 E55.40642
G1 X119.403 Y162.161 E55.42638
G1 X119.403 Y125.417 E57.25951
G1 X119.803 Y125.417 E57.27946
G1 X119.803 Y162.161 E59.11259
G1 X120.203 Y162.161 E59.13255
G1 X120.203 Y125.417 E60.96568
G1 X120.603 Y125.417 E60.98563
G1 X120.603 Y162.161 E62.81876
G1 X121.003 Y162.161 E62.83872
G1 X121.003 Y125.417 E64.67185
G1 X121.403 Y125.417 E64.69181
G1 X121.403 Y162.161 E66.52494
G1 X121.803 Y162.161 E66.54489
G1 X121.803 Y125.417 E68.37802
G1 X122.203 Y125.417 E68.39798
G1 X122.203 Y162.161 E70.23111
G1 X122.603 Y162.161 E70.25107
G1 X122.603 Y125.417 E72.08420
G1 X123.003 Y125.417 E72.10416
G1 X123.003 Y162.161 E73.93729
G1 X123.403 Y162.161 E73.95725
G1 X123.403 Y125.417 E75.79038
G1 X123.803 Y125.417 E75.81034
G1 X123.803 Y162.161 E77.64347
G1 X124.203 Y162.161 E77.66342
G1 X124.203 Y125.417 E79.49655
G1 X124.603 Y125.417 E79.51651
G1 X124.603 Y162.029 E81.34307
G1 X125.003 Y161.634 E81.37113
G1 X125.003 Y125.417 E83.17797
G1 X125.403 Y125.417 E83.19793
G1 X125.403 Y161.239 E84.98507
G1 X125.803 Y160.844 E85.01312
G1 X125.803 Y125.417 E86.78055
G1 X126.203 Y125.417 E86.80051
G1 X126.203 Y160.449 E88.54823
G1 X126.603 Y160.054 E88.57627
G1 X126.603 Y125.417 E90.30428
G1 X127.003 Y125.417 E90.32423
G1 X127.003 Y159.658 E92.03253
G1 X127.403 Y159.263 E92.06059
G1 X127.403 Y125.417 E93.74917
G1 X127.803 Y125.417 E93.76913
G1 X127.803 Y159.263 E95.45771
G1 X128.203 Y159.263 E95.47767
G1 X128.203 Y125.417 E97.16625
G1 X128.603 Y125.417 E97.18621
G1 X128.603 Y159.263 E98.87479
G1 X129.003 Y159.263 E98.89475
G1 X129.003 Y125.417 E100.58334
G1 X129.403 Y125.417 E100.60329
G1 X129.403 Y159.263 E102.29188
G1 X129.803 Y159.263 E102.31184
G1 X129.803 Y125.417 E104.00042
G1 X130.203 Y125.417 E104.02038
G1 X130.203 Y159.263 E105.70896
G1 X130.603 Y159.263 E105.72892
G1 X130.603 Y125.417 E107.41750
G1 X131.003 Y125.417 E107.43746
G1 X131.003 Y159.263 E109.12605
G1 X131.403 Y159.263 E109.14600
G1 X131.403 Y125.417 E110.83459
G1 X131.803 Y125.417 E110.85455
G1 X131.803 Y159.658 E112.56284
G1 X132.203 Y160.054 E112.59090
G1 X132.203 Y125.417 E114.31890
G1 X132.603 Y125.417 E114.33886
G1 X132.603 Y160.449 E116.08658
G1 X133.003 Y160.844 E116.11463
G1 X133.003 Y125.417 E117.88206
G1 X133.403 Y125.417 E117.90202
G1 X133.403 Y161.239 E119.68916
G1 X133.803 Y161.634 E119.71721
G1 X133.803 Y125.417 E121.52406
G1 X134.203 Y125.417 E121.54401
G1 X134.203 Y162.029 E123.37057
G1 X134.603 Y162.161 E123.39159
G1 X134.603 Y125.417 E125.22472
G1 X135.003 Y125.417 E125.24467
G1 X135.003 Y162.161 E127.07780
G1 X135.403 Y162.161 E127.09776
G1 X135.403 Y125.417 E128.93089
G1 X135.803 Y125.417 E128.95085
G1 X135.803 Y162.161 E130.78398
G1 X136.203 Y162.161 E130.80394
G1 X136.203 Y125.417 E132.63707
G1 X136.603 Y125.417 E132.65703
G1 X136.603 Y162.161 E134.49016
G1 X137.003 Y162.161 E134.51012
G1 X137.003 Y125.417 E136.34325
G1 X137.403 Y125.417 E136.36320
G1 X137.403 Y162.161 E138.19633
G1 X137.803 Y162.161 E138.21629
G1 X137.803 Y125.417 E140.04942
G1 X138.203 Y125.417 E140.06938
G1 X138.203 Y162.161 E141.90251
G1 X138.603 Y162.161 E141.92247
G1 X138.603 Y125.417 E143.75560
G1 X139.003 Y125.417 E143.77556
G1 X139.003 Y162.161 E145.60869
G1 X139.403 Y162.161 E145.62865
G1 X139.403 Y125.417 E147.46178
G1 X139.803 Y125.417 E147.48174
G1 X139.803 Y162.161 E149.31487
G1 X140.203 Y162.161 E149.33482
G1 X140.203 Y125.417 E151.16795
G1 X140.603 Y125.417 E151.18791
G1 X140.603 Y162.161 E153.02104
G1 X141.003 Y162.161 E153.04100
G1 X141.003 Y125.417 E154.87413
G1 X141.403 Y125.417 E154.89409
G1 X141.403 Y162.161 E156.72722
G1 X141.803 Y162.161 E156.74718
G1 X141.803 Y37.971 E162.94302
G1 X142.203 Y37.971 E162.96298
G1 X142.203 Y162.161 E169.15882
G1 X142.603 Y162.161 E169.17878
G1 X142.603 Y37.971 E175.37464
G1 X143.003 Y37.971 E175.39460
G1 X143.003 Y162.161 E181.59044
G1 X143.403 Y162.161 E181.61040
G1 X143.403 Y37.971 E187.80624
G1 X143.803 Y37.971 E187.82620
G1 X143.803 Y162.161 E194.02204
G1 X144.203 Y162.161 E194.04200
G1 X144.203 Y37.971 E200.23786
G1 X144.603 Y37.971 E200.25782
G1 X144.603 Y162.161 E206.45366
G1 X145.003 Y162.161 E206.47362
G1 X145.003 Y37.971 E212.66946
G1 X145.403 Y37.971 E212.68942
G1 X145.403 Y162.161 E218.88526
G1 X145.803 Y162.161 E218.90522
G1 X145.803 Y37.971 E225.10108
G1 X146.203 Y37.971 E225.12104
G1 X146.203 Y162.161 E231.31688
G1 X146.603 Y162.161 E231.33684
G1 X146.603 Y37.971 E237.53268
G1 X147.003 Y37.971 E237.55264
G1 X147.003 Y162.161 E243.74848
G1 X147.403 Y162.161 E243.76844
G1 X147.403 Y37.971 E249.96430
G1 X147.803 Y37.971 E249.98426
G1 X147.803 Y162.161 E256.18012
G1 X148.203 Y162.161 E256.20008
G1 X148.203 Y37.971 E262.39594
G1 X148.603 Y37.971 E262.41590
G1 X148.603 Y162.161 E268.61176
G1 X149.003 Y162.161 E268.63172
G1 X149.003 Y37.971 E274.82758
G1 X149.403 Y37.971 E274.84754
G1 X149.403 Y162.161 E281.04340
G1 X149.803 Y162.161 E281.06336
G1 X149.803 Y37.971 E287.25922
G1 X150.203 Y37.971 E287.27918
G1 X150.203 Y162.161 E293.47504
G1 X150.603 Y162.161 E293.49500
G1 X150.603 Y37.971 E299.69086
G1 X151.003 Y37.971 E299.71082
G1 X151.003 Y162.161 E305.90668
G1 X151.403 Y162.161 E305.92664
G1 X151.403 Y37.971 E312.12250
G1 X151.803 Y37.971 E312.14246
G1 X151.803 Y162.161 E318.33832
G1 X152.203 Y162.161 E318.35828
G1 X152.203 Y37.971 E324.55414
G1 X152.603 Y37.971 E324.57410
G1 X152.603 Y162.161 E330.76996
G1 X153.003 Y162.161 E330.78992
G1 X153.003 Y37.971 E336.98576
G1 X153.403 Y37.971 E337.00572
G1 X153.403 Y162.161 E343.20160
G1 X153.803 Y162.161 E343.22156
G1 X153.803 Y37.971 E349.41740
G1 X154.203 Y37.971 E349.43736
G1 X154.203 Y162.161 E355.63324
G1 X154.603 Y162.161 E355.65320
G1 X154.603 Y37.971 E361.84908
G1 X155.003 Y37.971 E361.86900
G1 X155.003 Y162.161 E368.06488
G1 X155.403 Y162.161 E368.08484
G1 X155.403 Y37.971 E374.28072
G1 X155.803 Y37.971 E374.30064
G1 X155.803 Y162.161 E380.49652
G1 X156.203 Y162.161 E380.51648
G1 X156.203 Y37.971 E386.71236
G1 X156.603 Y37.971 E386.73228
G1 X156.603 Y162.161 E392.92816
G1 X157.003 Y162.161 E392.94812
G1 X157.003 Y37.971 E399.14400
G1 X157.403 Y37.971 E399.16396
G1 X157.403 Y162.161 E405.35980
G1 X157.803 Y162.161 E405.37976
G1 X157.803 Y37.971 E411.57564
G1 X158.203 Y37.971 E411.59560
G1 X158.203 Y162.161 E417.79144
G1 X158.603 Y162.161 E417.81140
G1 X158.603 Y37.971 E424.00728
G1 X159.003 Y37.971 E424.02724
G1 X159.003 Y162.161 E430.22308
G1 X159.403 Y162.161 E430.24304
G1 X159.403 Y37.971 E436.43892
G1 X159.803 Y37.971 E436.45888
G1 X159.803 Y162.161 E442.65472
G1 X160.203 Y162.161 E442.67468
G1 X160.203 Y37.971 E448.87056
G1 X160.603 Y37.971 E448.89052
G1 X160.603 Y162.161 E455.08636
G1 X161.003 Y162.161 E455.10632
G1 X161.003 Y37.971 E461.30220
G1 X161.403 Y37.971 E461.32216
G1 X161.403 Y162.161 E467.51800
G1 X161.803 Y162.161 E467.53796
G1 X161.803 Y37.971 E473.73384
G1 X162.203 Y38.234 E473.75772
G1 X162.203 Y161.897 E479.92728
G1 X162.603 Y161.502 E479.95532
G1 X162.603 Y38.629 E486.08548
G1 X163.003 Y39.025 E486.11352
G1 X163.003 Y161.107 E492.20424
G1 X163.403 Y160.712 E492.23228
G1 X163.403 Y39.420 E498.28360
G1 X163.803 Y39.815 E498.31164
G1 X163.803 Y160.317 E504.32352
G1 X164.203 Y159.922 E504.35156
G1 X164.203 Y40.210 E510.32404
G0 X164.603 Y70.895 F5400
G1 X164.603 Y129.368 E513.24128 F600
G1 X165.003 Y129.237 E513.26228
G1 X165.003 Y71.027 E516.16640
G1 X165.403 Y71.027 E516.18636
G1 X165.403 Y129.237 E519.09044
G1 X165.803 Y129.237 E519.11040
G1 X165.803 Y71.027 E522.01452
G1 X166.203 Y71.027 E522.03448
G1 X166.203 Y129.237 E524.93860
G1 X166.603 Y129.237 E524.95856
G1 X166.603 Y71.027 E527.86268
G1 X167.003 Y71.027 E527.88264
G1 X167.003 Y129.237 E530.78676
G1 X167.403 Y129.237 E530.80672
G1 X167.403 Y71.027 E533.71080
G1 X167.803 Y71.027 E533.73076
G1 X167.803 Y129.237 E536.63488
G1 X168.203 Y129.237 E536.65484
G1 X168.203 Y71.027 E539.55896
G1 X168.603 Y71.027 E539.57892
G1 X168.603 Y129.237 E542.48304
G1 X169.003 Y129.237 E542.50300
G1 X169.003 Y71.027 E545.40712
G1 X169.403 Y71.027 E545.42708
G1 X169.403 Y129.237 E548.33116
G1 X169.803 Y129.237 E548.35112
G1 X169.803 Y71.027 E551.25524
G1 X170.203 Y71.027 E551.27520
G1 X170.203 Y129.237 E554.17932
G1 X170.603 Y129.237 E554.19928
G1 X170.603 Y71.027 E557.10340
G1 X171.003 Y71.027 E557.12336
G1 X171.003 Y129.237 E560.02748
G1 X171.403 Y129.237 E560.04744
G1 X171.403 Y71.027 E562.95152
G1 X171.803 Y71.027 E562.97148
G1 X171.803 Y129.237 E565.87560
G1 X172.203 Y129.237 E565.89556
G1 X172.203 Y71.027 E568.79968
G1 X172.603 Y71.027 E568.81964
G1 X172.603 Y129.237 E571.72376
G1 X173.003 Y129.237 E571.74372
G1 X173.003 Y71.027 E574.64784
G1 X173.403 Y71.027 E574.66780
G1 X173.403 Y129.237 E577.57188
G1 X173.803 Y129.237 E577.59184
G1 X173.803 Y71.027 E580.49596
G1 X174.203 Y71.027 E580.51592
G1 X174.203 Y129.237 E583.42004
G1 X174.603 Y129.237 E583.44000
G1 X174.603 Y71.027 E586.34412
G1 X175.003 Y71.027 E586.36408
G1 X175.003 Y129.237 E589.26820
G1 X175.403 Y129.237 E589.28816
G1 X175.403 Y71.027 E592.19228
G1 X175.803 Y71.027 E592.21220
G1 X175.803 Y129.237 E595.11632
G1 X176.203 Y129.237 E595.13628
G1 X176.203 Y71.027 E598.04040
G1 X176.603 Y71.027 E598.06036
G1 X176.603 Y129.237 E600.96448
G1 X177.003 Y129.237 E600.98444
G1 X177.003 Y71.027 E603.88856
G1 X177.403 Y71.027 E603.90852
G1 X177.403 Y129.237 E606.81264
G1 X177.803 Y129.237 E606.83260
G1 X177.803 Y71.027 E609.73668
G1 X178.203 Y71.027 E609.75664
G1 X178.203 Y129.237 E612.66076
G1 X178.603 Y129.237 E612.68072
G1 X178.603 Y71.027 E615.58484
G1 X179.003 Y71.027 E615.60480
G1 X179.003 Y129.237 E618.50892
G1 X179.403 Y129.237 E618.52888
G1 X179.403 Y71.027 E621.43300
G1 X179.803 Y71.027 E621.45296
G1 X179.803 Y129.237 E624.35704
G1 X180.203 Y129.237 E624.37700
G1 X180.203 Y71.027 E627.28112
G1 X180.603 Y71.027 E627.30108
G1 X180.603 Y129.237 E630.20520
G1 X181.003 Y129.237 E630.22516
G1 X181.003 Y71.027 E633.12928
G1 X181.403 Y71.027 E633.14924
G1 X181.403 Y129.237 E636.05336
G1 X181.803 Y129.237 E636.07332
G1 X181.803 Y71.027 E638.97740
G1 X182.203 Y71.027 E638.99736
G1 X182.203 Y129.237 E641.90148
G1 X182.603 Y129.237 E641.92144
G1 X182.603 Y71.027 E644.82556
G1 X183.003 Y71.027 E644.84552
G1 X183.003 Y129.237 E647.74964
G1 X183.403 Y129.237 E647.76960
G1 X183.403 Y71.027 E650.67372
G1 X183.803 Y71.027 E650.69368
G1 X183.803 Y129.237 E653.59776
G1 X184.203 Y129.237 E653.61772
G1 X184.203 Y71.027 E656.52184
G1 X184.603 Y71.027 E656.54180
G1 X184.603 Y129.237 E659.44592
G1 X185.003 Y129.237 E659.46588
G1 X185.003 Y71.027 E662.37000
G1 X185.403 Y71.027 E662.38996
G1 X185.403 Y129.237 E665.29408
G1 X185.803 Y129.237 E665.31404
G1 X185.803 Y71.027 E668.21812
G1 X186.203 Y71.027 E668.23808
G1 X186.203 Y129.237 E671.14224
G1 X186.603 Y129.237 E671.16216
G1 X186.603 Y71.027 E674.06632
G1 X187.003 Y71.027 E674.08624
G1 X187.003 Y129.237 E676.99032
G1 X187.403 Y129.237 E677.01032
G1 X187.403 Y71.027 E679.91440
G1 X187.803 Y71.027 E679.93440
G1 X187.803 Y129.237 E682.83848
G1 X188.203 Y129.237 E682.85848
G1 X188.203 Y71.027 E685.76256
G1 X188.603 Y71.027 E685.78256
G1 X188.603 Y129.237 E688.68664
G1 X189.003 Y129.237 E688.70664
G1 X189.003 Y71.027 E691.61072
G1 X189.403 Y71.027 E691.63064
G1 X189.403 Y129.237 E694.53480
G1 X189.803 Y129.237 E694.55472
G1 X189.803 Y71.027 E697.45888
G1 X190.203 Y71.158 E697.47984
G1 X190.203 Y128.973 E700.36424
G1 X190.603 Y128.578 E700.39232
G1 X190.603 Y71.554 E703.23728
G1 X191.003 Y71.949 E703.26536
G1 X191.003 Y128.183 E706.07096
G1 X191.403 Y127.788 E706.09896
G1 X191.403 Y72.344 E708.86512
G1 X191.803 Y72.739 E708.89320
G1 X191.803 Y127.393 E711.61984
G1 X192.203 Y126.998 E711.64792
G1 X192.203 Y73.134 E714.33520
G1 X192.603 Y73.529 E714.36328
G1 X192.603 Y126.603 E717.01112
G0 X141.403 Y96.708 F5400
G1 X141.403 Y37.971 E719.94144 F600
G1 X141.003 Y37.971 E719.96144
G1 X141.003 Y96.708 E722.89176
G1 X140.603 Y96.708 E722.91176
G1 X140.603 Y37.971 E725.84208
G1 X140.203 Y37.971 E725.86208
G1 X140.203 Y96.708 E728.79240
G1 X139.803 Y96.708 E728.81240
G1 X139.803 Y37.971 E731.74272
G1 X139.403 Y37.971 E731.76272
G1 X139.403 Y96.708 E734.69304
G1 X139.003 Y96.708 E734.71304
G1 X139.003 Y37.971 E737.64336
G1 X138.603 Y37.971 E737.66336
G1 X138.603 Y96.708 E740.59368
G1 X138.203 Y96.708 E740.61368
G1 X138.203 Y37.971 E743.54400
G1 X137.803 Y37.971 E743.56400
G1 X137.803 Y96.708 E746.49432
G1 X137.403 Y96.708 E746.51432
G1 X137.403 Y37.971 E749.44464
G1 X137.003 Y37.971 E749.46456
G1 X137.003 Y96.708 E752.39496
G1 X136.603 Y96.708 E752.41488
G1 X136.603 Y37.971 E755.34528
G1 X136.203 Y37.971 E755.36520
G1 X136.203 Y96.708 E758.29560
G1 X135.803 Y96.708 E758.31552
G1 X135.803 Y37.971 E761.24592
G1 X135.403 Y37.971 E761.26584
G1 X135.403 Y96.708 E764.19624
G1 X135.003 Y96.708 E764.21616
G1 X135.003 Y37.971 E767.14656
G1 X134.603 Y37.971 E767.16648
G1 X134.603 Y96.708 E770.09688
G1 X134.203 Y96.708 E770.11680
G1 X134.203 Y37.971 E773.04720
G1 X133.803 Y37.971 E773.06712
G1 X133.803 Y96.708 E775.99752
G1 X133.403 Y96.708 E776.01744
G1 X133.403 Y37.971 E778.94784
G1 X133.003 Y37.971 E778.96776
G1 X133.003 Y96.708 E781.89816
G1 X132.603 Y96.708 E781.91808
G1 X132.603 Y37.971 E784.84848
G1 X132.203 Y37.971 E784.86840
G1 X132.203 Y96.708 E787.79880
G1 X131.803 Y96.708 E787.81872
G1 X131.803 Y69.842 E789.15904
G1 X131.403 Y69.842 E789.17904
G1 X131.403 Y96.708 E790.51936
G1 X131.003 Y96.708 E790.53928
G1 X131.003 Y69.842 E791.87960
G1 X130.603 Y69.842 E791.89960
G1 X130.603 Y96.708 E793.23992
G1 X130.203 Y96.708 E793.25992
G1 X130.203 Y69.842 E794.60024
G1 X129.803 Y69.842 E794.62016
G1 X129.803 Y96.708 E795.96048
G1 X129.403 Y96.708 E795.98048
G1 X129.403 Y69.842 E797.32080
G1 X129.003 Y69.842 E797.34072
G1 X129.003 Y96.708 E798.68112
G1 X128.603 Y96.708 E798.70104
G1 X128.603 Y69.842 E800.04136
G1 X128.203 Y69.842 E800.06136
G1 X128.203 Y96.708 E801.40168
G1 X127.803 Y96.708 E801.42160
G1 X127.803 Y69.842 E802.76200
G1 X127.403 Y69.842 E802.78192
G1 X127.403 Y96.708 E804.12224
G1 X127.003 Y96.708 E804.14224
G1 X127.003 Y69.842 E805.48256
G1 X126.603 Y69.842 E805.50248
G1 X126.603 Y96.708 E806.84280
G1 X126.203 Y96.708 E806.86280
G1 X126.203 Y69.842 E808.20312
G1 X125.803 Y69.842 E808.22312
G1 X125.803 Y96.708 E809.56344
G1 X125.403 Y96.708 E809.58336
G1 X125.403 Y69.842 E810.92368
G1 X125.003 Y69.842 E810.94368
G1 X125.003 Y96.708 E812.28400
G1 X124.603 Y96.708 E812.30392
G1 X124.603 Y69.842 E813.64432
G1 X124.203 Y69.842 E813.66424
G1 X124.203 Y96.708 E815.00456
G1 X123.803 Y96.708 E815.02456
G1 X123.803 Y69.842 E816.36488
G1 X123.403 Y69.842 E816.38480
G1 X123.403 Y96.708 E817.72512
G1 X123.003 Y96.708 E817.74512
G1 X123.003 Y69.842 E819.08544
G1 X122.603 Y69.842 E819.10544
G1 X122.603 Y96.708 E820.44576
G1 X122.203 Y96.708 E820.46568
G1 X122.203 Y69.842 E821.80600
G1 X121.803 Y69.842 E821.82600
G1 X121.803 Y96.708 E823.16632
G1 X121.403 Y96.708 E823.18624
G1 X121.403 Y69.842 E824.52664
G1 X121.003 Y69.842 E824.54656
G1 X121.003 Y96.708 E825.88688
G1 X120.603 Y96.708 E825.90688
G1 X120.603 Y69.842 E827.24720
G1 X120.203 Y69.842 E827.26712
G1 X120.203 Y96.708 E828.60752
G1 X119.803 Y96.708 E828.62744
G1 X119.803 Y69.842 E829.96776
G1 X119.403 Y69.842 E829.98776
G1 X119.403 Y96.708 E831.32808
G0 X131.803 Y54.828 F5400
G1 X131.803 Y37.971 E832.16904 F600
G1 X131.403 Y37.971 E832.18904
G1 X131.403 Y54.828 E833.03000
G1 X131.003 Y54.828 E833.05000
G1 X131.003 Y37.971 E833.89096
G1 X130.603 Y37.971 E833.91096
G1 X130.603 Y54.828 E834.75192
G1 X130.203 Y54.828 E834.77192
G1 X130.203 Y37.971 E835.61288
G1 X129.803 Y37.971 E835.63288
G1 X129.803 Y54.828 E836.47384
G1 X129.403 Y54.828 E836.49384
G1 X129.403 Y37.971 E837.33480
G1 X129.003 Y37.971 E837.35480
G1 X129.003 Y54.828 E838.19584
G1 X128.603 Y54.828 E838.21576
G1 X128.603 Y37.971 E839.05680
G1 X128.203 Y37.971 E839.07672
G1 X128.203 Y54.828 E839.91776
G1 X127.803 Y54.828 E839.93768
G1 X127.803 Y37.971 E840.77872
G1 X127.403 Y37.971 E840.79864
G1 X127.403 Y54.828 E841.63968
G1 X127.003 Y54.828 E841.65960
G1 X127.003 Y37.971 E842.50064
G1 X126.603 Y37.971 E842.52056
G1 X126.603 Y54.828 E843.36160
G1 X126.203 Y54.828 E843.38152
G1 X126.203 Y37.971 E844.22256
G1 X125.803 Y37.971 E844.24248
G1 X125.803 Y54.828 E845.08352
G1 X125.403 Y54.828 E845.10344
G1 X125.403 Y37.971 E845.94448
G1 X125.003 Y37.971 E845.96440
G1 X125.003 Y54.828 E846.80544
G1 X124.603 Y54.828 E846.82536
G1 X124.603 Y37.971 E847.66640
G1 X124.203 Y37.971 E847.68632
G1 X124.203 Y54.828 E848.52736
G1 X123.803 Y54.828 E848.54728
G1 X123.803 Y37.971 E849.38832
G1 X123.403 Y37.971 E849.40824
G1 X123.403 Y54.828 E850.24928
G1 X123.003 Y54.828 E850.26920
G1 X123.003 Y37.971 E851.11024
G1 X122.603 Y37.971 E851.13016
G1 X122.603 Y54.828 E851.97120
G1 X122.203 Y54.828 E851.99112
G1 X122.203 Y37.971 E852.83216
G1 X121.803 Y37.971 E852.85208
G1 X121.803 Y54.828 E853.69312
G1 X121.403 Y54.828 E853.71304
G1 X121.403 Y37.971 E854.55408
G1 X121.003 Y37.971 E854.57400
G1 X121.003 Y54.828 E855.41504
G1 X120.603 Y54.828 E855.43496
G1 X120.603 Y37.971 E856.27600
G1 X120.203 Y37.971 E856.29592
G1 X120.203 Y54.828 E857.13696
G1 X119.803 Y54.828 E857.15696
G1 X119.803 Y37.971 E857.99792
G1 X119.403 Y37.971 E858.01792
G1 X119.403 Y54.828 E858.85888
G1 X119.003 Y54.828 E858.87888
G1 X119.003 Y37.971 E859.71984
G1 X118.603 Y37.971 E859.73984
G1 X118.603 Y54.828 E860.58080
G1 X118.203 Y54.828 E860.60080
G1 X118.203 Y37.971 E861.44176
G1 X117.803 Y37.971 E861.46176
G1 X117.803 Y54.828 E862.30272
G1 X117.403 Y54.828 E862.32272
G1 X117.403 Y37.971 E863.16368
G1 X117.003 Y37.971 E863.18368
G1 X117.003 Y162.161 E869.37952
G1 X116.603 Y162.161 E869.39944
G1 X116.603 Y37.971 E875.59536
G1 X116.203 Y37.971 E875.61528
G1 X116.203 Y162.161 E881.81112
G1 X115.803 Y162.161 E881.83112
G1 X115.803 Y37.971 E888.02696
G1 X115.403 Y37.971 E888.04696
G1 X115.403 Y162.161 E894.24280
G1 X115.003 Y162.161 E894.26272
G1 X115.003 Y37.971 E900.45864
G1 X114.603 Y37.971 E900.47856
G1 X114.603 Y162.161 E906.67440
G1 X114.203 Y162.161 E906.69440
G1 X114.203 Y37.971 E912.89024
G1 X113.803 Y37.971 E912.91024
G1 X113.803 Y162.161 E919.10608
G1 X113.403 Y162.161 E919.12600
G1 X113.403 Y37.971 E925.32192
G1 X113.003 Y37.971 E925.34184
G1 X113.003 Y162.161 E931.53768
G1 X112.603 Y162.161 E931.55768
G1 X112.603 Y37.971 E937.75352
G1 X112.203 Y37.971 E937.77352
G1 X112.203 Y162.161 E943.96936
G1 X111.803 Y162.161 E943.98928
G1 X111.803 Y37.971 E950.18520
G1 X111.403 Y37.971 E950.20512
G1 X111.403 Y162.161 E956.40104
G1 X111.003 Y162.161 E956.42096
G1 X111.003 Y37.971 E962.61680
G1 X110.603 Y37.971 E962.63680
G1 X110.603 Y162.161 E968.83264
G1 X110.203 Y162.161 E968.85264
G1 X110.203 Y37.971 E975.04848
G1 X109.803 Y37.971 E975.06840
G1 X109.803 Y162.161 E981.26432
G1 X109.403 Y162.161 E981.28424
G1 X109.403 Y37.971 E987.48008
G1 X109.003 Y37.971 E987.50008
G1 X109.003 Y162.161 E993.69592
G1 X108.603 Y162.161 E993.71592
G1 X108.603 Y37.971 E999.91176
G1 X108.203 Y37.971 E999.93168
G1 X108.203 Y162.161 E1006.12760
G1 X107.803 Y162.161 E1006.14752
G1 X107.803 Y37.971 E1012.34336
G1 X107.403 Y37.971 E1012.36336
G1 X107.403 Y162.161 E1018.55920
G1 X107.003 Y162.161 E1018.57920
G1 X107.003 Y37.971 E1024.77504
G1 X106.603 Y37.971 E1024.79496
G1 X106.603 Y162.161 E1030.99072
G1 X106.203 Y162.161 E1031.01064
G1 X106.203 Y37.971 E1037.20640
G1 X105.803 Y37.971 E1037.22632
G1 X105.803 Y162.161 E1043.42208
G1 X105.403 Y162.161 E1043.44200
G1 X105.403 Y37.971 E1049.63784
G1 X105.003 Y37.971 E1049.65768
G1 X105.003 Y162.161 E1055.85352
G1 X104.603 Y162.161 E1055.87344
G1 X104.603 Y37.971 E1062.06920
G1 X104.203 Y37.971 E1062.08912
G1 X104.203 Y162.161 E1068.28488
G1 X103.803 Y162.161 E1068.30480
G1 X103.803 Y37.971 E1074.50064
G1 X103.403 Y37.971 E1074.52048
G1 X103.403 Y162.161 E1080.71632
G1 X103.003 Y162.161 E1080.73624
G1 X103.003 Y37.971 E1086.93200
G1 X102.603 Y37.971 E1086.95192
G1 X102.603 Y162.161 E1093.14768
G1 X102.203 Y162.161 E1093.16760
G1 X102.203 Y37.971 E1099.36344
G1 X101.803 Y37.971 E1099.38328
G1 X101.803 Y162.161 E1105.57912
G1 X101.403 Y162.161 E1105.59896
G1 X101.403 Y37.971 E1111.79480
G1 X101.003 Y37.971 E1111.81472
G1 X101.003 Y162.161 E1118.01048
G1 X100.603 Y162.161 E1118.03040
G1 X100.603 Y37.971 E1124.22616
G1 X100.203 Y37.971 E1124.24608
G1 X100.203 Y162.161 E1130.44192
G1 X99.803 Y162.161 E1130.46176
G1 X99.803 Y37.971 E1136.65760
G1 X99.403 Y37.971 E1136.67752
G1 X99.403 Y162.161 E1142.87328
G1 X99.003 Y162.161 E1142.89320
G1 X99.003 Y37.971 E1149.08896
G1 X98.603 Y37.971 E1149.10888
G1 X98.603 Y162.161 E1155.30472
G1 X98.203 Y162.161 E1155.32456
G1 X98.203 Y37.971 E1161.52040
G1 X97.803 Y37.971 E1161.54032
G1 X97.803 Y162.161 E1167.73608
G1 X97.403 Y161.634 E1167.76904
G1 X97.403 Y37.971 E1173.93856
G1 X97.003 Y37.971 E1173.95848
G1 X97.003 Y161.239 E1180.10840
G1 X96.603 Y160.844 E1180.13648
G1 X96.603 Y37.971 E1186.26664
G1 X96.203 Y37.971 E1186.28648
G1 X96.203 Y160.449 E1192.39696
G1 X95.803 Y160.054 E1192.42504
G1 X95.803 Y147.674 E1193.04264
G1 X95.403 Y148.069 E1193.07064
G1 X95.403 Y159.658 E1193.64896
G0 X67.403 Y73.397 F5400
G1 X67.403 Y126.734 E1196.30992 F600
G1 X67.803 Y127.129 E1196.33800
G1 X67.803 Y73.002 E1199.03848
G1 X68.203 Y72.607 E1199.06656
G1 X68.203 Y127.525 E1201.80640
G1 X68.603 Y127.920 E1201.83448
G1 X68.603 Y72.212 E1204.61376
G1 X69.003 Y71.817 E1204.64184
G1 X69.003 Y128.315 E1207.46056
G1 X69.403 Y128.710 E1207.48864
G1 X69.403 Y71.422 E1210.34680
G1 X69.803 Y71.027 E1210.37488
G1 X69.803 Y129.105 E1213.27248
G1 X70.203 Y129.237 E1213.29344
G1 X70.203 Y71.027 E1216.19752
G1 X70.603 Y71.027 E1216.21744
G1 X70.603 Y129.237 E1219.12144
G1 X71.003 Y129.237 E1219.14136
G1 X71.003 Y71.027 E1222.04544
G1 X71.403 Y71.027 E1222.06528
G1 X71.403 Y129.237 E1224.96936
G1 X71.803 Y129.237 E1224.98928
G1 X71.803 Y71.027 E1227.89328
G1 X72.203 Y71.027 E1227.91320
G1 X72.203 Y129.237 E1230.81728
G1 X72.603 Y129.237 E1230.83712
G1 X72.603 Y71.027 E1233.74120
G1 X73.003 Y71.027 E1233.76112
G1 X73.003 Y129.237 E1236.66520
G1 X73.403 Y129.237 E1236.68504
G1 X73.403 Y71.027 E1239.58912
G1 X73.803 Y71.027 E1239.60904
G1 X73.803 Y129.237 E1242.51304
G1 X74.203 Y129.237 E1242.53296
G1 X74.203 Y71.027 E1245.43704
G1 X74.603 Y71.027 E1245.45688
G1 X74.603 Y129.237 E1248.36096
G1 X75.003 Y129.237 E1248.38088
G1 X75.003 Y71.027 E1251.28488
G1 X75.403 Y71.027 E1251.30480
G1 X75.403 Y129.237 E1254.20888
G1 X75.803 Y129.237 E1254.22872
G1 X75.803 Y71.027 E1257.13280
G1 X76.203 Y71.027 E1257.15272
G1 X76.203 Y129.237 E1260.05680
G1 X76.603 Y129.237 E1260.07664
G1 X76.603 Y71.027 E1262.98072
G1 X77.003 Y71.027 E1263.00064
G1 X77.003 Y129.237 E1265.90464
G1 X77.403 Y129.237 E1265.92456
G1 X77.403 Y71.027 E1268.82864
G1 X77.803 Y71.027 E1268.84848
G1 X77.803 Y129.237 E1271.75256
G1 X78.203 Y129.237 E1271.77248
G1 X78.203 Y71.027 E1274.67648
G1 X78.603 Y71.027 E1274.69640
G1 X78.603 Y129.237 E1277.60048
G1 X79.003 Y129.237 E1277.62040
G1 X79.003 Y71.027 E1280.52440
G1 X79.403 Y71.027 E1280.54432
G1 X79.403 Y129.237 E1283.44840
G1 X79.803 Y129.237 E1283.46824
G1 X79.803 Y71.027 E1286.37232
G1 X80.203 Y71.027 E1286.39224
G1 X80.203 Y129.237 E1289.29624
G1 X80.603 Y129.237 E1289.31616
G1 X80.603 Y71.027 E1292.22024
G1 X81.003 Y71.027 E1292.24008
G1 X81.003 Y129.237 E1295.14416
G1 X81.403 Y129.237 E1295.16408
G1 X81.403 Y71.027 E1298.06808
G1 X81.803 Y71.027 E1298.08800
G1 X81.803 Y129.237 E1300.99208
G1 X82.203 Y129.237 E1301.01200
G1 X82.203 Y71.027 E1303.91600
G1 X82.603 Y71.027 E1303.93592
G1 X82.603 Y129.237 E1306.84000
G1 X83.003 Y129.237 E1306.85984
G1 X83.003 Y71.027 E1309.76392
G1 X83.403 Y71.027 E1309.78384
G1 X83.403 Y129.237 E1312.68784
G1 X83.803 Y129.237 E1312.70776
G1 X83.803 Y71.027 E1315.61184
G1 X84.203 Y71.027 E1315.63168
G1 X84.203 Y129.237 E1318.53576
G1 X84.603 Y129.237 E1318.55568
G1 X84.603 Y71.027 E1321.45968
G1 X85.003 Y71.027 E1321.47960
G1 X85.003 Y129.237 E1324.38368
G1 X85.403 Y129.237 E1324.40360
G1 X85.403 Y71.027 E1327.30760
G1 X85.803 Y71.027 E1327.32752
G1 X85.803 Y129.237 E1330.23160
G1 X86.203 Y129.237 E1330.25144
G1 X86.203 Y71.027 E1333.15552
G1 X86.603 Y71.027 E1333.17544
G1 X86.603 Y129.237 E1336.07944
G1 X87.003 Y129.237 E1336.09936
G1 X87.003 Y71.027 E1339.00344
G1 X87.403 Y71.027 E1339.02328
G1 X87.403 Y129.237 E1341.92736
G1 X87.803 Y129.237 E1341.94728
G1 X87.803 Y71.027 E1344.85136
G1 X88.203 Y71.027 E1344.87120
G1 X88.203 Y129.237 E1347.77520
G1 X88.603 Y129.237 E1347.79520
G1 X88.603 Y71.027 E1350.69920
G1 X89.003 Y71.027 E1350.71904
G1 X89.003 Y129.237 E1353.62320
G1 X89.403 Y129.237 E1353.64304
G1 X89.403 Y71.027 E1356.54704
G1 X89.803 Y71.027 E1356.56704
G1 X89.803 Y129.237 E1359.47104
G1 X90.203 Y129.237 E1359.49104
G1 X90.203 Y71.027 E1362.39504
G1 X90.603 Y71.027 E1362.41488
G1 X90.603 Y129.237 E1365.31904
G1 X91.003 Y129.237 E1365.33888
G1 X91.003 Y71.027 E1368.24288
G1 X91.403 Y71.027 E1368.26288
G1 X91.403 Y129.237 E1371.16688
G1 X91.803 Y129.237 E1371.18672
G1 X91.803 Y71.027 E1374.09088
G1 X92.203 Y71.027 E1374.11072
G1 X92.203 Y129.237 E1377.01472
G1 X92.603 Y129.237 E1377.03472
G1 X92.603 Y71.027 E1379.93872
G1 X93.003 Y71.027 E1379.95856
G1 X93.003 Y129.237 E1382.86272
G1 X93.403 Y129.237 E1382.88256
G1 X93.403 Y40.473 E1387.31104
G1 X93.803 Y40.078 E1387.33904
G1 X93.803 Y129.237 E1391.78720
G1 X94.203 Y129.237 E1391.80720
G1 X94.203 Y39.683 E1396.27504
G1 X94.603 Y39.288 E1396.30304
G1 X94.603 Y129.237 E1400.79072
G1 X95.003 Y129.237 E1400.81056
G1 X95.003 Y38.893 E1405.31792
G1 X95.403 Y38.498 E1405.34592
G1 X95.403 Y143.196 E1410.56928
G1 X95.803 Y143.592 E1410.59744
G1 X95.803 Y38.103 E1415.86016



; ------------------------------------
; Raft Layer #1
; ------------------------------------
G92 E0 ;reset extr
G0 F600 Z0.600
;segType:Raft
G0 X96.286 Y37.483 F7200
G1 X92.862 Y40.907 E0.24159 F1800
G0 X92.862 Y42.792 F7200
G1 X98.261 Y37.393 E0.62255 F1800
G0 X100.105 Y37.435 F7200
G1 X92.862 Y44.678 E1.13360 F1800
G0 X92.862 Y46.564 F7200
G1 X101.949 Y37.477 E1.77474 F1800
G0 X103.924 Y37.387 F7200
G1 X92.862 Y48.449 E2.55525 F1800
G0 X92.862 Y50.335 F7200
G1 X105.768 Y37.429 E3.46585 F1800
G0 X107.612 Y37.471 F7200
G1 X92.862 Y52.220 E4.50653 F1800
G0 X92.862 Y54.106 F7200
G1 X109.587 Y37.381 E5.68660 F1800
G0 X111.431 Y37.423 F7200
G1 X92.862 Y55.992 E6.99674 F1800
G0 X92.862 Y57.877 F7200
G1 X113.275 Y37.465 E8.43698 F1800
G0 X115.118 Y37.507 F7200
G1 X92.862 Y59.763 E10.00729 F1800
G0 X92.862 Y61.648 F7200
G1 X117.094 Y37.417 E11.71699 F1800
G0 X118.938 Y37.459 F7200
G1 X92.862 Y63.534 E13.55677 F1800
G0 X92.862 Y65.420 F7200
G1 X120.781 Y37.500 E15.52664 F1800
G0 X122.757 Y37.411 F7200
G1 X92.862 Y67.305 E17.63588 F1800
G0 X92.862 Y69.191 F7200
G1 X124.600 Y37.453 E19.87521 F1800
G0 X126.444 Y37.494 F7200
G1 X66.786 Y97.152 E24.08441 F1800
G0 X66.786 Y99.038 F7200
G1 X128.420 Y37.405 E28.43298 F1800
G0 X130.263 Y37.447 F7200
G1 X66.786 Y100.923 E32.91164 F1800
G0 X66.786 Y102.809 F7200
G1 X132.107 Y37.488 E37.52039 F1800
G0 X134.083 Y37.399 F7200
G1 X66.786 Y104.695 E42.26851 F1800
G0 X66.786 Y106.580 F7200
G1 X117.489 Y55.878 E45.84587 F1800
G0 X118.279 Y55.088 F7200
G1 X135.926 Y37.441 E47.09097 F1800
G0 X137.770 Y37.482 F7200
G1 X120.123 Y55.129 E48.33608 F1800
G0 X122.098 Y55.040 F7200
G1 X139.746 Y37.393 E49.58118 F1800
G0 X141.589 Y37.435 F7200
G1 X123.942 Y55.082 E50.82629 F1800
G0 X125.786 Y55.123 F7200
G1 X143.433 Y37.476 E52.07139 F1800
G0 X145.408 Y37.387 F7200
G1 X127.761 Y55.034 E53.31650 F1800
G0 X129.605 Y55.076 F7200
G1 X147.252 Y37.428 E54.56160 F1800
G0 X149.096 Y37.470 F7200
G1 X131.449 Y55.117 E55.80671 F1800
G0 X131.580 Y56.871 F7200
G1 X151.071 Y37.381 E57.18190 F1800
G0 X152.915 Y37.422 F7200
G1 X131.580 Y58.757 E58.68717 F1800
G0 X131.580 Y60.643 F7200
G1 X154.759 Y37.464 E60.32254 F1800
G0 X156.603 Y37.506 F7200
G1 X131.580 Y62.528 E62.08798 F1800
G0 X131.580 Y64.414 F7200
G1 X158.578 Y37.416 E63.99280 F1800
G0 X160.422 Y37.458 F7200
G1 X131.580 Y66.299 E66.02771 F1800
G0 X131.580 Y68.185 F7200
G1 X162.266 Y37.500 E68.19271 F1800
G0 X163.188 Y38.464 F7200
G1 X72.185 Y129.465 E74.61336 F1800
G0 X74.029 Y129.507 F7200
G1 X164.109 Y39.428 E80.96897 F1800
G0 X164.900 Y40.523 F7200
G1 X75.873 Y129.549 E87.25024 F1800
G0 X77.848 Y129.459 F7200
G1 X164.900 Y42.409 E93.39214 F1800
G0 X164.900 Y44.294 F7200
G1 X79.692 Y129.501 E99.40395 F1800
G0 X81.536 Y129.543 F7200
G1 X164.900 Y46.180 E105.28567 F1800
G0 X164.900 Y48.066 F7200
G1 X83.511 Y129.453 E111.02802 F1800
G0 X85.355 Y129.495 F7200
G1 X164.900 Y49.951 E116.64027 F1800
G0 X164.900 Y51.837 F7200
G1 X119.728 Y97.008 E119.82737 F1800
G1 X119.333 Y97.403 E119.85525
G1 X87.199 Y129.537 E122.12245
G0 X89.174 Y129.447 F7200
G1 X119.333 Y99.289 E124.25028 F1800
G0 X119.333 Y101.174 F7200
G1 X91.018 Y129.489 E126.24802 F1800
G0 X92.862 Y129.531 F7200
G1 X119.333 Y103.060 E128.11568 F1800
G0 X119.333 Y104.946 F7200
G1 X94.837 Y129.441 E129.84396 F1800
G0 X94.837 Y131.326 F7200
G1 X119.333 Y106.831 E131.57225 F1800
G0 X119.333 Y108.717 F7200
G1 X94.837 Y133.212 E133.30054 F1800
G0 X94.837 Y135.098 F7200
G1 X119.333 Y110.602 E135.02882 F1800
G0 X119.374 Y112.446 F7200
G1 X94.879 Y136.941 E136.75711 F1800
G0 X94.789 Y138.917 F7200
G1 X119.285 Y114.422 E138.48540 F1800
G0 X119.326 Y116.265 F7200
G1 X94.831 Y140.761 E140.21368 F1800
G0 X94.873 Y142.604 F7200
G1 X119.368 Y118.109 E141.94197 F1800
G0 X119.279 Y120.084 F7200
G1 X95.441 Y143.921 E143.62379 F1800
G0 X95.615 Y145.633 F7200
G1 X119.320 Y121.928 E145.29633 F1800
G0 X119.362 Y123.772 F7200
G1 X94.867 Y148.267 E147.02460 F1800
G0 X94.777 Y150.243 F7200
G1 X120.194 Y124.825 E148.81792 F1800
G0 X122.080 Y124.825 F7200
G1 X94.819 Y152.086 E150.74132 F1800
G0 X94.861 Y153.930 F7200
G1 X123.966 Y124.825 E152.79482 F1800
G0 X125.851 Y124.825 F7200
G1 X94.903 Y155.774 E154.97839 F1800
G0 X94.813 Y157.749 F7200
G1 X127.737 Y124.825 E157.30135 F1800
G0 X129.622 Y124.825 F7200
G1 X94.855 Y159.593 E159.75439 F1800
G0 X95.818 Y160.515 F7200
G1 X131.508 Y124.825 E162.27248 F1800
G0 X133.394 Y124.825 F7200
G1 X96.650 Y161.568 E164.86490 F1800
G0 X97.746 Y162.358 F7200
G1 X135.279 Y124.825 E167.51306 F1800
G0 X137.165 Y124.825 F7200
G1 X99.631 Y162.358 E170.16122 F1800
G0 X101.517 Y162.358 F7200
G1 X139.051 Y124.825 E172.80938 F1800
G0 X141.289 Y122.587 F7200
G1 X191.861 Y72.016 E176.37744 F1800
G0 X190.897 Y71.094 F7200
G1 X141.379 Y120.611 E179.87118 F1800
G0 X141.337 Y118.768 F7200
G1 X189.670 Y70.436 E183.28126 F1800
G0 X187.784 Y70.436 F7200
G1 X141.295 Y116.924 E186.56128 F1800
G0 X141.385 Y114.948 F7200
G1 X185.899 Y70.436 E189.70192 F1800
G0 X184.013 Y70.436 F7200
G1 X141.343 Y113.105 E192.71246 F1800
G0 X141.302 Y111.261 F7200
G1 X182.127 Y70.436 E195.59292 F1800
G0 X180.242 Y70.436 F7200
G1 X141.391 Y109.286 E198.33402 F1800
G0 X141.349 Y107.442 F7200
G1 X178.356 Y70.436 E200.94502 F1800
G0 X176.471 Y70.436 F7200
G1 X141.308 Y105.598 E203.42594 F1800
G0 X141.266 Y103.754 F7200
G1 X174.585 Y70.436 E205.77676 F1800
G0 X172.699 Y70.436 F7200
G1 X141.356 Y101.779 E207.98822 F1800
G0 X141.314 Y99.935 F7200
G1 X170.814 Y70.436 E210.06960 F1800
G0 X168.928 Y70.436 F7200
G1 X141.272 Y98.092 E212.02088 F1800
G0 X140.571 Y96.906 F7200
G1 X167.042 Y70.436 E213.88854 F1800
G0 X165.157 Y70.436 F7200
G1 X138.686 Y96.906 E215.75620 F1800
G0 X136.800 Y96.906 F7200
G1 X164.852 Y68.855 E217.73536 F1800
G0 X164.941 Y66.880 F7200
G1 X134.915 Y96.906 E219.85388 F1800
G0 X133.029 Y96.906 F7200
G1 X164.900 Y65.036 E222.10250 F1800
G0 X164.900 Y63.151 F7200
G1 X131.054 Y96.996 E224.49050 F1800
G0 X129.210 Y96.954 F7200
G1 X164.900 Y61.265 E227.00860 F1800
G0 X164.900 Y59.379 F7200
G1 X127.366 Y96.912 E229.65676 F1800
G0 X125.391 Y97.002 F7200
G1 X164.900 Y57.494 E232.44430 F1800
G0 X164.900 Y55.608 F7200
G1 X123.547 Y96.960 E235.36194 F1800
G0 X121.703 Y96.918 F7200
G1 X164.900 Y53.722 E238.40966 F1800
G0 X192.825 Y72.938 F7200
G1 X141.331 Y124.430 E242.04276 F1800
G1 X140.936 Y124.825 E242.07064
G1 X103.403 Y162.358 E244.71880
G0 X105.288 Y162.358 F7200
G1 X192.998 Y74.650 E250.90716 F1800
G0 X192.908 Y76.625 F7200
G1 X107.174 Y162.358 E256.95612 F1800
G0 X109.059 Y162.358 F7200
G1 X192.950 Y78.469 E262.87500 F1800
G0 X192.992 Y80.313 F7200
G1 X110.945 Y162.358 E268.66382 F1800
G0 X112.831 Y162.358 F7200
G1 X192.902 Y82.288 E274.31324 F1800
G0 X192.944 Y84.132 F7200
G1 X114.716 Y162.358 E279.83258 F1800
G0 X116.602 Y162.358 F7200
G1 X192.986 Y85.976 E285.22184 F1800
G0 X192.896 Y87.951 F7200
G1 X118.488 Y162.358 E290.47172 F1800
G0 X120.373 Y162.358 F7200
G1 X192.938 Y89.795 E295.59150 F1800
G0 X192.980 Y91.639 F7200
G1 X122.259 Y162.358 E300.58120 F1800
G0 X124.144 Y162.358 F7200
G1 X192.890 Y93.614 E305.43154 F1800
G0 X192.932 Y95.458 F7200
G1 X128.927 Y159.461 E309.94738 F1800
G0 X130.813 Y159.461 F7200
G1 X192.974 Y97.301 E314.33312 F1800
G0 X193.016 Y99.145 F7200
G1 X131.908 Y160.251 E318.64454 F1800
G0 X132.872 Y161.173 F7200
G1 X192.926 Y101.121 E322.88160 F1800
G0 X192.968 Y102.964 F7200
G1 X166.497 Y129.435 E324.74924 F1800
G0 X168.382 Y129.435 F7200
G1 X193.009 Y104.808 E326.48682 F1800
G0 X192.920 Y106.783 F7200
G1 X170.268 Y129.435 E328.08502 F1800
G0 X172.153 Y129.435 F7200
G1 X192.962 Y108.627 E329.55314 F1800
G0 X193.003 Y110.471 F7200
G1 X174.039 Y129.435 E330.89114 F1800
G0 X175.925 Y129.435 F7200
G1 X192.914 Y112.446 E332.08978 F1800
G0 X192.955 Y114.290 F7200
G1 X177.810 Y129.435 E333.15836 F1800
G0 X179.696 Y129.435 F7200
G1 X192.997 Y116.134 E334.09684 F1800
G0 X192.907 Y118.109 F7200
G1 X181.582 Y129.435 E334.89594 F1800
G0 X183.467 Y129.435 F7200
G1 X192.949 Y119.953 E335.56496 F1800
G0 X192.991 Y121.797 F7200
G1 X185.353 Y129.435 E336.10388 F1800
G0 X187.238 Y129.435 F7200
G1 X192.901 Y123.772 E336.50340 F1800
G0 X192.943 Y125.616 F7200
G1 X189.124 Y129.435 E336.77288 F1800
G0 X164.916 Y131.015 F7200
G1 X133.836 Y162.095 E338.96576 F1800
G0 X135.458 Y162.358 F7200
G1 X164.958 Y132.859 E341.04712 F1800
G0 X164.868 Y134.834 F7200
G1 X137.344 Y162.358 E342.98912 F1800
G0 X139.229 Y162.358 F7200
G1 X164.910 Y136.678 E344.80104 F1800
G0 X164.952 Y138.522 F7200
G1 X141.115 Y162.358 E346.48284 F1800
G0 X143.001 Y162.358 F7200
G1 X164.862 Y140.497 E348.02528 F1800
G0 X164.904 Y142.341 F7200
G1 X144.886 Y162.358 E349.43764 F1800
G0 X146.772 Y162.358 F7200
G1 X164.946 Y144.185 E350.71992 F1800
G0 X164.856 Y146.160 F7200
G1 X148.657 Y162.358 E351.86280 F1800
G0 X150.543 Y162.358 F7200
G1 X164.898 Y148.004 E352.87560 F1800
G0 X164.940 Y149.847 F7200
G1 X152.429 Y162.358 E353.75832 F1800
G0 X154.314 Y162.358 F7200
G1 X164.850 Y151.823 E354.50168 F1800
G0 X164.892 Y153.667 F7200
G1 X156.200 Y162.358 E355.11492 F1800
G0 X158.086 Y162.358 F7200
G1 X164.934 Y155.510 E355.59812 F1800
G0 X164.844 Y157.486 F7200
G1 X159.971 Y162.358 E355.94192 F1800
G0 X161.857 Y162.358 F7200
G1 X164.886 Y159.329 E356.15564 F1800
G0 X130.395 Y69.370 F7200
G1 X70.210 Y129.555 E360.40200 F1800
G0 X69.025 Y128.854 F7200
G1 X128.551 Y69.328 E364.60188 F1800
G0 X126.708 Y69.286 F7200
G1 X68.103 Y127.891 E368.73676 F1800
G0 X67.049 Y127.058 F7200
G1 X124.732 Y69.376 E372.80656 F1800
G0 X122.888 Y69.334 F7200
G1 X66.786 Y125.436 E376.76488 F1800
G0 X66.786 Y123.551 F7200
G1 X121.045 Y69.293 E380.59312 F1800
G0 X119.201 Y69.251 F7200
G1 X66.786 Y121.665 E384.29124 F1800
G0 X66.786 Y119.779 F7200
G1 X117.489 Y69.077 E387.86864 F1800
G0 X117.489 Y67.191 F7200
G1 X66.786 Y117.894 E391.44600 F1800
G0 X66.786 Y116.008 F7200
G1 X117.489 Y65.306 E395.02336 F1800
G0 X117.489 Y63.420 F7200
G1 X66.786 Y114.123 E398.60072 F1800
G0 X66.786 Y112.237 F7200
G1 X117.489 Y61.535 E402.17808 F1800
G0 X117.489 Y59.649 F7200
G1 X66.786 Y110.351 E405.75544 F1800
G0 X66.786 Y108.466 F7200
G1 X117.489 Y57.763 E409.33280 F1800
G0 X91.545 Y70.508 F7200
G1 X66.786 Y95.266 E411.07964 F1800
G0 X66.786 Y93.381 F7200
G1 X89.701 Y70.466 E412.69644 F1800
G0 X87.725 Y70.556 F7200
G1 X66.786 Y91.495 E414.17384 F1800
G0 X66.786 Y89.610 F7200
G1 X85.882 Y70.514 E415.52116 F1800
G0 X84.038 Y70.472 F7200
G1 X66.786 Y87.724 E416.73836 F1800
G0 X66.786 Y85.838 F7200
G1 X82.063 Y70.562 E417.81624 F1800
G0 X80.219 Y70.520 F7200
G1 X66.786 Y83.953 E418.76396 F1800
G0 X66.786 Y82.067 F7200
G1 X78.375 Y70.478 E419.58168 F1800
G0 X76.531 Y70.436 F7200
G1 X66.786 Y80.182 E420.26924 F1800
G0 X66.786 Y78.296 F7200
G1 X74.556 Y70.526 E420.81748 F1800
G0 X72.712 Y70.484 F7200
G1 X66.786 Y76.410 E421.23560 F1800
G0 X66.786 Y74.525 F7200
G1 X70.868 Y70.442 E421.52364 F1800



; ------------------------------------
; Raft Layer #2
; ------------------------------------
G92 E0 ;reset extr
G0 F600 Z0.800
;segType:Raft
G0 X69.420 Y70.597 F7200
G1 X190.317 Y70.597 E4.02106 F2400
G1 X190.712 Y70.997 E4.03976
G1 X69.025 Y70.997 E8.08711
G1 X68.629 Y71.397 E8.10580
G1 X191.107 Y71.397 E12.17943
G1 X191.502 Y71.797 E12.19813
G1 X68.234 Y71.797 E16.29804
G1 X67.839 Y72.197 E16.31673
G1 X191.897 Y72.197 E20.44292
G1 X192.292 Y72.597 E20.46162
G1 X67.444 Y72.597 E24.61409
G1 X67.049 Y72.997 E24.63279
G1 X192.688 Y72.997 E28.81154
G1 X192.951 Y73.397 E28.82747
G1 X66.786 Y73.397 E33.02374
G1 X66.786 Y73.797 E33.03705
G1 X192.951 Y73.797 E37.23332
G1 X192.951 Y74.197 E37.24662
G1 X66.786 Y74.197 E41.44289
G1 X66.786 Y74.597 E41.45620
G1 X192.951 Y74.597 E45.65247
G1 X192.951 Y74.997 E45.66577
G1 X66.786 Y74.997 E49.86204
G1 X66.786 Y75.397 E49.87535
G1 X192.951 Y75.397 E54.07162
G1 X192.951 Y75.797 E54.08493
G1 X66.786 Y75.797 E58.28120
G1 X66.786 Y76.197 E58.29450
G1 X192.951 Y76.197 E62.49077
G1 X192.951 Y76.597 E62.50408
G1 X66.786 Y76.597 E66.70035
G1 X66.786 Y76.997 E66.71366
G1 X192.951 Y76.997 E70.90993
G1 X192.951 Y77.397 E70.92324
G1 X66.786 Y77.397 E75.11951
G1 X66.786 Y77.797 E75.13281
G1 X192.951 Y77.797 E79.32909
G1 X192.951 Y78.197 E79.34239
G1 X66.786 Y78.197 E83.53867
G1 X66.786 Y78.597 E83.55197
G1 X192.951 Y78.597 E87.74825
G1 X192.951 Y78.997 E87.76155
G1 X66.786 Y78.997 E91.95782
G1 X66.786 Y79.397 E91.97113
G1 X192.951 Y79.397 E96.16740
G1 X192.951 Y79.797 E96.18071
G1 X66.786 Y79.797 E100.37698
G1 X66.786 Y80.197 E100.39029
G1 X192.951 Y80.197 E104.58656
G1 X192.951 Y80.597 E104.59987
G1 X66.786 Y80.597 E108.79614
G1 X66.786 Y80.997 E108.80945
G1 X192.951 Y80.997 E113.00572
G1 X192.951 Y81.397 E113.01903
G1 X66.786 Y81.397 E117.21530
G1 X66.786 Y81.797 E117.22861
G1 X192.951 Y81.797 E121.42488
G1 X192.951 Y82.197 E121.43819
G1 X66.786 Y82.197 E125.63446
G1 X66.786 Y82.597 E125.64777
G1 X192.951 Y82.597 E129.84404
G1 X192.951 Y82.997 E129.85735
G1 X66.786 Y82.997 E134.05362
G1 X66.786 Y83.397 E134.06693
G1 X192.951 Y83.397 E138.26320
G1 X192.951 Y83.797 E138.27650
G1 X66.786 Y83.797 E142.47278
G1 X66.786 Y84.197 E142.48608
G1 X192.951 Y84.197 E146.68236
G1 X192.951 Y84.597 E146.69566
G1 X66.786 Y84.597 E150.89194
G1 X66.786 Y84.997 E150.90524
G1 X192.951 Y84.997 E155.10152
G1 X192.951 Y85.397 E155.11482
G1 X66.786 Y85.397 E159.31110
G1 X66.786 Y85.797 E159.32440
G1 X192.951 Y85.797 E163.52068
G1 X192.951 Y86.197 E163.53398
G1 X66.786 Y86.197 E167.73026
G1 X66.786 Y86.597 E167.74356
G1 X192.951 Y86.597 E171.93984
G1 X192.951 Y86.997 E171.95314
G1 X66.786 Y86.997 E176.14942
G1 X66.786 Y87.397 E176.16272
G1 X192.951 Y87.397 E180.35900
G1 X192.951 Y87.797 E180.37230
G1 X66.786 Y87.797 E184.56858
G1 X66.786 Y88.197 E184.58188
G1 X192.951 Y88.197 E188.77816
G1 X192.951 Y88.597 E188.79146
G1 X66.786 Y88.597 E192.98774
G1 X66.786 Y88.997 E193.00104
G1 X192.951 Y88.997 E197.19732
G1 X192.951 Y89.397 E197.21062
G1 X66.786 Y89.397 E201.40690
G1 X66.786 Y89.797 E201.42020
G1 X192.951 Y89.797 E205.61648
G1 X192.951 Y90.197 E205.62978
G1 X66.786 Y90.197 E209.82604
G1 X66.786 Y90.597 E209.83936
G1 X192.951 Y90.597 E214.03562
G1 X192.951 Y90.997 E214.04894
G1 X66.786 Y90.997 E218.24520
G1 X66.786 Y91.397 E218.25852
G1 X192.951 Y91.397 E222.45478
G1 X192.951 Y91.797 E222.46810
G1 X66.786 Y91.797 E226.66436
G1 X66.786 Y92.197 E226.67768
G1 X192.951 Y92.197 E230.87394
G1 X192.951 Y92.597 E230.88726
G1 X66.786 Y92.597 E235.08352
G1 X66.786 Y92.997 E235.09684
G1 X192.951 Y92.997 E239.29310
G1 X192.951 Y93.397 E239.30642
G1 X66.786 Y93.397 E243.50268
G1 X66.786 Y93.797 E243.51600
G1 X192.951 Y93.797 E247.71226
G1 X192.951 Y94.197 E247.72558
G1 X66.786 Y94.197 E251.92184
G1 X66.786 Y94.597 E251.93516
G1 X192.951 Y94.597 E256.13140
G1 X192.951 Y94.997 E256.14472
G1 X66.786 Y94.997 E260.34098
G1 X66.786 Y95.397 E260.35428
G1 X192.951 Y95.397 E264.55054
G1 X192.951 Y95.797 E264.56384
G1 X66.786 Y95.797 E268.76010
G1 X66.786 Y96.197 E268.77340
G1 X192.951 Y96.197 E272.96966
G1 X192.951 Y96.597 E272.98298
G1 X66.786 Y96.597 E277.17922
G1 X66.786 Y96.997 E277.19254
G1 X192.951 Y96.997 E281.38880
G1 X192.951 Y97.397 E281.40210
G1 X141.326 Y97.397 E283.11914
G1 X141.326 Y97.797 E283.13244
G1 X192.951 Y97.797 E284.84948
G1 X192.951 Y98.197 E284.86280
G1 X141.326 Y98.197 E286.57984
G1 X141.326 Y98.597 E286.59314
G1 X192.951 Y98.597 E288.31018
G1 X192.951 Y98.997 E288.32348
G1 X141.326 Y98.997 E290.04052
G1 X141.326 Y99.397 E290.05384
G1 X192.951 Y99.397 E291.77088
G1 X192.951 Y99.797 E291.78418
G1 X141.326 Y99.797 E293.50122
G1 X141.326 Y100.197 E293.51452
G1 X192.951 Y100.197 E295.23156
G1 X192.951 Y100.597 E295.24488
G1 X141.326 Y100.597 E296.96192
G1 X141.326 Y100.997 E296.97522
G1 X192.951 Y100.997 E298.69226
G1 X192.951 Y101.397 E298.70556
G1 X141.326 Y101.397 E300.42260
G1 X141.326 Y101.797 E300.43592
G1 X192.951 Y101.797 E302.15296
G1 X192.951 Y102.197 E302.16626
G1 X141.326 Y102.197 E303.88330
G1 X141.326 Y102.597 E303.89660
G1 X192.951 Y102.597 E305.61364
G1 X192.951 Y102.997 E305.62696
G1 X141.326 Y102.997 E307.34400
G1 X141.326 Y103.397 E307.35730
G1 X192.951 Y103.397 E309.07434
G1 X192.951 Y103.797 E309.08764
G1 X141.326 Y103.797 E310.80468
G1 X141.326 Y104.197 E310.81800
G1 X192.951 Y104.197 E312.53504
G1 X192.951 Y104.597 E312.54834
G1 X141.326 Y104.597 E314.26538
G1 X141.326 Y104.997 E314.27868
G1 X192.951 Y104.997 E315.99572
G1 X192.951 Y105.397 E316.00904
G1 X141.326 Y105.397 E317.72608
G1 X141.326 Y105.797 E317.73938
G1 X192.951 Y105.797 E319.45642
G1 X192.951 Y106.197 E319.46972
G1 X141.326 Y106.197 E321.18676
G1 X141.326 Y106.597 E321.20008
G1 X192.951 Y106.597 E322.91712
G1 X192.951 Y106.997 E322.93042
G1 X141.326 Y106.997 E324.64746
G1 X141.326 Y107.397 E324.66076
G1 X192.951 Y107.397 E326.37780
G1 X192.951 Y107.797 E326.39112
G1 X141.326 Y107.797 E328.10816
G1 X141.326 Y108.197 E328.12146
G1 X192.951 Y108.197 E329.83850
G1 X192.951 Y108.597 E329.85180
G1 X141.326 Y108.597 E331.56884
G1 X141.326 Y108.997 E331.58216
G1 X192.951 Y108.997 E333.29920
G1 X192.951 Y109.397 E333.31250
G1 X141.326 Y109.397 E335.02954
G1 X141.326 Y109.797 E335.04284
G1 X192.951 Y109.797 E336.75988
G1 X192.951 Y110.197 E336.77320
G1 X141.326 Y110.197 E338.49024
G1 X141.326 Y110.597 E338.50356
G1 X192.951 Y110.597 E340.22060
G1 X192.951 Y110.997 E340.23388
G1 X141.326 Y110.997 E341.95092
G1 X141.326 Y111.397 E341.96424
G1 X192.951 Y111.397 E343.68128
G1 X192.951 Y111.797 E343.69460
G1 X141.326 Y111.797 E345.41164
G1 X141.326 Y112.197 E345.42492
G1 X192.951 Y112.197 E347.14196
G1 X192.951 Y112.597 E347.15528
G1 X141.326 Y112.597 E348.87232
G1 X141.326 Y112.997 E348.88564
G1 X192.951 Y112.997 E350.60268
G1 X192.951 Y113.397 E350.61596
G1 X141.326 Y113.397 E352.33300
G1 X141.326 Y113.797 E352.34632
G1 X192.951 Y113.797 E354.06336
G1 X192.951 Y114.197 E354.07668
G1 X141.326 Y114.197 E355.79372
G1 X141.326 Y114.597 E355.80700
G1 X192.951 Y114.597 E357.52404
G1 X192.951 Y114.997 E357.53736
G1 X141.326 Y114.997 E359.25440
G1 X141.326 Y115.397 E359.26772
G1 X192.951 Y115.397 E360.98476
G1 X192.951 Y115.797 E360.99804
G1 X141.326 Y115.797 E362.71508
G1 X141.326 Y116.197 E362.72840
G1 X192.951 Y116.197 E364.44544
G1 X192.951 Y116.597 E364.45876
G1 X141.326 Y116.597 E366.17580
G1 X141.326 Y116.997 E366.18908
G1 X192.951 Y116.997 E367.90612
G1 X192.951 Y117.397 E367.91944
G1 X141.326 Y117.397 E369.63648
G1 X141.326 Y117.797 E369.64980
G1 X192.951 Y117.797 E371.36684
G1 X192.951 Y118.197 E371.38012
G1 X141.326 Y118.197 E373.09716
G1 X141.326 Y118.597 E373.11048
G1 X192.951 Y118.597 E374.82752
G1 X192.951 Y118.997 E374.84084
G1 X141.326 Y118.997 E376.55788
G1 X141.326 Y119.397 E376.57116
G1 X192.951 Y119.397 E378.28820
G1 X192.951 Y119.797 E378.30152
G1 X141.326 Y119.797 E380.01856
G1 X141.326 Y120.197 E380.03188
G1 X192.951 Y120.197 E381.74892
G1 X192.951 Y120.597 E381.76220
G1 X141.326 Y120.597 E383.47924
G1 X141.326 Y120.998 E383.49256
G1 X192.951 Y120.998 E385.20960
G1 X192.951 Y121.397 E385.22292
G1 X141.326 Y121.397 E386.93996
G1 X141.326 Y121.797 E386.95324
G1 X192.951 Y121.797 E388.67028
G1 X192.951 Y122.197 E388.68360
G1 X141.326 Y122.197 E390.40064
G1 X141.326 Y122.597 E390.41396
G1 X192.951 Y122.597 E392.13100
G1 X192.951 Y122.998 E392.14428
G1 X141.326 Y122.998 E393.86132
G1 X141.326 Y123.397 E393.87464
G1 X192.951 Y123.397 E395.59168
G1 X192.951 Y123.798 E395.60500
G1 X141.326 Y123.798 E397.32204
G1 X141.326 Y124.197 E397.33532
G1 X192.951 Y124.197 E399.05236
G1 X192.951 Y124.598 E399.06568
G1 X141.326 Y124.598 E400.78272
G0 X164.900 Y129.798 F7200
G1 X94.837 Y129.798 E403.11300 F2400
G1 X94.837 Y130.198 E403.12632
G1 X164.900 Y130.198 E405.45660
G1 X164.900 Y130.598 E405.46992
G1 X94.837 Y130.598 E407.80020
G1 X94.837 Y130.998 E407.81352
G1 X164.900 Y130.998 E410.14380
G1 X164.900 Y131.398 E410.15712
G1 X94.837 Y131.398 E412.48740
G1 X94.837 Y131.798 E412.50072
G1 X164.900 Y131.798 E414.83100
G1 X164.900 Y132.198 E414.84428
G1 X94.837 Y132.198 E417.17460
G1 X94.837 Y132.598 E417.18788
G1 X164.900 Y132.598 E419.51820
G1 X164.900 Y132.998 E419.53148
G1 X94.837 Y132.998 E421.86180
G1 X94.837 Y133.398 E421.87508
G1 X164.900 Y133.398 E424.20540
G1 X164.900 Y133.798 E424.21868
G1 X94.837 Y133.798 E426.54900
G1 X94.837 Y134.198 E426.56228
G1 X164.900 Y134.198 E428.89256
G1 X164.900 Y134.598 E428.90588
G1 X94.837 Y134.598 E431.23616
G1 X94.837 Y134.998 E431.24948
G1 X164.900 Y134.998 E433.57976
G1 X164.900 Y135.398 E433.59308
G1 X94.837 Y135.398 E435.92336
G1 X94.837 Y135.798 E435.93668
G1 X164.900 Y135.798 E438.26696
G1 X164.900 Y136.198 E438.28028
G1 X94.837 Y136.198 E440.61056
G1 X94.837 Y136.598 E440.62388
G1 X164.900 Y136.598 E442.95416
G1 X164.900 Y136.998 E442.96748
G1 X94.837 Y136.998 E445.29776
G1 X94.837 Y137.398 E445.31108
G1 X164.900 Y137.398 E447.64136
G1 X164.900 Y137.798 E447.65468
G1 X94.837 Y137.798 E449.98496
G1 X94.837 Y138.198 E449.99828
G1 X164.900 Y138.198 E452.32856
G1 X164.900 Y138.598 E452.34184
G1 X94.837 Y138.598 E454.67216
G1 X94.837 Y138.998 E454.68544
G1 X164.900 Y138.998 E457.01576
G1 X164.900 Y139.398 E457.02904
G1 X94.837 Y139.398 E459.35936
G1 X94.837 Y139.798 E459.37264
G1 X164.900 Y139.798 E461.70296
G1 X164.900 Y140.198 E461.71624
G1 X94.837 Y140.198 E464.04652
G1 X94.837 Y140.598 E464.05984
G1 X164.900 Y140.598 E466.39012
G1 X164.900 Y140.998 E466.40344
G1 X94.837 Y140.998 E468.73372
G1 X94.837 Y141.398 E468.74704
G1 X164.900 Y141.398 E471.07732
G1 X164.900 Y141.798 E471.09064
G1 X94.837 Y141.798 E473.42092
G1 X94.837 Y142.198 E473.43424
G1 X164.900 Y142.198 E475.76452
G1 X164.900 Y142.598 E475.77784
G1 X94.837 Y142.598 E478.10812
G1 X94.837 Y142.998 E478.12144
G1 X164.900 Y142.998 E480.45172
G1 X164.900 Y143.398 E480.46504
G1 X94.969 Y143.398 E482.79092
G1 X95.364 Y143.798 E482.80964
G1 X164.900 Y143.798 E485.12240
G1 X164.900 Y144.198 E485.13572
G1 X95.627 Y144.198 E487.43972
G1 X95.627 Y144.598 E487.45304
G1 X164.900 Y144.598 E489.75704
G1 X164.900 Y144.998 E489.77036
G1 X95.627 Y144.998 E492.07436
G1 X95.627 Y145.398 E492.08768
G1 X164.900 Y145.398 E494.39168
G1 X164.900 Y145.798 E494.40500
G1 X95.627 Y145.798 E496.70900
G1 X95.627 Y146.198 E496.72232
G1 X164.900 Y146.198 E499.02632
G1 X164.900 Y146.598 E499.03964
G1 X95.627 Y146.598 E501.34364
G1 X95.627 Y146.998 E501.35696
G1 X164.900 Y146.998 E503.66100
G1 X164.900 Y147.398 E503.67428
G1 X95.232 Y147.398 E505.99144
G1 X94.837 Y147.798 E506.01012
G1 X164.900 Y147.798 E508.34044
G1 X164.900 Y148.198 E508.35372
G1 X94.837 Y148.198 E510.68404
G1 X94.837 Y148.598 E510.69732
G1 X164.900 Y148.598 E513.02760
G1 X164.900 Y148.998 E513.04088
G1 X94.837 Y148.998 E515.37116
G1 X94.837 Y149.398 E515.38448
G1 X164.900 Y149.398 E517.71472
G1 X164.900 Y149.798 E517.72804
G1 X94.837 Y149.798 E520.05828
G1 X94.837 Y150.198 E520.07160
G1 X164.900 Y150.198 E522.40184
G1 X164.900 Y150.598 E522.41516
G1 X94.837 Y150.598 E524.74544
G1 X94.837 Y150.998 E524.75872
G1 X164.900 Y150.998 E527.08900
G1 X164.900 Y151.398 E527.10228
G1 X94.837 Y151.398 E529.43256
G1 X94.837 Y151.798 E529.44588
G1 X164.900 Y151.798 E531.77612
G1 X164.900 Y152.198 E531.78944
G1 X94.837 Y152.198 E534.11968
G1 X94.837 Y152.598 E534.13300
G1 X164.900 Y152.598 E536.46324
G1 X164.900 Y152.998 E536.47656
G1 X94.837 Y152.998 E538.80684
G1 X94.837 Y153.398 E538.82012
G1 X164.900 Y153.398 E541.15040
G1 X164.900 Y153.798 E541.16368
G1 X94.837 Y153.798 E543.49396
G1 X94.837 Y154.198 E543.50728
G1 X164.900 Y154.198 E545.83752
G1 X164.900 Y154.598 E545.85084
G1 X94.837 Y154.598 E548.18108
G1 X94.837 Y154.998 E548.19440
G1 X164.900 Y154.998 E550.52464
G1 X164.900 Y155.398 E550.53796
G1 X94.837 Y155.398 E552.86824
G1 X94.837 Y155.798 E552.88152
G1 X164.900 Y155.798 E555.21180
G1 X164.900 Y156.198 E555.22508
G1 X94.837 Y156.198 E557.55536
G1 X94.837 Y156.598 E557.56868
G1 X164.900 Y156.598 E559.89892
G1 X164.900 Y156.998 E559.91224
G1 X94.837 Y156.998 E562.24248
G1 X94.837 Y157.398 E562.25580
G1 X164.900 Y157.398 E564.58604
G1 X164.900 Y157.798 E564.59936
G1 X94.837 Y157.798 E566.92964
G1 X94.837 Y158.198 E566.94292
G1 X164.900 Y158.198 E569.27320
G1 X164.900 Y158.598 E569.28648
G1 X94.837 Y158.598 E571.61676
G1 X94.837 Y158.998 E571.63008
G1 X164.900 Y158.998 E573.96032
G1 X164.900 Y159.398 E573.97364
G1 X94.837 Y159.398 E576.30388
G0 X97.208 Y162.198 F7200
G1 X124.996 Y162.198 E577.22816 F2400
G1 X125.391 Y161.798 E577.24684
G1 X96.813 Y161.798 E578.19732
G1 X96.417 Y161.398 E578.21600
G1 X125.786 Y161.398 E579.19280
G1 X126.181 Y160.998 E579.21148
G1 X96.022 Y160.998 E580.21452
G1 X95.627 Y160.598 E580.23320
G1 X126.576 Y160.598 E581.26256
G1 X126.971 Y160.198 E581.28124
G1 X95.232 Y160.198 E582.33692
G1 X94.837 Y159.798 E582.35560
G1 X127.366 Y159.798 E583.43752
G0 X131.317 Y159.798 F7200
G1 X164.900 Y159.798 E584.55444 F2400
G1 X164.504 Y160.198 E584.57312
G1 X131.712 Y160.198 E585.66380
G1 X132.107 Y160.598 E585.68248
G1 X164.109 Y160.598 E586.74688
G1 X163.714 Y160.998 E586.76556
G1 X132.502 Y160.998 E587.80372
G1 X132.897 Y161.398 E587.82240
G1 X163.319 Y161.398 E588.83424
G1 X162.924 Y161.798 E588.85292
G1 X133.292 Y161.798 E589.83844
G1 X133.688 Y162.198 E589.85712
G1 X162.529 Y162.198 E590.81640
G0 X119.333 Y97.397 F7200
G1 X66.786 Y97.397 E592.56416 F2400
G1 X66.786 Y97.797 E592.57744
G1 X119.333 Y97.797 E594.32520
G1 X119.333 Y98.197 E594.33852
G1 X66.786 Y98.197 E596.08624
G1 X66.786 Y98.597 E596.09956
G1 X119.333 Y98.597 E597.84728
G1 X119.333 Y98.997 E597.86060
G1 X66.786 Y98.997 E599.60832
G1 X66.786 Y99.397 E599.62164
G1 X119.333 Y99.397 E601.36940
G1 X119.333 Y99.797 E601.38268
G1 X66.786 Y99.797 E603.13044
G1 X66.786 Y100.197 E603.14372
G1 X119.333 Y100.197 E604.89148
G1 X119.333 Y100.597 E604.90480
G1 X66.786 Y100.597 E606.65252
G1 X66.786 Y100.997 E606.66584
G1 X119.333 Y100.997 E608.41356
G1 X119.333 Y101.397 E608.42688
G1 X66.786 Y101.397 E610.17464
G1 X66.786 Y101.797 E610.18792
G1 X119.333 Y101.797 E611.93568
G1 X119.333 Y102.197 E611.94896
G1 X66.786 Y102.197 E613.69672
G1 X66.786 Y102.597 E613.71004
G1 X119.333 Y102.597 E615.45776
G1 X119.333 Y102.997 E615.47108
G1 X66.786 Y102.997 E617.21880
G1 X66.786 Y103.397 E617.23212
G1 X119.333 Y103.397 E618.97984
G1 X119.333 Y103.797 E618.99316
G1 X66.786 Y103.797 E620.74092
G1 X66.786 Y104.197 E620.75420
G1 X119.333 Y104.197 E622.50196
G1 X119.333 Y104.597 E622.51524
G1 X66.786 Y104.597 E624.26300
G1 X66.786 Y104.997 E624.27632
G1 X119.333 Y104.997 E626.02404
G1 X119.333 Y105.397 E626.03736
G1 X66.786 Y105.397 E627.78508
G1 X66.786 Y105.797 E627.79840
G1 X119.333 Y105.797 E629.54616
G1 X119.333 Y106.197 E629.55944
G1 X66.786 Y106.197 E631.30720
G1 X66.786 Y106.597 E631.32048
G1 X119.333 Y106.597 E633.06824
G1 X119.333 Y106.997 E633.08156
G1 X66.786 Y106.997 E634.82928
G1 X66.786 Y107.397 E634.84260
G1 X119.333 Y107.397 E636.59032
G1 X119.333 Y107.797 E636.60364
G1 X66.786 Y107.797 E638.35136
G1 X66.786 Y108.197 E638.36468
G1 X119.333 Y108.197 E640.11244
G1 X119.333 Y108.597 E640.12572
G1 X66.786 Y108.597 E641.87348
G1 X66.786 Y108.997 E641.88676
G1 X119.333 Y108.997 E643.63452
G1 X119.333 Y109.397 E643.64784
G1 X66.786 Y109.397 E645.39556
G1 X66.786 Y109.797 E645.40888
G1 X119.333 Y109.797 E647.15660
G1 X119.333 Y110.197 E647.16992
G1 X66.786 Y110.197 E648.91768
G1 X66.786 Y110.597 E648.93096
G1 X119.333 Y110.597 E650.67872
G1 X119.333 Y110.997 E650.69200
G1 X66.786 Y110.997 E652.43976
G1 X66.786 Y111.397 E652.45308
G1 X119.333 Y111.397 E654.20080
G1 X119.333 Y111.797 E654.21412
G1 X66.786 Y111.797 E655.96184
G1 X66.786 Y112.197 E655.97516
G1 X119.333 Y112.197 E657.72292
G1 X119.333 Y112.597 E657.73620
G1 X66.786 Y112.597 E659.48396
G1 X66.786 Y112.997 E659.49724
G1 X119.333 Y112.997 E661.24500
G1 X119.333 Y113.397 E661.25832
G1 X66.786 Y113.397 E663.00604
G1 X66.786 Y113.797 E663.01936
G1 X119.333 Y113.797 E664.76708
G1 X119.333 Y114.197 E664.78040
G1 X66.786 Y114.197 E666.52812
G1 X66.786 Y114.597 E666.54144
G1 X119.333 Y114.597 E668.28920
G1 X119.333 Y114.997 E668.30248
G1 X66.786 Y114.997 E670.05024
G1 X66.786 Y115.397 E670.06352
G1 X119.333 Y115.397 E671.81128
G1 X119.333 Y115.797 E671.82456
G1 X66.786 Y115.797 E673.57232
G1 X66.786 Y116.197 E673.58560
G1 X119.333 Y116.197 E675.33336
G1 X119.333 Y116.597 E675.34664
G1 X66.786 Y116.597 E677.09440
G1 X66.786 Y116.997 E677.10776
G1 X119.333 Y116.997 E678.85544
G1 X119.333 Y117.397 E678.86880
G1 X66.786 Y117.397 E680.61648
G1 X66.786 Y117.797 E680.62984
G1 X119.333 Y117.797 E682.37760
G1 X119.333 Y118.197 E682.39088
G1 X66.786 Y118.197 E684.13864
G1 X66.786 Y118.597 E684.15192
G1 X119.333 Y118.597 E685.89968
G1 X119.333 Y118.997 E685.91296
G1 X66.786 Y118.997 E687.66072
G1 X66.786 Y119.397 E687.67400
G1 X119.333 Y119.397 E689.42176
G1 X119.333 Y119.797 E689.43504
G1 X66.786 Y119.797 E691.18280
G1 X66.786 Y120.197 E691.19608
G1 X119.333 Y120.197 E692.94384
G1 X119.333 Y120.597 E692.95712
G1 X66.786 Y120.597 E694.70488
G1 X66.786 Y120.998 E694.71824
G1 X119.333 Y120.998 E696.46592
G1 X119.333 Y121.397 E696.47928
G1 X66.786 Y121.397 E698.22696
G1 X66.786 Y121.797 E698.24032
G1 X119.333 Y121.797 E699.98800
G1 X119.333 Y122.197 E700.00136
G1 X66.786 Y122.197 E701.74912
G1 X66.786 Y122.597 E701.76240
G1 X119.333 Y122.597 E703.51016
G1 X119.333 Y122.998 E703.52344
G1 X66.786 Y122.998 E705.27120
G1 X66.786 Y123.397 E705.28448
G1 X119.333 Y123.397 E707.03224
G1 X119.333 Y123.798 E707.04552
G1 X66.786 Y123.798 E708.79328
G1 X66.786 Y124.197 E708.80656
G1 X119.333 Y124.197 E710.55432
G1 X119.333 Y124.598 E710.56760
G1 X66.786 Y124.598 E712.31536
G1 X66.786 Y124.998 E712.32864
G1 X192.951 Y124.998 E716.52496
G1 X192.951 Y125.398 E716.53824
G1 X66.786 Y125.398 E720.73456
G1 X66.786 Y125.798 E720.74784
G1 X192.951 Y125.798 E724.94416
G1 X192.951 Y126.198 E724.95744
G1 X66.786 Y126.198 E729.15376
G1 X66.786 Y126.598 E729.16704
G1 X192.951 Y126.598 E733.36336
G1 X192.688 Y126.998 E733.37928
G1 X67.049 Y126.998 E737.55808
G1 X67.444 Y127.398 E737.57672
G1 X192.292 Y127.398 E741.72920
G1 X191.897 Y127.798 E741.74784
G1 X67.839 Y127.798 E745.87400
G1 X68.234 Y128.198 E745.89272
G1 X191.502 Y128.198 E749.99264
G1 X191.107 Y128.598 E750.01128
G1 X68.629 Y128.598 E754.08488
G1 X69.025 Y128.998 E754.10360
G1 X190.712 Y128.998 E758.15096
G1 X190.317 Y129.398 E758.16960
G1 X69.420 Y129.398 E762.19064
G0 X92.862 Y54.997 F7200
G1 X164.900 Y54.997 E764.58664 F2400
G1 X164.900 Y54.597 E764.60000
G1 X92.862 Y54.597 E766.99600
G1 X92.862 Y54.197 E767.00928
G1 X164.900 Y54.197 E769.40528
G1 X164.900 Y53.797 E769.41856
G1 X92.862 Y53.797 E771.81456
G1 X92.862 Y53.397 E771.82792
G1 X164.900 Y53.397 E774.22384
G1 X164.900 Y52.997 E774.23720
G1 X92.862 Y52.997 E776.63320
G1 X92.862 Y52.597 E776.64648
G1 X164.900 Y52.597 E779.04248
G1 X164.900 Y52.197 E779.05576
G1 X92.862 Y52.197 E781.45176
G1 X92.862 Y51.797 E781.46512
G1 X164.900 Y51.797 E783.86112
G1 X164.900 Y51.397 E783.87440
G1 X92.862 Y51.397 E786.27040
G1 X92.862 Y50.997 E786.28368
G1 X164.900 Y50.997 E788.67968
G1 X164.900 Y50.597 E788.69296
G1 X92.862 Y50.597 E791.08896
G1 X92.862 Y50.197 E791.10232
G1 X164.900 Y50.197 E793.49832
G1 X164.900 Y49.797 E793.51160
G1 X92.862 Y49.797 E795.90760
G1 X92.862 Y49.397 E795.92088
G1 X164.900 Y49.397 E798.31688
G1 X164.900 Y48.997 E798.33024
G1 X92.862 Y48.997 E800.72616
G1 X92.862 Y48.597 E800.73952
G1 X164.900 Y48.597 E803.13552
G1 X164.900 Y48.197 E803.14880
G1 X92.862 Y48.197 E805.54480
G1 X92.862 Y47.797 E805.55808
G1 X164.900 Y47.797 E807.95408
G1 X164.900 Y47.397 E807.96744
G1 X92.862 Y47.397 E810.36344
G1 X92.862 Y46.997 E810.37672
G1 X164.900 Y46.997 E812.77272
G1 X164.900 Y46.597 E812.78600
G1 X92.862 Y46.597 E815.18200
G1 X92.862 Y46.197 E815.19528
G1 X164.900 Y46.197 E817.59128
G1 X164.900 Y45.797 E817.60464
G1 X92.862 Y45.797 E820.00064
G1 X92.862 Y45.397 E820.01392
G1 X164.900 Y45.397 E822.40992
G1 X164.900 Y44.997 E822.42320
G1 X92.862 Y44.997 E824.81920
G1 X92.862 Y44.597 E824.83248
G1 X164.900 Y44.597 E827.22848
G1 X164.900 Y44.197 E827.24184
G1 X92.862 Y44.197 E829.63784
G1 X92.862 Y43.797 E829.65112
G1 X164.900 Y43.797 E832.04712
G1 X164.900 Y43.397 E832.06040
G1 X92.862 Y43.397 E834.45640
G1 X92.862 Y42.997 E834.46976
G1 X164.900 Y42.997 E836.86576
G1 X164.900 Y42.597 E836.87904
G1 X92.862 Y42.597 E839.27504
G1 X92.862 Y42.197 E839.28832
G1 X164.900 Y42.197 E841.68432
G1 X164.900 Y41.797 E841.69760
G1 X92.862 Y41.797 E844.09360
G1 X92.862 Y41.397 E844.10696
G1 X164.900 Y41.397 E846.50296
G1 X164.900 Y40.997 E846.51624
G1 X92.862 Y40.997 E848.91224
G1 X92.862 Y40.597 E848.92552
G1 X164.900 Y40.597 E851.32152
G1 X164.900 Y40.197 E851.33480
G1 X92.862 Y40.197 E853.73080
G1 X93.257 Y39.797 E853.74952
G1 X164.504 Y39.797 E856.11920
G1 X164.109 Y39.397 E856.13784
G1 X93.652 Y39.397 E858.48136
G1 X94.047 Y38.997 E858.50000
G1 X163.714 Y38.997 E860.81712
G1 X163.319 Y38.597 E860.83584
G1 X94.442 Y38.597 E863.12672
G1 X94.837 Y38.197 E863.14536
G1 X162.924 Y38.197 E865.41000
G1 X162.529 Y37.797 E865.42864
G1 X95.232 Y37.797 E867.66696
G0 X117.489 Y55.397 F7200
G1 X92.862 Y55.397 E868.48600 F2400
G1 X92.862 Y55.797 E868.49936
G1 X117.489 Y55.797 E869.31840
G1 X117.489 Y56.197 E869.33176
G1 X92.862 Y56.197 E870.15080
G1 X92.862 Y56.597 E870.16416
G1 X117.489 Y56.597 E870.98320
G1 X117.489 Y56.997 E870.99656
G1 X92.862 Y56.997 E871.81560
G1 X92.862 Y57.397 E871.82888
G1 X117.489 Y57.397 E872.64800
G1 X117.489 Y57.797 E872.66128
G1 X92.862 Y57.797 E873.48040
G1 X92.862 Y58.197 E873.49368
G1 X117.489 Y58.197 E874.31280
G1 X117.489 Y58.597 E874.32608
G1 X92.862 Y58.597 E875.14520
G1 X92.862 Y58.997 E875.15848
G1 X117.489 Y58.997 E875.97760
G1 X117.489 Y59.397 E875.99088
G1 X92.862 Y59.397 E876.81000
G1 X92.862 Y59.797 E876.82328
G1 X117.489 Y59.797 E877.64240
G1 X117.489 Y60.197 E877.65568
G1 X92.862 Y60.197 E878.47480
G1 X92.862 Y60.597 E878.48808
G1 X117.489 Y60.597 E879.30720
G1 X117.489 Y60.997 E879.32048
G1 X92.862 Y60.997 E880.13960
G1 X92.862 Y61.397 E880.15288
G1 X117.489 Y61.397 E880.97200
G1 X117.489 Y61.797 E880.98528
G1 X92.862 Y61.797 E881.80440
G1 X92.862 Y62.197 E881.81768
G1 X117.489 Y62.197 E882.63680
G1 X117.489 Y62.597 E882.65008
G1 X92.862 Y62.597 E883.46920
G1 X92.862 Y62.997 E883.48248
G1 X117.489 Y62.997 E884.30160
G1 X117.489 Y63.397 E884.31488
G1 X92.862 Y63.397 E885.13400
G1 X92.862 Y63.797 E885.14728
G1 X117.489 Y63.797 E885.96640
G1 X117.489 Y64.197 E885.97968
G1 X92.862 Y64.197 E886.79880
G1 X92.862 Y64.597 E886.81208
G1 X117.489 Y64.597 E887.63120
G1 X117.489 Y64.997 E887.64448
G1 X92.862 Y64.997 E888.46360
G1 X92.862 Y65.397 E888.47688
G1 X117.489 Y65.397 E889.29592
G1 X117.489 Y65.797 E889.30928
G1 X92.862 Y65.797 E890.12832
G1 X92.862 Y66.197 E890.14168
G1 X117.489 Y66.197 E890.96072
G1 X117.489 Y66.597 E890.97408
G1 X92.862 Y66.597 E891.79312
G1 X92.862 Y66.997 E891.80648
G1 X117.489 Y66.997 E892.62552
G1 X117.489 Y67.397 E892.63888
G1 X92.862 Y67.397 E893.45792
G1 X92.862 Y67.797 E893.47128
G1 X117.489 Y67.797 E894.29032
G1 X117.489 Y68.197 E894.30368
G1 X92.862 Y68.197 E895.12272
G1 X92.862 Y68.597 E895.13608
G1 X117.489 Y68.597 E895.95512
G1 X117.489 Y68.997 E895.96848
G1 X92.862 Y68.997 E896.78752
G1 X92.862 Y70.197 E896.82744
G1 X164.900 Y70.197 E899.22344
G1 X164.900 Y69.797 E899.23672
G1 X92.862 Y69.797 E901.63272
G1 X92.862 Y69.397 E901.64608
G1 X164.900 Y69.397 E904.04208
G1 X164.900 Y68.997 E904.05536
G1 X131.580 Y68.997 E905.16360
G1 X131.580 Y68.597 E905.17688
G1 X164.900 Y68.597 E906.28512
G1 X164.900 Y68.197 E906.29840
G1 X131.580 Y68.197 E907.40664
G1 X131.580 Y67.797 E907.41992
G1 X164.900 Y67.797 E908.52816
G1 X164.900 Y67.397 E908.54144
G1 X131.580 Y67.397 E909.64968
G1 X131.580 Y66.997 E909.66296
G1 X164.900 Y66.997 E910.77120
G1 X164.900 Y66.597 E910.78448
G1 X131.580 Y66.597 E911.89272
G1 X131.580 Y66.197 E911.90600
G1 X164.900 Y66.197 E913.01424
G1 X164.900 Y65.797 E913.02752
G1 X131.580 Y65.797 E914.13576
G1 X131.580 Y65.397 E914.14904
G1 X164.900 Y65.397 E915.25728
G1 X164.900 Y64.997 E915.27056
G1 X131.580 Y64.997 E916.37880
G1 X131.580 Y64.597 E916.39208
G1 X164.900 Y64.597 E917.50032
G1 X164.900 Y64.197 E917.51360
G1 X131.580 Y64.197 E918.62184
G1 X131.580 Y63.797 E918.63512
G1 X164.900 Y63.797 E919.74336
G1 X164.900 Y63.397 E919.75664
G1 X131.580 Y63.397 E920.86488
G1 X131.580 Y62.997 E920.87816
G1 X164.900 Y62.997 E921.98640
G1 X164.900 Y62.597 E921.99968
G1 X131.580 Y62.597 E923.10792
G1 X131.580 Y62.197 E923.12120
G1 X164.900 Y62.197 E924.22944
G1 X164.900 Y61.797 E924.24272
G1 X131.580 Y61.797 E925.35096
G1 X131.580 Y61.397 E925.36424
G1 X164.900 Y61.397 E926.47248
G1 X164.900 Y60.997 E926.48576
G1 X131.580 Y60.997 E927.59400
G1 X131.580 Y60.597 E927.60728
G1 X164.900 Y60.597 E928.71552
G1 X164.900 Y60.197 E928.72880
G1 X131.580 Y60.197 E929.83704
G1 X131.580 Y59.797 E929.85032
G1 X164.900 Y59.797 E930.95856
G1 X164.900 Y59.397 E930.97184
G1 X131.580 Y59.397 E932.08008
G1 X131.580 Y58.997 E932.09336
G1 X164.900 Y58.997 E933.20160
G1 X164.900 Y58.597 E933.21488
G1 X131.580 Y58.597 E934.32312
G1 X131.580 Y58.197 E934.33640
G1 X164.900 Y58.197 E935.44464
G1 X164.900 Y57.797 E935.45792
G1 X131.580 Y57.797 E936.56616
G1 X131.580 Y57.397 E936.57944
G1 X164.900 Y57.397 E937.68768
G1 X164.900 Y56.997 E937.70096
G1 X131.580 Y56.997 E938.80920
G1 X131.580 Y56.597 E938.82248
G1 X164.900 Y56.597 E939.93072
G1 X164.900 Y56.197 E939.94400
G1 X131.580 Y56.197 E941.05224
G1 X131.580 Y55.797 E941.06552
G1 X164.900 Y55.797 E942.17376
G1 X164.900 Y55.397 E942.18704
G1 X131.580 Y55.397 E943.29528



; ------------------------------------
; Raft Layer #3
; ------------------------------------
M106 S255 ;set fan speed
G92 E0 ;reset extr
G0 F600 Z1.000
;segType:Raft
G0 X131.403 Y55.223 F7200
G1 X131.403 Y37.576 E0.58695 F2400
G1 X131.003 Y37.576 E0.60026
G1 X131.003 Y55.223 E1.18721
G1 X130.603 Y55.223 E1.20051
G1 X130.603 Y37.576 E1.78747
G1 X130.203 Y37.576 E1.80077
G1 X130.203 Y55.223 E2.38772
G1 X129.803 Y55.223 E2.40103
G1 X129.803 Y37.576 E2.98798
G1 X129.403 Y37.576 E3.00128
G1 X129.403 Y55.223 E3.58823
G1 X129.003 Y55.223 E3.60154
G1 X129.003 Y37.576 E4.18849
G1 X128.603 Y37.576 E4.20180
G1 X128.603 Y55.223 E4.78875
G1 X128.203 Y55.223 E4.80205
G1 X128.203 Y37.576 E5.38900
G1 X127.803 Y37.576 E5.40231
G1 X127.803 Y55.223 E5.98926
G1 X127.403 Y55.223 E6.00256
G1 X127.403 Y37.576 E6.58952
G1 X127.003 Y37.576 E6.60282
G1 X127.003 Y55.223 E7.18977
G1 X126.603 Y55.223 E7.20308
G1 X126.603 Y37.576 E7.79003
G1 X126.203 Y37.576 E7.80333
G1 X126.203 Y55.223 E8.39028
G1 X125.803 Y55.223 E8.40359
G1 X125.803 Y37.576 E8.99054
G1 X125.403 Y37.576 E9.00385
G1 X125.403 Y55.223 E9.59080
G1 X125.003 Y55.223 E9.60410
G1 X125.003 Y37.576 E10.19105
G1 X124.603 Y37.576 E10.20436
G1 X124.603 Y55.223 E10.79131
G1 X124.203 Y55.223 E10.80461
G1 X124.203 Y37.576 E11.39157
G1 X123.803 Y37.576 E11.40487
G1 X123.803 Y55.223 E11.99182
G1 X123.403 Y55.223 E12.00513
G1 X123.403 Y37.576 E12.59208
G1 X123.003 Y37.576 E12.60538
G1 X123.003 Y55.223 E13.19233
G1 X122.603 Y55.223 E13.20564
G1 X122.603 Y37.576 E13.79259
G1 X122.203 Y37.576 E13.80589
G1 X122.203 Y55.223 E14.39285
G1 X121.803 Y55.223 E14.40615
G1 X121.803 Y37.576 E14.99310
G1 X121.403 Y37.576 E15.00641
G1 X121.403 Y55.223 E15.59336
G1 X121.003 Y55.223 E15.60666
G1 X121.003 Y37.576 E16.19362
G1 X120.603 Y37.576 E16.20692
G1 X120.603 Y55.223 E16.79387
G1 X120.203 Y55.223 E16.80718
G1 X120.203 Y37.576 E17.39413
G1 X119.803 Y37.576 E17.40743
G1 X119.803 Y55.223 E17.99438
G1 X119.403 Y55.223 E18.00769
G1 X119.403 Y37.576 E18.59464
G1 X119.003 Y37.576 E18.60794
G1 X119.003 Y55.223 E19.19490
G1 X118.603 Y55.223 E19.20820
G1 X118.603 Y37.576 E19.79515
G1 X118.203 Y37.576 E19.80846
G1 X118.203 Y55.223 E20.39541
G1 X117.803 Y55.223 E20.40871
G1 X117.803 Y37.576 E20.99566
G1 X117.403 Y37.576 E21.00897
G1 X117.403 Y162.556 E25.16582
G1 X117.003 Y162.556 E25.17912
G1 X117.003 Y37.576 E29.33597
G1 X116.603 Y37.576 E29.34927
G1 X116.603 Y162.556 E33.50612
G1 X116.203 Y162.556 E33.51943
G1 X116.203 Y37.576 E37.67627
G1 X115.803 Y37.576 E37.68958
G1 X115.803 Y162.556 E41.84643
G1 X115.403 Y162.556 E41.85973
G1 X115.403 Y37.576 E46.01658
G1 X115.003 Y37.576 E46.02989
G1 X115.003 Y162.556 E50.18674
G1 X114.603 Y162.556 E50.20005
G1 X114.603 Y37.576 E54.35689
G1 X114.203 Y37.576 E54.37020
G1 X114.203 Y162.556 E58.52705
G1 X113.803 Y162.556 E58.54035
G1 X113.803 Y37.576 E62.69720
G1 X113.403 Y37.576 E62.71051
G1 X113.403 Y162.556 E66.86736
G1 X113.003 Y162.556 E66.88066
G1 X113.003 Y37.576 E71.03751
G1 X112.603 Y37.576 E71.05081
G1 X112.603 Y162.556 E75.20766
G1 X112.203 Y162.556 E75.22097
G1 X112.203 Y37.576 E79.37781
G1 X111.803 Y37.576 E79.39112
G1 X111.803 Y162.556 E83.54796
G1 X111.403 Y162.556 E83.56127
G1 X111.403 Y37.576 E87.71811
G1 X111.003 Y37.576 E87.73141
G1 X111.003 Y162.556 E91.88826
G1 X110.603 Y162.556 E91.90157
G1 X110.603 Y37.576 E96.05841
G1 X110.203 Y37.576 E96.07172
G1 X110.203 Y162.556 E100.22856
G1 X109.803 Y162.556 E100.24187
G1 X109.803 Y37.576 E104.39871
G1 X109.403 Y37.576 E104.41202
G1 X109.403 Y162.556 E108.56886
G1 X109.003 Y162.556 E108.58217
G1 X109.003 Y37.576 E112.73901
G1 X108.603 Y37.576 E112.75232
G1 X108.603 Y162.556 E116.90916
G1 X108.203 Y162.556 E116.92247
G1 X108.203 Y37.576 E121.07932
G1 X107.803 Y37.576 E121.09262
G1 X107.803 Y162.556 E125.24947
G1 X107.403 Y162.556 E125.26277
G1 X107.403 Y37.576 E129.41962
G1 X107.003 Y37.576 E129.43292
G1 X107.003 Y162.556 E133.58977
G1 X106.603 Y162.556 E133.60307
G1 X106.603 Y37.576 E137.75992
G1 X106.203 Y37.576 E137.77322
G1 X106.203 Y162.556 E141.93007
G1 X105.803 Y162.556 E141.94337
G1 X105.803 Y37.576 E146.10022
G1 X105.403 Y37.576 E146.11353
G1 X105.403 Y162.556 E150.27037
G1 X105.003 Y162.556 E150.28368
G1 X105.003 Y37.576 E154.44052
G1 X104.603 Y37.576 E154.45383
G1 X104.603 Y162.556 E158.61067
G1 X104.203 Y162.556 E158.62398
G1 X104.203 Y37.576 E162.78082
G1 X103.803 Y37.576 E162.79413
G1 X103.803 Y162.556 E166.95097
G1 X103.403 Y162.556 E166.96428
G1 X103.403 Y37.576 E171.12112
G1 X103.003 Y37.576 E171.13442
G1 X103.003 Y162.556 E175.29128
G1 X102.603 Y162.556 E175.30458
G1 X102.603 Y37.576 E179.46142
G1 X102.203 Y37.576 E179.47474
G1 X102.203 Y162.556 E183.63158
G1 X101.803 Y162.556 E183.64488
G1 X101.803 Y37.576 E187.80172
G1 X101.403 Y37.576 E187.81504
G1 X101.403 Y162.556 E191.97188
G1 X101.003 Y162.556 E191.98518
G1 X101.003 Y37.576 E196.14202
G1 X100.603 Y37.576 E196.15534
G1 X100.603 Y162.556 E200.31218
G1 X100.203 Y162.556 E200.32548
G1 X100.203 Y37.576 E204.48234
G1 X99.803 Y37.576 E204.49564
G1 X99.803 Y162.556 E208.65248
G1 X99.403 Y162.556 E208.66578
G1 X99.403 Y37.576 E212.82264
G1 X99.003 Y37.576 E212.83594
G1 X99.003 Y162.556 E216.99278
G1 X98.603 Y162.556 E217.00608
G1 X98.603 Y37.576 E221.16294
G1 X98.203 Y37.576 E221.17624
G1 X98.203 Y162.556 E225.33308
G1 X97.803 Y162.556 E225.34638
G1 X97.803 Y37.576 E229.50324
G1 X97.403 Y37.576 E229.51654
G1 X97.403 Y162.292 E233.66462
G1 X97.003 Y161.897 E233.68332
G1 X97.003 Y37.576 E237.81826
G1 X96.603 Y37.576 E237.83158
G1 X96.603 Y161.502 E241.95338
G1 X96.203 Y161.107 E241.97208
G1 X96.203 Y37.576 E246.08074
G1 X95.803 Y37.576 E246.09406
G1 X95.803 Y160.712 E250.18958
G1 X95.403 Y160.317 E250.20826
G1 X95.403 Y147.411 E250.63752
G1 X95.003 Y147.806 E250.65622
G1 X95.003 Y159.922 E251.05920
G0 X95.403 Y143.855 F7200
G1 X95.403 Y37.839 E254.58530 F2400
G1 X95.003 Y38.234 E254.60400
G1 X95.003 Y143.460 E258.10382
G0 X94.603 Y129.632 F7200
G1 X94.603 Y38.629 E261.13056 F2400
G1 X94.203 Y39.025 E261.14926
G1 X94.203 Y129.632 E264.16288
G1 X93.803 Y129.632 E264.17618
G1 X93.803 Y39.420 E267.17664
G1 X93.403 Y39.815 E267.19534
G1 X93.403 Y129.632 E270.18268
G1 X93.003 Y129.632 E270.19598
G1 X93.003 Y40.210 E273.17016
G0 X117.803 Y69.446 F7200
G1 X117.803 Y162.556 E276.26700 F2400
G1 X118.203 Y162.556 E276.28030
G1 X118.203 Y69.446 E279.37714
G1 X118.603 Y69.446 E279.39044
G1 X118.603 Y162.556 E282.48728
G1 X119.003 Y162.556 E282.50058
G1 X119.003 Y69.446 E285.59742
G0 X131.403 Y69.446 F7200
G1 X131.403 Y97.103 E286.51728 F2400
G1 X131.003 Y97.103 E286.53058
G1 X131.003 Y69.446 E287.45044
G1 X130.603 Y69.446 E287.46374
G1 X130.603 Y97.103 E288.38360
G1 X130.203 Y97.103 E288.39692
G1 X130.203 Y69.446 E289.31678
G1 X129.803 Y69.446 E289.33008
G1 X129.803 Y97.103 E290.24994
G1 X129.403 Y97.103 E290.26324
G1 X129.403 Y69.446 E291.18310
G1 X129.003 Y69.446 E291.19642
G1 X129.003 Y97.103 E292.11628
G1 X128.603 Y97.103 E292.12958
G1 X128.603 Y69.446 E293.04944
G1 X128.203 Y69.446 E293.06274
G1 X128.203 Y97.103 E293.98260
G1 X127.803 Y97.103 E293.99592
G1 X127.803 Y69.446 E294.91578
G1 X127.403 Y69.446 E294.92908
G1 X127.403 Y97.103 E295.84894
G1 X127.003 Y97.103 E295.86224
G1 X127.003 Y69.446 E296.78210
G1 X126.603 Y69.446 E296.79542
G1 X126.603 Y97.103 E297.71528
G1 X126.203 Y97.103 E297.72858
G1 X126.203 Y69.446 E298.64844
G1 X125.803 Y69.446 E298.66174
G1 X125.803 Y97.103 E299.58160
G1 X125.403 Y97.103 E299.59490
G1 X125.403 Y69.446 E300.51478
G1 X125.003 Y69.446 E300.52808
G1 X125.003 Y97.103 E301.44794
G1 X124.603 Y97.103 E301.46124
G1 X124.603 Y69.446 E302.38110
G1 X124.203 Y69.446 E302.39440
G1 X124.203 Y97.103 E303.31428
G1 X123.803 Y97.103 E303.32758
G1 X123.803 Y69.446 E304.24744
G1 X123.403 Y69.446 E304.26074
G1 X123.403 Y97.103 E305.18060
G1 X123.003 Y97.103 E305.19390
G1 X123.003 Y69.446 E306.11376
G1 X122.603 Y69.446 E306.12708
G1 X122.603 Y97.103 E307.04694
G1 X122.203 Y97.103 E307.06024
G1 X122.203 Y69.446 E307.98010
G1 X121.803 Y69.446 E307.99340
G1 X121.803 Y97.103 E308.91326
G1 X121.403 Y97.103 E308.92658
G1 X121.403 Y69.446 E309.84644
G1 X121.003 Y69.446 E309.85974
G1 X121.003 Y97.103 E310.77960
G1 X120.603 Y97.103 E310.79290
G1 X120.603 Y69.446 E311.71276
G1 X120.203 Y69.446 E311.72608
G1 X120.203 Y97.103 E312.64594
G1 X119.803 Y97.103 E312.65924
G1 X119.803 Y69.446 E313.57910
G1 X119.403 Y69.446 E313.59240
G1 X119.403 Y97.103 E314.51226
G0 X131.803 Y97.103 F7200
G1 X131.803 Y37.576 E316.49212 F2400
G1 X132.203 Y37.576 E316.50544
G1 X132.203 Y97.103 E318.48530
G1 X132.603 Y97.103 E318.49860
G1 X132.603 Y37.576 E320.47846
G1 X133.003 Y37.576 E320.49176
G1 X133.003 Y97.103 E322.47162
G1 X133.403 Y97.103 E322.48492
G1 X133.403 Y37.576 E324.46478
G1 X133.803 Y37.576 E324.47808
G1 X133.803 Y97.103 E326.45794
G1 X134.203 Y97.103 E326.47126
G1 X134.203 Y37.576 E328.45112
G1 X134.603 Y37.576 E328.46442
G1 X134.603 Y97.103 E330.44428
G1 X135.003 Y97.103 E330.45758
G1 X135.003 Y37.576 E332.43744
G1 X135.403 Y37.576 E332.45074
G1 X135.403 Y97.103 E334.43060
G1 X135.803 Y97.103 E334.44390
G1 X135.803 Y37.576 E336.42376
G1 X136.203 Y37.576 E336.43708
G1 X136.203 Y97.103 E338.41692
G1 X136.603 Y97.103 E338.43024
G1 X136.603 Y37.576 E340.41008
G1 X137.003 Y37.576 E340.42340
G1 X137.003 Y97.103 E342.40324
G1 X137.403 Y97.103 E342.41656
G1 X137.403 Y37.576 E344.39644
G1 X137.803 Y37.576 E344.40972
G1 X137.803 Y97.103 E346.38960
G1 X138.203 Y97.103 E346.40288
G1 X138.203 Y37.576 E348.38276
G1 X138.603 Y37.576 E348.39604
G1 X138.603 Y97.103 E350.37592
G1 X139.003 Y97.103 E350.38924
G1 X139.003 Y37.576 E352.36908
G1 X139.403 Y37.576 E352.38240
G1 X139.403 Y97.103 E354.36224
G1 X139.803 Y97.103 E354.37556
G1 X139.803 Y37.576 E356.35540
G1 X140.203 Y37.576 E356.36872
G1 X140.203 Y97.103 E358.34856
G1 X140.603 Y97.103 E358.36188
G1 X140.603 Y37.576 E360.34172
G1 X141.003 Y37.576 E360.35504
G1 X141.003 Y97.103 E362.33488
G0 X119.403 Y125.022 F7200
G1 X119.403 Y162.556 E363.58328 F2400
G1 X119.803 Y162.556 E363.59660
G1 X119.803 Y125.022 E364.84496
G1 X120.203 Y125.022 E364.85828
G1 X120.203 Y162.556 E366.10664
G1 X120.603 Y162.556 E366.11996
G1 X120.603 Y125.022 E367.36836
G1 X121.003 Y125.022 E367.38164
G1 X121.003 Y162.556 E368.63004
G1 X121.403 Y162.556 E368.64336
G1 X121.403 Y125.022 E369.89172
G1 X121.803 Y125.022 E369.90504
G1 X121.803 Y162.556 E371.15340
G1 X122.203 Y162.556 E371.16672
G1 X122.203 Y125.022 E372.41512
G1 X122.603 Y125.022 E372.42840
G1 X122.603 Y162.556 E373.67680
G1 X123.003 Y162.556 E373.69008
G1 X123.003 Y125.022 E374.93848
G1 X123.403 Y125.022 E374.95180
G1 X123.403 Y162.556 E376.20016
G1 X123.803 Y162.556 E376.21348
G1 X123.803 Y125.022 E377.46184
G1 X124.203 Y125.022 E377.47516
G1 X124.203 Y162.556 E378.72356
G1 X124.603 Y162.556 E378.73684
G1 X124.603 Y125.022 E379.98524
G1 X125.003 Y125.022 E379.99852
G1 X125.003 Y162.292 E381.23812
G1 X125.403 Y161.897 E381.25684
G1 X125.403 Y125.022 E382.48332
G1 X125.803 Y125.022 E382.49660
G1 X125.803 Y161.502 E383.70992
G1 X126.203 Y161.107 E383.72864
G1 X126.203 Y125.022 E384.92884
G1 X126.603 Y125.022 E384.94212
G1 X126.603 Y160.712 E386.12920
G1 X127.003 Y160.317 E386.14788
G1 X127.003 Y125.022 E387.32180
G1 X127.403 Y125.022 E387.33512
G1 X127.403 Y159.922 E388.49588
G1 X127.803 Y159.658 E388.51180
G1 X127.803 Y125.022 E389.66380
G1 X128.203 Y125.022 E389.67712
G1 X128.203 Y159.658 E390.82912
G1 X128.603 Y159.658 E390.84244
G1 X128.603 Y125.022 E391.99444
G1 X129.003 Y125.022 E392.00776
G1 X129.003 Y159.658 E393.15976
G1 X129.403 Y159.658 E393.17308
G1 X129.403 Y125.022 E394.32508
G1 X129.803 Y125.022 E394.33836
G1 X129.803 Y159.658 E395.49040
G1 X130.203 Y159.658 E395.50368
G1 X130.203 Y125.022 E396.65572
G1 X130.603 Y125.022 E396.66900
G1 X130.603 Y159.658 E397.82100
G1 X131.003 Y159.658 E397.83432
G1 X131.003 Y125.022 E398.98632
G1 X131.403 Y125.022 E398.99964
G1 X131.403 Y159.922 E400.16040
G1 X131.803 Y160.317 E400.17912
G1 X131.803 Y125.022 E401.35304
G1 X132.203 Y125.022 E401.36632
G1 X132.203 Y160.712 E402.55336
G1 X132.603 Y161.107 E402.57208
G1 X132.603 Y125.022 E403.77228
G1 X133.003 Y125.022 E403.78560
G1 X133.003 Y161.502 E404.99892
G1 X133.403 Y161.897 E405.01760
G1 X133.403 Y125.022 E406.24408
G1 X133.803 Y125.022 E406.25740
G1 X133.803 Y162.292 E407.49696
G1 X134.203 Y162.556 E407.51292
G1 X134.203 Y125.022 E408.76128
G1 X134.603 Y125.022 E408.77460
G1 X134.603 Y162.556 E410.02296
G1 X135.003 Y162.556 E410.03628
G1 X135.003 Y125.022 E411.28468
G1 X135.403 Y125.022 E411.29796
G1 X135.403 Y162.556 E412.54636
G1 X135.803 Y162.556 E412.55968
G1 X135.803 Y125.022 E413.80804
G1 X136.203 Y125.022 E413.82136
G1 X136.203 Y162.556 E415.06972
G1 X136.603 Y162.556 E415.08304
G1 X136.603 Y125.022 E416.33144
G1 X137.003 Y125.022 E416.34472
G1 X137.003 Y162.556 E417.59312
G1 X137.403 Y162.556 E417.60640
G1 X137.403 Y125.022 E418.85480
G1 X137.803 Y125.022 E418.86812
G1 X137.803 Y162.556 E420.11648
G1 X138.203 Y162.556 E420.12980
G1 X138.203 Y125.022 E421.37816
G1 X138.603 Y125.022 E421.39148
G1 X138.603 Y162.556 E422.63988
G1 X139.003 Y162.556 E422.65316
G1 X139.003 Y125.022 E423.90156
G1 X139.403 Y125.022 E423.91484
G1 X139.403 Y162.556 E425.16324
G1 X139.803 Y162.556 E425.17656
G1 X139.803 Y125.022 E426.42492
G1 X140.203 Y125.022 E426.43824
G1 X140.203 Y162.556 E427.68660
G1 X140.603 Y162.556 E427.69992
G1 X140.603 Y125.022 E428.94832
G1 X141.003 Y125.022 E428.96160
G1 X141.003 Y162.556 E430.21000
G1 X141.403 Y162.556 E430.22328
G1 X141.403 Y37.576 E434.38016
G1 X141.803 Y37.576 E434.39348
G1 X141.803 Y162.556 E438.55032
G1 X142.203 Y162.556 E438.56364
G1 X142.203 Y37.576 E442.72048
G1 X142.603 Y37.576 E442.73380
G1 X142.603 Y162.556 E446.89064
G1 X143.003 Y162.556 E446.90396
G1 X143.003 Y37.576 E451.06084
G1 X143.403 Y37.576 E451.07412
G1 X143.403 Y162.556 E455.23100
G1 X143.803 Y162.556 E455.24428
G1 X143.803 Y37.576 E459.40116
G1 X144.203 Y37.576 E459.41444
G1 X144.203 Y162.556 E463.57132
G1 X144.603 Y162.556 E463.58464
G1 X144.603 Y37.576 E467.74148
G1 X145.003 Y37.576 E467.75480
G1 X145.003 Y162.556 E471.91164
G1 X145.403 Y162.556 E471.92496
G1 X145.403 Y37.576 E476.08180
G1 X145.803 Y37.576 E476.09512
G1 X145.803 Y162.556 E480.25200
G1 X146.203 Y162.556 E480.26528
G1 X146.203 Y37.576 E484.42216
G1 X146.603 Y37.576 E484.43544
G1 X146.603 Y162.556 E488.59232
G1 X147.003 Y162.556 E488.60564
G1 X147.003 Y37.576 E492.76248
G1 X147.403 Y37.576 E492.77580
G1 X147.403 Y162.556 E496.93264
G1 X147.803 Y162.556 E496.94596
G1 X147.803 Y37.576 E501.10280
G1 X148.203 Y37.576 E501.11612
G1 X148.203 Y162.556 E505.27296
G1 X148.603 Y162.556 E505.28628
G1 X148.603 Y37.576 E509.44316
G1 X149.003 Y37.576 E509.45644
G1 X149.003 Y162.556 E513.61328
G1 X149.403 Y162.556 E513.62660
G1 X149.403 Y37.576 E517.78344
G1 X149.803 Y37.576 E517.79676
G1 X149.803 Y162.556 E521.95360
G1 X150.203 Y162.556 E521.96692
G1 X150.203 Y37.576 E526.12376
G1 X150.603 Y37.576 E526.13708
G1 X150.603 Y162.556 E530.29396
G1 X151.003 Y162.556 E530.30724
G1 X151.003 Y37.576 E534.46412
G1 X151.403 Y37.576 E534.47740
G1 X151.403 Y162.556 E538.63428
G1 X151.803 Y162.556 E538.64760
G1 X151.803 Y37.576 E542.80444
G1 X152.203 Y37.576 E542.81776
G1 X152.203 Y162.556 E546.97460
G1 X152.603 Y162.556 E546.98792
G1 X152.603 Y37.576 E551.14476
G1 X153.003 Y37.576 E551.15808
G1 X153.003 Y162.556 E555.31496
G1 X153.403 Y162.556 E555.32824
G1 X153.403 Y37.576 E559.48512
G1 X153.803 Y37.576 E559.49840
G1 X153.803 Y162.556 E563.65528
G1 X154.203 Y162.556 E563.66856
G1 X154.203 Y37.576 E567.82544
G1 X154.603 Y37.576 E567.83876
G1 X154.603 Y162.556 E571.99560
G1 X155.003 Y162.556 E572.00892
G1 X155.003 Y37.576 E576.16576
G1 X155.403 Y37.576 E576.17908
G1 X155.403 Y162.556 E580.33592
G1 X155.803 Y162.556 E580.34924
G1 X155.803 Y37.576 E584.50612
G1 X156.203 Y37.576 E584.51940
G1 X156.203 Y162.556 E588.67628
G1 X156.603 Y162.556 E588.68956
G1 X156.603 Y37.576 E592.84644
G1 X157.003 Y37.576 E592.85976
G1 X157.003 Y162.556 E597.01660
G1 X157.403 Y162.556 E597.02992
G1 X157.403 Y37.576 E601.18676
G1 X157.803 Y37.576 E601.20008
G1 X157.803 Y162.556 E605.35692
G1 X158.203 Y162.556 E605.37024
G1 X158.203 Y37.576 E609.52708
G1 X158.603 Y37.576 E609.54040
G1 X158.603 Y162.556 E613.69728
G1 X159.003 Y162.556 E613.71056
G1 X159.003 Y37.576 E617.86744
G1 X159.403 Y37.576 E617.88072
G1 X159.403 Y162.556 E622.03760
G1 X159.803 Y162.556 E622.05092
G1 X159.803 Y37.576 E626.20776
G1 X160.203 Y37.576 E626.22108
G1 X160.203 Y162.556 E630.37792
G1 X160.603 Y162.556 E630.39124
G1 X160.603 Y37.576 E634.54808
G1 X161.003 Y37.576 E634.56140
G1 X161.003 Y162.556 E638.71828
G1 X161.403 Y162.556 E638.73156
G1 X161.403 Y37.576 E642.88844
G1 X161.803 Y37.576 E642.90172
G1 X161.803 Y162.556 E647.05860
G1 X162.203 Y162.556 E647.07188
G1 X162.203 Y37.576 E651.22876
G1 X162.603 Y37.971 E651.24744
G1 X162.603 Y162.161 E655.37800
G1 X163.003 Y161.766 E655.39668
G1 X163.003 Y38.366 E659.50096
G1 X163.403 Y38.761 E659.51964
G1 X163.403 Y161.371 E663.59764
G1 X163.803 Y160.975 E663.61632
G1 X163.803 Y39.156 E667.66804
G1 X164.203 Y39.551 E667.68672
G1 X164.203 Y160.580 E671.71216
G1 X164.603 Y160.185 E671.73080
G1 X164.603 Y39.946 E675.73000
G0 X165.003 Y70.632 F7200
G1 X165.003 Y129.632 E677.69232 F2400
G1 X165.403 Y129.632 E677.70560
G1 X165.403 Y70.632 E679.66800
G1 X165.803 Y70.632 E679.68128
G1 X165.803 Y129.632 E681.64360
G1 X166.203 Y129.632 E681.65696
G1 X166.203 Y70.632 E683.61928
G1 X166.603 Y70.632 E683.63256
G1 X166.603 Y129.632 E685.59488
G1 X167.003 Y129.632 E685.60824
G1 X167.003 Y70.632 E687.57056
G1 X167.403 Y70.632 E687.58384
G1 X167.403 Y129.632 E689.54624
G1 X167.803 Y129.632 E689.55952
G1 X167.803 Y70.632 E691.52184
G1 X168.203 Y70.632 E691.53512
G1 X168.203 Y129.632 E693.49752
G1 X168.603 Y129.632 E693.51080
G1 X168.603 Y70.632 E695.47312
G1 X169.003 Y70.632 E695.48648
G1 X169.003 Y129.632 E697.44880
G1 X169.403 Y129.632 E697.46208
G1 X169.403 Y70.632 E699.42440
G1 X169.803 Y70.632 E699.43776
G1 X169.803 Y129.632 E701.40008
G1 X170.203 Y129.632 E701.41336
G1 X170.203 Y70.632 E703.37576
G1 X170.603 Y70.632 E703.38904
G1 X170.603 Y129.632 E705.35136
G1 X171.003 Y129.632 E705.36472
G1 X171.003 Y70.632 E707.32704
G1 X171.403 Y70.632 E707.34032
G1 X171.403 Y129.632 E709.30264
G1 X171.803 Y129.632 E709.31600
G1 X171.803 Y70.632 E711.27832
G1 X172.203 Y70.632 E711.29160
G1 X172.203 Y129.632 E713.25400
G1 X172.603 Y129.632 E713.26728
G1 X172.603 Y70.632 E715.22960
G1 X173.003 Y70.632 E715.24288
G1 X173.003 Y129.632 E717.20528
G1 X173.403 Y129.632 E717.21856
G1 X173.403 Y70.632 E719.18088
G1 X173.803 Y70.632 E719.19424
G1 X173.803 Y129.632 E721.15656
G1 X174.203 Y129.632 E721.16984
G1 X174.203 Y70.632 E723.13224
G1 X174.603 Y70.632 E723.14552
G1 X174.603 Y129.632 E725.10784
G1 X175.003 Y129.632 E725.12112
G1 X175.003 Y70.632 E727.08352
G1 X175.403 Y70.632 E727.09680
G1 X175.403 Y129.632 E729.05912
G1 X175.803 Y129.632 E729.07248
G1 X175.803 Y70.632 E731.03480
G1 X176.203 Y70.632 E731.04808
G1 X176.203 Y129.632 E733.01040
G1 X176.603 Y129.632 E733.02376
G1 X176.603 Y70.632 E734.98608
G1 X177.003 Y70.632 E734.99936
G1 X177.003 Y129.632 E736.96176
G1 X177.403 Y129.632 E736.97504
G1 X177.403 Y70.632 E738.93736
G1 X177.803 Y70.632 E738.95072
G1 X177.803 Y129.632 E740.91304
G1 X178.203 Y129.632 E740.92632
G1 X178.203 Y70.632 E742.88864
G1 X178.603 Y70.632 E742.90200
G1 X178.603 Y129.632 E744.86432
G1 X179.003 Y129.632 E744.87760
G1 X179.003 Y70.632 E746.84000
G1 X179.403 Y70.632 E746.85328
G1 X179.403 Y129.632 E748.81560
G1 X179.803 Y129.632 E748.82888
G1 X179.803 Y70.632 E750.79128
G1 X180.203 Y70.632 E750.80456
G1 X180.203 Y129.632 E752.76688
G1 X180.603 Y129.632 E752.78024
G1 X180.603 Y70.632 E754.74256
G1 X181.003 Y70.632 E754.75584
G1 X181.003 Y129.632 E756.71824
G1 X181.403 Y129.632 E756.73152
G1 X181.403 Y70.632 E758.69384
G1 X181.803 Y70.632 E758.70712
G1 X181.803 Y129.632 E760.66952
G1 X182.203 Y129.632 E760.68280
G1 X182.203 Y70.632 E762.64512
G1 X182.603 Y70.632 E762.65848
G1 X182.603 Y129.632 E764.62080
G1 X183.003 Y129.632 E764.63408
G1 X183.003 Y70.632 E766.59640
G1 X183.403 Y70.632 E766.60976
G1 X183.403 Y129.632 E768.57208
G1 X183.803 Y129.632 E768.58536
G1 X183.803 Y70.632 E770.54776
G1 X184.203 Y70.632 E770.56104
G1 X184.203 Y129.632 E772.52336
G1 X184.603 Y129.632 E772.53672
G1 X184.603 Y70.632 E774.49904
G1 X185.003 Y70.632 E774.51232
G1 X185.003 Y129.632 E776.47464
G1 X185.403 Y129.632 E776.48800
G1 X185.403 Y70.632 E778.45032
G1 X185.803 Y70.632 E778.46360
G1 X185.803 Y129.632 E780.42600
G1 X186.203 Y129.632 E780.43928
G1 X186.203 Y70.632 E782.40160
G1 X186.603 Y70.632 E782.41488
G1 X186.603 Y129.632 E784.37728
G1 X187.003 Y129.632 E784.39056
G1 X187.003 Y70.632 E786.35288
G1 X187.403 Y70.632 E786.36624
G1 X187.403 Y129.632 E788.32856
G1 X187.803 Y129.632 E788.34184
G1 X187.803 Y70.632 E790.30416
G1 X188.203 Y70.632 E790.31752
G1 X188.203 Y129.632 E792.27984
G1 X188.603 Y129.632 E792.29312
G1 X188.603 Y70.632 E794.25552
G1 X189.003 Y70.632 E794.26880
G1 X189.003 Y129.632 E796.23112
G1 X189.403 Y129.632 E796.24448
G1 X189.403 Y70.632 E798.20680
G1 X189.803 Y70.632 E798.22008
G1 X189.803 Y129.632 E800.18240
G1 X190.203 Y129.632 E800.19576
G1 X190.203 Y70.632 E802.15808
G1 X190.603 Y70.895 E802.17400
G1 X190.603 Y129.237 E804.11448
G1 X191.003 Y128.842 E804.13312
G1 X191.003 Y71.290 E806.04728
G1 X191.403 Y71.685 E806.06600
G1 X191.403 Y128.446 E807.95384
G1 X191.803 Y128.051 E807.97256
G1 X191.803 Y72.080 E809.83408
G1 X192.203 Y72.475 E809.85280
G1 X192.203 Y127.656 E811.68808
G1 X192.603 Y127.261 E811.70680
G1 X192.603 Y72.871 E813.51584
G1 X193.003 Y73.266 E813.53448
G1 X193.003 Y126.866 E815.31728
G0 X92.603 Y129.632 F7200
G1 X92.603 Y70.632 E817.27960 F2400
G1 X92.203 Y70.632 E817.29288
G1 X92.203 Y129.632 E819.25528
G1 X91.803 Y129.632 E819.26856
G1 X91.803 Y70.632 E821.23088
G1 X91.403 Y70.632 E821.24424
G1 X91.403 Y129.632 E823.20656
G1 X91.003 Y129.632 E823.21984
G1 X91.003 Y70.632 E825.18216
G1 X90.603 Y70.632 E825.19552
G1 X90.603 Y129.632 E827.15784
G1 X90.203 Y129.632 E827.17112
G1 X90.203 Y70.632 E829.13352
G1 X89.803 Y70.632 E829.14680
G1 X89.803 Y129.632 E831.10912
G1 X89.403 Y129.632 E831.12240
G1 X89.403 Y70.632 E833.08480
G1 X89.003 Y70.632 E833.09808
G1 X89.003 Y129.632 E835.06040
G1 X88.603 Y129.632 E835.07376
G1 X88.603 Y70.632 E837.03608
G1 X88.203 Y70.632 E837.04936
G1 X88.203 Y129.632 E839.01168
G1 X87.803 Y129.632 E839.02504
G1 X87.803 Y70.632 E840.98736
G1 X87.403 Y70.632 E841.00064
G1 X87.403 Y129.632 E842.96304
G1 X87.003 Y129.632 E842.97632
G1 X87.003 Y70.632 E844.93864
G1 X86.603 Y70.632 E844.95200
G1 X86.603 Y129.632 E846.91432
G1 X86.203 Y129.632 E846.92760
G1 X86.203 Y70.632 E848.88992
G1 X85.803 Y70.632 E848.90328
G1 X85.803 Y129.632 E850.86560
G1 X85.403 Y129.632 E850.87888
G1 X85.403 Y70.632 E852.84128
G1 X85.003 Y70.632 E852.85456
G1 X85.003 Y129.632 E854.81688
G1 X84.603 Y129.632 E854.83024
G1 X84.603 Y70.632 E856.79256
G1 X84.203 Y70.632 E856.80584
G1 X84.203 Y129.632 E858.76816
G1 X83.803 Y129.632 E858.78152
G1 X83.803 Y70.632 E860.74384
G1 X83.403 Y70.632 E860.75712
G1 X83.403 Y129.632 E862.71952
G1 X83.003 Y129.632 E862.73280
G1 X83.003 Y70.632 E864.69512
G1 X82.603 Y70.632 E864.70840
G1 X82.603 Y129.632 E866.67080
G1 X82.203 Y129.632 E866.68408
G1 X82.203 Y70.632 E868.64640
G1 X81.803 Y70.632 E868.65976
G1 X81.803 Y129.632 E870.62208
G1 X81.403 Y129.632 E870.63536
G1 X81.403 Y70.632 E872.59768
G1 X81.003 Y70.632 E872.61104
G1 X81.003 Y129.632 E874.57336
G1 X80.603 Y129.632 E874.58664
G1 X80.603 Y70.632 E876.54904
G1 X80.203 Y70.632 E876.56232
G1 X80.203 Y129.632 E878.52464
G1 X79.803 Y129.632 E878.53800
G1 X79.803 Y70.632 E880.50032
G1 X79.403 Y70.632 E880.51360
G1 X79.403 Y129.632 E882.47592
G1 X79.003 Y129.632 E882.48928
G1 X79.003 Y70.632 E884.45160
G1 X78.603 Y70.632 E884.46488
G1 X78.603 Y129.632 E886.42728
G1 X78.203 Y129.632 E886.44056
G1 X78.203 Y70.632 E888.40288
G1 X77.803 Y70.632 E888.41616
G1 X77.803 Y129.632 E890.37856
G1 X77.403 Y129.632 E890.39184
G1 X77.403 Y70.632 E892.35416
G1 X77.003 Y70.632 E892.36752
G1 X77.003 Y129.632 E894.32984
G1 X76.603 Y129.632 E894.34312
G1 X76.603 Y70.632 E896.30552
G1 X76.203 Y70.632 E896.31880
G1 X76.203 Y129.632 E898.28112
G1 X75.803 Y129.632 E898.29440
G1 X75.803 Y70.632 E900.25680
G1 X75.403 Y70.632 E900.27008
G1 X75.403 Y129.632 E902.23240
G1 X75.003 Y129.632 E902.24576
G1 X75.003 Y70.632 E904.20808
G1 X74.603 Y70.632 E904.22136
G1 X74.603 Y129.632 E906.18368
G1 X74.203 Y129.632 E906.19704
G1 X74.203 Y70.632 E908.15936
G1 X73.803 Y70.632 E908.17264
G1 X73.803 Y129.632 E910.13504
G1 X73.403 Y129.632 E910.14832
G1 X73.403 Y70.632 E912.11064
G1 X73.003 Y70.632 E912.12400
G1 X73.003 Y129.632 E914.08632
G1 X72.603 Y129.632 E914.09960
G1 X72.603 Y70.632 E916.06192
G1 X72.203 Y70.632 E916.07528
G1 X72.203 Y129.632 E918.03760
G1 X71.803 Y129.632 E918.05088
G1 X71.803 Y70.632 E920.01328
G1 X71.403 Y70.632 E920.02656
G1 X71.403 Y129.632 E921.98888
G1 X71.003 Y129.632 E922.00216
G1 X71.003 Y70.632 E923.96456
G1 X70.603 Y70.632 E923.97784
G1 X70.603 Y129.632 E925.94016
G1 X70.203 Y129.632 E925.95352
G1 X70.203 Y70.632 E927.91584
G1 X69.803 Y70.632 E927.92912
G1 X69.803 Y129.632 E929.89144
G1 X69.403 Y129.368 E929.90744
G1 X69.403 Y70.763 E931.85664
G1 X69.003 Y71.158 E931.87528
G1 X69.003 Y128.973 E933.79824
G1 X68.603 Y128.578 E933.81688
G1 X68.603 Y71.554 E935.71360
G1 X68.203 Y71.949 E935.73224
G1 X68.203 Y128.183 E937.60264
G1 X67.803 Y127.788 E937.62128
G1 X67.803 Y72.344 E939.46536
G1 X67.403 Y72.739 E939.48400
G1 X67.403 Y127.393 E941.30184
G1 X67.003 Y126.998 E941.32048
G1 X67.003 Y73.134 E943.11200


; ------------------------------------
; Layer #0
; ------------------------------------
G21 ; mm
G90 ; abs
G92 E0 ;reset extr
G0 F600 Z1.550
;segType:Support
G0 F3000 E-1.00000
G0 X103.900 Y149.500 F5400
G0 F3000 E0.00000
G1 X156.100 Y149.500 E1.47575 F2400
G1 X156.100 Y147.700 E1.52664
G1 X100.300 Y147.700 E3.10417
G1 X100.300 Y145.900 E3.15506
G1 X156.100 Y145.900 E4.73259
G1 X156.100 Y144.100 E4.78347
G1 X100.300 Y144.100 E6.36100
G1 X100.300 Y142.300 E6.41189
G1 X156.100 Y142.300 E7.98942
G0 X156.100 Y138.700 F5400
G1 X103.900 Y138.700 E9.46517 F2400
G0 F3000 E8.46517
G0 X101.000 Y140.143 F5400
G0 F3000 E9.46517
;segType:InnerHair
G1 X101.000 Y132.257 E9.72702 F2400
G0 X101.201 Y132.066 F5400
;segType:HShell
G1 X100.961 Y131.826 E9.73831 F2400
G0 X101.400 Y133.900 F5400
;segType:Loop
G1 X101.400 Y140.400 E9.95451 F2400
G1 X100.600 Y140.400 E9.98109
G1 X100.600 Y126.461 E10.44470
G1 X100.517 Y125.825 E10.46601
G1 X100.256 Y125.197 E10.48863
G1 X99.843 Y124.658 E10.51125
G1 X99.303 Y124.244 E10.53388
G1 X98.674 Y123.983 E10.55650
G1 X98.039 Y123.900 E10.57780
G1 X72.600 Y123.900 E11.42391
G1 X72.600 Y76.100 E13.01371
G1 X96.039 Y76.100 E13.79329
G1 X96.675 Y76.017 E13.81460
G1 X97.303 Y75.756 E13.83722
G1 X97.842 Y75.342 E13.85983
G1 X98.256 Y74.803 E13.88245
G1 X98.517 Y74.174 E13.90508
G1 X98.600 Y73.539 E13.92639
G1 X98.600 Y43.100 E14.93879
G1 X159.400 Y43.100 E16.96098
G1 X159.400 Y73.539 E17.97337
G1 X159.483 Y74.175 E17.99468
G1 X159.744 Y74.803 E18.01730
G1 X160.157 Y75.342 E18.03992
G1 X160.697 Y75.756 E18.06255
G1 X161.326 Y76.017 E18.08517
G1 X161.961 Y76.100 E18.10648
G1 X187.400 Y76.100 E18.95258
G1 X187.400 Y123.900 E20.54238
G1 X161.961 Y123.900 E21.38848
G1 X161.326 Y123.983 E21.40978
G1 X160.697 Y124.244 E21.43241
G1 X160.157 Y124.658 E21.45504
G1 X159.744 Y125.197 E21.47765
G1 X159.483 Y125.826 E21.50028
G1 X159.400 Y126.461 E21.52158
G1 X159.400 Y156.899 E22.53398
G1 X137.100 Y156.899 E23.27566
G1 X137.100 Y155.600 E23.31887
G1 X158.600 Y155.600 E24.03396
G1 X158.600 Y132.400 E24.80562
G1 X101.400 Y132.400 E26.70812
G1 X101.400 Y133.700 E26.75136
G0 X101.800 Y132.060 F5400
;segType:Perimeter
G1 X101.800 Y132.860 E26.77796 F1200
G1 X101.800 Y140.800 E27.04205
G1 X100.200 Y140.800 E27.09524
G1 X100.200 Y126.487 E27.57129
G1 X100.127 Y125.930 E27.58997
G1 X99.907 Y125.399 E27.60909
G1 X99.557 Y124.943 E27.62820
G1 X99.101 Y124.593 E27.64733
G1 X98.570 Y124.373 E27.66645
G1 X98.013 Y124.300 E27.68513
G1 X72.200 Y124.300 E28.54366
G1 X72.200 Y75.700 E30.16007
G1 X96.013 Y75.700 E30.95208
G1 X96.570 Y75.627 E30.97077
G1 X97.101 Y75.407 E30.98989
G1 X97.557 Y75.057 E31.00900
G1 X97.907 Y74.601 E31.02812
G1 X98.127 Y74.070 E31.04724
G1 X98.200 Y73.513 E31.06593
G1 X98.200 Y42.701 E32.09076
G1 X159.800 Y42.701 E34.13955
G1 X159.800 Y73.513 E35.16438
G1 X159.873 Y74.070 E35.18307
G1 X160.093 Y74.601 E35.20219
G1 X160.443 Y75.057 E35.22130
G1 X160.899 Y75.407 E35.24043
G1 X161.430 Y75.627 E35.25955
G1 X161.987 Y75.700 E35.27823
G1 X187.800 Y75.700 E36.13676
G1 X187.800 Y124.300 E37.75317
G1 X161.987 Y124.300 E38.61171
G1 X161.430 Y124.373 E38.63038
G1 X160.899 Y124.593 E38.64950
G1 X160.443 Y124.943 E38.66863
G1 X160.093 Y125.399 E38.68774
G1 X159.873 Y125.930 E38.70686
G1 X159.800 Y126.487 E38.72555
G1 X159.800 Y157.300 E39.75038
G1 X136.700 Y157.300 E40.51866
G1 X136.700 Y155.200 E40.58848
G1 X158.200 Y155.200 E41.30357
G1 X158.200 Y132.800 E42.04862
G1 X101.860 Y132.800 E43.92251
G0 X101.800 Y132.860 F5400
G0 X101.800 Y134.460
G0 F3000 E42.92251
G0 X101.400 Y135.046 F5400
G0 X101.400 Y132.400
G0 X103.205 Y132.400
G0 X110.574 Y121.600
G0 X110.328 Y121.960
G0 F3000 E43.92251
;segType:HShell
G1 X113.539 Y125.172 E44.07357 F2400
G0 X113.539 Y124.606 F5400
G1 X110.894 Y121.960 E44.19802 F2400
G0 X111.459 Y121.960 F5400
G1 X113.539 Y124.041 E44.29586 F2400
G0 X113.539 Y123.475 F5400
G1 X111.460 Y121.396 E44.39364 F2400
G0 X111.440 Y121.200 F5400
;segType:Perimeter
G1 X110.640 Y121.200 E44.42025 F1200
G1 X104.300 Y121.200 E44.63114
G1 X104.300 Y114.800 E44.84403
G1 X110.700 Y114.800 E45.05691
G1 X110.700 Y121.140 E45.26781
G0 X110.640 Y121.200 F5400
G0 X109.040 Y121.200
G0 X109.600 Y121.600
;segType:Loop
G1 X103.900 Y121.600 E45.45741 F2400
G1 X103.900 Y114.400 E45.69691
G1 X111.100 Y114.400 E45.93640
G1 X111.100 Y121.600 E46.17590
G1 X109.800 Y121.600 E46.21914
G0 F3000 E45.21914
G0 X109.654 Y132.400 F5400
G0 X109.659 Y132.039
G0 F3000 E46.21914
;segType:HShell
G1 X96.960 Y119.341 E46.81644 F2400
G0 X96.940 Y119.200 F5400
;segType:Perimeter
G1 X96.140 Y119.200 E46.84305 F1200
G1 X91.800 Y119.200 E46.98742
G1 X91.800 Y116.800 E47.06728
G1 X96.200 Y116.800 E47.21365
G1 X96.200 Y119.140 E47.29151
G0 X96.140 Y119.200 F5400
G0 X94.540 Y119.200
G0 X95.100 Y119.600
;segType:Loop
G1 X91.400 Y119.600 E47.41460 F2400
G1 X91.400 Y116.399 E47.52107
G1 X96.600 Y116.399 E47.69405
G1 X96.600 Y119.600 E47.80051
G1 X95.300 Y119.600 E47.84375
G0 F3000 E46.84375
G0 X91.400 Y119.600 F5400
G0 X91.400 Y116.399
G0 X93.852 Y116.399
G0 X91.601 Y111.425
G0 X91.601 Y111.600
G0 X91.843 Y111.961
G0 F3000 E47.84375
;segType:HShell
G1 X95.922 Y116.039 E48.03561 F2400
G0 X96.487 Y116.039 F5400
G1 X91.961 Y111.513 E48.24853 F2400
G0 X91.941 Y111.200 F5400
;segType:Perimeter
G1 X91.141 Y111.200 E48.27514 F1200
G1 X84.800 Y111.200 E48.48604
G1 X84.800 Y104.800 E48.69893
G1 X91.201 Y104.800 E48.91183
G1 X91.201 Y111.140 E49.12272
G0 X91.141 Y111.200 F5400
